;FLAVOR:Marlin
;TIME:38352
;Filament used: 61.8229m
;Layer height: 0.28
;MINX:49
;MINY:49
;MINZ:0.28
;MAXX:171
;MAXY:171
;MAXZ:99.96
;Generated with Cura_SteamEngine master
M140 S80
M105
M190 S80
M104 S215
M105
M109 S215
M82 ;absolute extrusion mode
; Ender 3 Custom Start G-code
G92 E0 ; Reset Extruder
G28 ; Home all axes
G1 Z2.0 F3000 ; Move Z Axis up little to prevent scratching of Heat Bed
G1 X0.1 Y20 Z0.3 F5000.0 ; Move to start position
G1 X0.1 Y200.0 Z0.3 F1500.0 E15 ; Draw the first line
G1 X0.4 Y200.0 Z0.3 F5000.0 ; Move to side a little
G1 X0.4 Y20 Z0.3 F1500.0 E30 ; Draw the second line
G92 E0 ; Reset Extruder
G1 Z2.0 F3000 ; Move Z Axis up little to prevent scratching of Heat Bed
G1 X5 Y20 Z0.3 F5000.0 ; Move over to prevent blob squish
G92 E0
G92 E0
G1 F1500 E-6.5
;LAYER_COUNT:357
;LAYER:0
M107
G0 F6000 X52.198 Y52.264 Z0.28
;TYPE:SKIRT
G1 F1500 E0
G1 F1200 X52.886 Y51.627 E0.04366
G1 X53.626 Y51.051 E0.08732
G1 X54.412 Y50.539 E0.131
G1 X55.239 Y50.097 E0.17467
G1 X56.101 Y49.727 E0.21835
G1 X56.991 Y49.431 E0.26202
G1 X57.903 Y49.213 E0.30568
G1 X58.83 Y49.072 E0.34935
G1 X59.701 Y49.013 E0.39
G1 X60.022 Y49.004 E0.40495
G1 X60.33 Y49 E0.41929
G1 X159.293 Y49 E5.02742
G1 X160.149 Y49.011 E5.06729
G1 X161.085 Y49.065 E5.11094
G1 X162.013 Y49.197 E5.15459
G1 X162.927 Y49.409 E5.19828
G1 X163.819 Y49.698 E5.24194
G1 X164.684 Y50.061 E5.28562
G1 X165.514 Y50.497 E5.32928
G1 X166.305 Y51.002 E5.37298
G1 X167.049 Y51.573 E5.41665
G1 X167.742 Y52.205 E5.46032
G1 X168.379 Y52.893 E5.50398
G1 X168.954 Y53.634 E5.54765
G1 X169.465 Y54.42 E5.59131
G1 X169.907 Y55.248 E5.63501
G1 X170.276 Y56.11 E5.67867
G1 X170.571 Y57 E5.72233
G1 X170.789 Y57.912 E5.76599
G1 X170.929 Y58.84 E5.80969
G1 X170.987 Y59.701 E5.84988
G1 X170.996 Y60.021 E5.86478
G1 X171 Y60.33 E5.87917
G1 X170.999 Y159.4 E10.49229
G1 X170.99 Y160.127 E10.52614
G1 X170.939 Y161.064 E10.56984
G1 X170.807 Y161.992 E10.61348
G1 X170.598 Y162.906 E10.65714
G1 X170.311 Y163.799 E10.70082
G1 X169.949 Y164.665 E10.74452
G1 X169.515 Y165.496 E10.78818
G1 X169.011 Y166.287 E10.83185
G1 X168.442 Y167.032 E10.8755
G1 X167.811 Y167.727 E10.91921
G1 X167.124 Y168.365 E10.96287
G1 X166.385 Y168.942 E11.00653
G1 X165.599 Y169.454 E11.05021
G1 X164.773 Y169.897 E11.09385
G1 X163.911 Y170.269 E11.13757
G1 X163.022 Y170.565 E11.1812
G1 X162.11 Y170.785 E11.22488
G1 X161.183 Y170.926 E11.26854
G1 X160.299 Y170.987 E11.30981
G1 X159.978 Y170.996 E11.32476
G1 X159.67 Y171 E11.3391
G1 X60.565 Y170.999 E15.95385
G1 X59.867 Y170.99 E15.98635
G1 X58.931 Y170.938 E16.03
G1 X58.002 Y170.806 E16.07369
G1 X57.088 Y170.596 E16.11736
G1 X56.195 Y170.309 E16.16104
G1 X55.33 Y169.946 E16.20472
G1 X54.499 Y169.512 E16.24837
G1 X53.708 Y169.008 E16.29205
G1 X52.963 Y168.438 E16.33573
G1 X52.269 Y167.807 E16.3794
G1 X51.632 Y167.12 E16.42303
G1 X51.055 Y166.38 E16.46672
G1 X50.543 Y165.594 E16.5104
G1 X50.1 Y164.767 E16.55409
G1 X49.729 Y163.906 E16.59774
G1 X49.433 Y163.016 E16.64142
G1 X49.214 Y162.104 E16.68509
G1 X49.073 Y161.177 E16.72875
G1 X49.013 Y160.288 E16.77024
G1 X49.004 Y159.955 E16.78575
G1 X49 Y159.658 E16.79958
G1 X49.001 Y60.525 E21.41563
G1 X49.01 Y59.86 E21.4466
G1 X49.063 Y58.924 E21.49025
G1 X49.195 Y57.995 E21.53395
G1 X49.406 Y57.081 E21.57762
G1 X49.694 Y56.189 E21.62127
G1 X50.057 Y55.324 E21.66495
G1 X50.492 Y54.493 E21.70863
G1 X50.996 Y53.703 E21.75226
G1 X51.566 Y52.958 E21.79594
G1 X52.198 Y52.264 E21.83965
G0 F6000 X52.589 Y52.439
G1 F1200 X53.274 Y51.823 E21.88255
G1 X54.01 Y51.27 E21.92541
G1 X54.791 Y50.782 E21.96829
G1 X55.611 Y50.364 E22.01115
G1 X56.465 Y50.019 E22.05404
G1 X57.345 Y49.749 E22.0969
G1 X58.245 Y49.557 E22.13975
G1 X59.159 Y49.443 E22.18264
G1 X59.712 Y49.413 E22.20843
G1 X60.033 Y49.404 E22.22338
G1 X60.33 Y49.4 E22.23721
G1 X159.293 Y49.4 E26.84535
G1 X160.143 Y49.411 E26.88493
G1 X161.062 Y49.464 E26.92779
G1 X161.973 Y49.597 E26.97066
G1 X162.869 Y49.808 E27.01352
G1 X163.743 Y50.096 E27.05637
G1 X164.59 Y50.459 E27.09928
G1 X165.401 Y50.894 E27.14214
G1 X166.171 Y51.398 E27.18499
G1 X166.895 Y51.967 E27.22787
G1 X167.567 Y52.597 E27.27076
G1 X168.182 Y53.282 E27.31362
G1 X168.735 Y54.018 E27.35649
G1 X169.222 Y54.799 E27.39935
G1 X169.639 Y55.62 E27.44223
G1 X169.984 Y56.474 E27.48511
G1 X170.253 Y57.354 E27.52796
G1 X170.445 Y58.255 E27.57086
G1 X170.558 Y59.168 E27.6137
G1 X170.587 Y59.712 E27.63906
G1 X170.596 Y60.032 E27.65397
G1 X170.6 Y60.33 E27.66785
G1 X170.599 Y159.395 E32.28073
G1 X170.59 Y160.122 E32.31458
G1 X170.539 Y161.041 E32.35744
G1 X170.408 Y161.953 E32.40034
G1 X170.198 Y162.849 E32.4432
G1 X169.912 Y163.724 E32.48606
G1 X169.551 Y164.571 E32.52893
G1 X169.117 Y165.383 E32.57181
G1 X168.615 Y166.155 E32.61468
G1 X168.047 Y166.88 E32.65757
G1 X167.419 Y167.553 E32.70043
G1 X166.735 Y168.169 E32.74329
G1 X166 Y168.723 E32.78615
G1 X165.22 Y169.212 E32.82902
G1 X164.4 Y169.631 E32.8719
G1 X163.547 Y169.977 E32.91476
G1 X162.667 Y170.248 E32.95764
G1 X161.767 Y170.441 E33.0005
G1 X160.853 Y170.556 E33.04339
G1 X160.288 Y170.587 E33.06974
G1 X159.967 Y170.596 E33.08469
G1 X159.67 Y170.6 E33.09852
G1 X60.57 Y170.599 E37.71304
G1 X59.872 Y170.59 E37.74554
G1 X58.953 Y170.538 E37.7884
G1 X58.042 Y170.407 E37.83126
G1 X57.146 Y170.197 E37.87411
G1 X56.271 Y169.91 E37.91699
G1 X55.424 Y169.548 E37.95988
G1 X54.612 Y169.114 E38.00275
G1 X53.841 Y168.612 E38.04559
G1 X53.116 Y168.044 E38.08848
G1 X52.443 Y167.415 E38.13137
G1 X51.828 Y166.731 E38.1742
G1 X51.274 Y165.996 E38.21706
G1 X50.786 Y165.215 E38.25994
G1 X50.367 Y164.395 E38.30282
G1 X50.021 Y163.542 E38.34568
G1 X49.751 Y162.662 E38.38855
G1 X49.558 Y161.761 E38.43145
G1 X49.444 Y160.848 E38.47429
G1 X49.413 Y160.277 E38.50092
G1 X49.404 Y159.944 E38.51643
G1 X49.4 Y159.658 E38.52975
G1 X49.401 Y60.531 E43.14552
G1 X49.41 Y59.866 E43.17649
G1 X49.462 Y58.946 E43.2194
G1 X49.594 Y58.035 E43.26226
G1 X49.805 Y57.139 E43.30512
G1 X50.092 Y56.264 E43.348
G1 X50.455 Y55.418 E43.39087
G1 X50.889 Y54.606 E43.43374
G1 X51.392 Y53.835 E43.47661
G1 X51.961 Y53.111 E43.51948
G1 X52.589 Y52.439 E43.56231
G0 F6000 X52.981 Y52.617
G1 F1200 X53.662 Y52.024 E43.60436
G1 X54.394 Y51.494 E43.64644
G1 X55.169 Y51.031 E43.68848
G1 X55.982 Y50.638 E43.73052
G1 X56.827 Y50.318 E43.7726
G1 X57.696 Y50.075 E43.81461
G1 X58.584 Y49.909 E43.85668
G1 X59.723 Y49.813 E43.9099
G1 X60.044 Y49.804 E43.92486
G1 X60.33 Y49.8 E43.93818
G1 X159.293 Y49.8 E48.54631
G1 X160.137 Y49.811 E48.58561
G1 X161.039 Y49.864 E48.62769
G1 X161.932 Y49.996 E48.66972
G1 X162.81 Y50.207 E48.71177
G1 X163.666 Y50.495 E48.75382
G1 X164.493 Y50.857 E48.79586
G1 X165.285 Y51.292 E48.83793
G1 X166.036 Y51.794 E48.87999
G1 X166.739 Y52.361 E48.92205
G1 X167.389 Y52.988 E48.9641
G1 X167.981 Y53.67 E49.00616
G1 X168.511 Y54.401 E49.0482
G1 X168.973 Y55.177 E49.09025
G1 X169.366 Y55.99 E49.1323
G1 X169.684 Y56.835 E49.17434
G1 X169.927 Y57.705 E49.2164
G1 X170.092 Y58.593 E49.25846
G1 X170.187 Y59.723 E49.31126
G1 X170.196 Y60.043 E49.32617
G1 X170.2 Y60.33 E49.33953
G1 X170.199 Y159.39 E53.95218
G1 X170.19 Y160.117 E53.98604
G1 X170.139 Y161.019 E54.0281
G1 X170.008 Y161.913 E54.07018
G1 X169.799 Y162.791 E54.1122
G1 X169.513 Y163.648 E54.15427
G1 X169.152 Y164.476 E54.19633
G1 X168.72 Y165.268 E54.23834
G1 X168.219 Y166.02 E54.28042
G1 X167.653 Y166.724 E54.32248
G1 X167.028 Y167.375 E54.3645
G1 X166.347 Y167.969 E54.40658
G1 X165.616 Y168.5 E54.44865
G1 X164.842 Y168.964 E54.49067
G1 X164.029 Y169.358 E54.53274
G1 X163.185 Y169.678 E54.57477
G1 X162.315 Y169.923 E54.61685
G1 X161.428 Y170.089 E54.65887
G1 X160.277 Y170.187 E54.71266
G1 X159.956 Y170.196 E54.72762
G1 X159.67 Y170.2 E54.74094
G1 X60.575 Y170.199 E59.35521
G1 X59.877 Y170.19 E59.38772
G1 X58.976 Y170.139 E59.42974
G1 X58.082 Y170.007 E59.47182
G1 X57.204 Y169.798 E59.51384
G1 X56.347 Y169.511 E59.55593
G1 X55.52 Y169.15 E59.59795
G1 X54.727 Y168.717 E59.64002
G1 X53.976 Y168.216 E59.68205
G1 X53.272 Y167.65 E59.72412
G1 X52.621 Y167.024 E59.76617
G1 X52.028 Y166.343 E59.80822
G1 X51.498 Y165.612 E59.85026
G1 X51.034 Y164.837 E59.89232
G1 X50.64 Y164.024 E59.93439
G1 X50.32 Y163.18 E59.97642
G1 X50.076 Y162.31 E60.01849
G1 X49.91 Y161.422 E60.06056
G1 X49.813 Y160.267 E60.11453
G1 X49.804 Y159.934 E60.13004
G1 X49.8 Y159.658 E60.1429
G1 X49.801 Y60.536 E64.75843
G1 X49.81 Y59.871 E64.7894
G1 X49.862 Y58.969 E64.83147
G1 X49.994 Y58.076 E64.8735
G1 X50.204 Y57.198 E64.91554
G1 X50.491 Y56.341 E64.95762
G1 X50.853 Y55.514 E64.99966
G1 X51.286 Y54.722 E65.04169
G1 X51.788 Y53.971 E65.08375
G1 X52.355 Y53.267 E65.12584
G1 X52.981 Y52.617 E65.16787
G1 F1500 E58.66787
;MESH:Incredible Elzing.stl
G0 F6000 X60.81 Y59.335
G0 X60.81 Y60.81
G0 X159.218 Y60.782
G0 X159.4 Y159.4
;TYPE:WALL-INNER
G1 F1500 E65.16787
G1 F1200 X60.6 Y159.4 E69.76841
G1 X60.6 Y60.6 E74.36895
G1 X159.4 Y60.6 E78.96949
G1 X159.4 Y159.4 E83.57003
G0 F6000 X159.8 Y159.8
;TYPE:WALL-OUTER
G1 F1200 X60.2 Y159.8 E88.20783
G1 X60.2 Y60.2 E92.84562
G1 X159.8 Y60.2 E97.48341
G1 X159.8 Y159.8 E102.12121
G0 F6000 X159.53 Y159.53
G0 X159.29 Y159.01
G0 X159.01 Y159.01
;TYPE:SKIN
G1 F1200 X60.99 Y159.01 E106.68543
G1 X60.99 Y60.99 E111.24965
G1 X159.01 Y60.99 E115.81387
G1 X159.01 Y159.01 E120.37809
G1 F1500 E113.87809
G0 F6000 X159.29 Y159.01
G0 X159.29 Y61.551
G0 X158.849 Y61.551
G1 F1500 E120.37809
G1 F1200 X158.447 Y61.149 E120.40457
G0 F6000 X157.882 Y61.149
G1 F1200 X158.849 Y62.117 E120.46828
G0 F6000 X158.849 Y62.682
G1 F1200 X157.316 Y61.149 E120.56923
G0 F6000 X156.75 Y61.149
G1 F1200 X158.849 Y63.248 E120.70745
G0 F6000 X158.849 Y63.814
G1 F1200 X156.185 Y61.149 E120.88291
G0 F6000 X155.619 Y61.149
G1 F1200 X158.849 Y64.379 E121.09561
G0 F6000 X158.849 Y64.945
G1 F1200 X155.053 Y61.149 E121.34559
G0 F6000 X154.487 Y61.149
G1 F1200 X158.849 Y65.511 E121.63283
G0 F6000 X158.849 Y66.077
G1 F1200 X153.922 Y61.149 E121.95732
G0 F6000 X153.356 Y61.149
G1 F1200 X158.849 Y66.642 E122.31904
G0 F6000 X158.849 Y67.208
G1 F1200 X152.79 Y61.149 E122.71803
G0 F6000 X152.225 Y61.149
G1 F1200 X158.849 Y67.774 E123.15427
G0 F6000 X158.849 Y68.339
G1 F1200 X151.659 Y61.149 E123.62774
G0 F6000 X151.093 Y61.149
G1 F1200 X158.849 Y68.905 E124.13849
G0 F6000 X158.849 Y69.471
G1 F1200 X150.528 Y61.149 E124.68647
G0 F6000 X149.962 Y61.149
G1 F1200 X158.849 Y70.036 E125.2717
G0 F6000 X158.849 Y70.602
G1 F1200 X149.396 Y61.149 E125.89419
G0 F6000 X148.831 Y61.149
G1 F1200 X158.849 Y71.168 E126.55393
G0 F6000 X158.849 Y71.733
G1 F1200 X148.265 Y61.149 E127.2509
G0 F6000 X147.699 Y61.149
G1 F1200 X158.849 Y72.299 E127.98515
G0 F6000 X158.849 Y72.865
G1 F1200 X147.134 Y61.149 E128.75664
G0 F6000 X146.568 Y61.149
G1 F1200 X158.849 Y73.43 E129.56536
G0 F6000 X158.849 Y73.996
G1 F1200 X146.002 Y61.149 E130.41136
G0 F6000 X145.437 Y61.149
G1 F1200 X158.849 Y74.562 E131.29459
G0 F6000 X158.849 Y75.127
G1 F1200 X144.871 Y61.149 E132.21507
G0 F6000 X144.305 Y61.149
G1 F1200 X158.849 Y75.693 E133.17282
G0 F6000 X158.849 Y76.259
G1 F1200 X143.739 Y61.149 E134.16784
G0 F6000 X143.174 Y61.149
G1 F1200 X158.849 Y76.825 E135.20009
G0 F6000 X158.849 Y77.39
G1 F1200 X142.608 Y61.149 E136.26959
G0 F6000 X142.042 Y61.149
G1 F1200 X158.849 Y77.956 E137.37636
G0 F6000 X158.849 Y78.522
G1 F1200 X141.477 Y61.149 E138.52037
G0 F6000 X140.911 Y61.149
G1 F1200 X158.849 Y79.087 E139.70162
G0 F6000 X158.849 Y79.653
G1 F1200 X140.345 Y61.149 E140.92014
G0 F6000 X139.78 Y61.149
G1 F1200 X158.849 Y80.219 E142.1759
G0 F6000 X158.849 Y80.784
G1 F1200 X139.214 Y61.149 E143.4689
G0 F6000 X138.648 Y61.149
G1 F1200 X158.849 Y81.35 E144.79917
G0 F6000 X158.849 Y81.916
G1 F1200 X138.083 Y61.149 E146.16668
G0 F6000 X137.517 Y61.149
G1 F1200 X158.849 Y82.481 E147.57142
G0 F6000 X158.849 Y83.047
G1 F1200 X136.951 Y61.149 E149.01344
G0 F6000 X136.386 Y61.149
G1 F1200 X158.849 Y83.613 E150.4927
G0 F6000 X158.849 Y84.178
G1 F1200 X135.82 Y61.149 E152.0092
G0 F6000 X135.254 Y61.149
G1 F1200 X158.849 Y84.744 E153.56297
G0 F6000 X158.849 Y85.31
G1 F1200 X134.688 Y61.149 E155.15402
G0 F6000 X134.123 Y61.149
G1 F1200 X158.849 Y85.875 E156.78227
G0 F6000 X158.849 Y86.441
G1 F1200 X133.557 Y61.149 E158.44779
G0 F6000 X132.991 Y61.149
G1 F1200 X158.849 Y87.007 E160.15058
G0 F6000 X158.849 Y87.573
G1 F1200 X132.426 Y61.149 E161.89061
G0 F6000 X131.86 Y61.149
G1 F1200 X158.849 Y88.138 E163.66789
G0 F6000 X158.849 Y88.704
G1 F1200 X131.294 Y61.149 E165.48243
G0 F6000 X130.729 Y61.149
G1 F1200 X158.849 Y89.27 E167.33421
G0 F6000 X158.849 Y89.835
G1 F1200 X130.163 Y61.149 E169.22323
G0 F6000 X129.597 Y61.149
G1 F1200 X158.849 Y90.401 E171.14953
G0 F6000 X158.849 Y90.967
G1 F1200 X129.032 Y61.149 E173.11306
G0 F6000 X128.466 Y61.149
G1 F1200 X158.849 Y91.532 E175.11383
G0 F6000 X158.849 Y92.098
G1 F1200 X127.9 Y61.149 E177.15188
G0 F6000 X127.335 Y61.149
G1 F1200 X158.849 Y92.664 E179.22716
G0 F6000 X158.849 Y93.229
G1 F1200 X126.769 Y61.149 E181.33969
G0 F6000 X126.203 Y61.149
G1 F1200 X158.849 Y93.795 E183.48948
G0 F6000 X158.849 Y94.361
G1 F1200 X125.638 Y61.149 E185.67651
G0 F6000 X125.072 Y61.149
G1 F1200 X158.849 Y94.926 E187.90079
G0 F6000 X158.849 Y95.492
G1 F1200 X124.506 Y61.149 E190.16233
G0 F6000 X123.94 Y61.149
G1 F1200 X158.849 Y96.058 E192.46115
G0 F6000 X158.849 Y96.624
G1 F1200 X123.375 Y61.149 E194.79721
G0 F6000 X122.809 Y61.149
G1 F1200 X158.849 Y97.189 E197.1705
G0 F6000 X158.849 Y97.755
G1 F1200 X122.243 Y61.149 E199.58107
G0 F6000 X121.678 Y61.149
G1 F1200 X158.849 Y98.321 E202.02888
G0 F6000 X158.849 Y98.886
G1 F1200 X121.112 Y61.149 E204.51392
G0 F6000 X120.546 Y61.149
G1 F1200 X158.849 Y99.452 E207.03624
G0 F6000 X158.849 Y100.018
G1 F1200 X119.981 Y61.149 E209.5958
G0 F6000 X119.415 Y61.149
G1 F1200 X158.849 Y100.583 E212.19259
G0 F6000 X158.849 Y101.149
G1 F1200 X118.849 Y61.149 E214.82666
G0 F6000 X118.284 Y61.149
G1 F1200 X158.849 Y101.715 E217.49797
G0 F6000 X158.849 Y102.28
G1 F1200 X117.718 Y61.149 E220.20652
G0 F6000 X117.152 Y61.149
G1 F1200 X158.849 Y102.846 E222.95233
G0 F6000 X158.849 Y103.412
G1 F1200 X116.587 Y61.149 E225.73539
G0 F6000 X116.021 Y61.149
G1 F1200 X158.849 Y103.977 E228.55569
G0 F6000 X158.849 Y104.543
G1 F1200 X115.455 Y61.149 E231.41326
G0 F6000 X114.89 Y61.149
G1 F1200 X158.849 Y105.109 E234.30807
G0 F6000 X158.849 Y105.674
G1 F1200 X114.324 Y61.149 E237.24011
G0 F6000 X113.758 Y61.149
G1 F1200 X158.849 Y106.24 E240.20943
G0 F6000 X158.849 Y106.806
G1 F1200 X113.192 Y61.149 E243.21602
G0 F6000 X112.627 Y61.149
G1 F1200 X158.849 Y107.372 E246.25986
G0 F6000 X158.849 Y107.937
G1 F1200 X112.061 Y61.149 E249.34092
G0 F6000 X111.495 Y61.149
G1 F1200 X158.849 Y108.503 E252.45927
G0 F6000 X158.849 Y109.069
G1 F1200 X110.93 Y61.149 E255.61485
G0 F6000 X110.364 Y61.149
G1 F1200 X158.849 Y109.634 E258.80767
G0 F6000 X158.849 Y110.2
G1 F1200 X109.798 Y61.149 E262.03776
G0 F6000 X109.233 Y61.149
G1 F1200 X158.849 Y110.766 E265.30509
G0 F6000 X158.849 Y111.331
G1 F1200 X108.667 Y61.149 E268.60966
G0 F6000 X108.101 Y61.149
G1 F1200 X158.849 Y111.897 E271.9515
G0 F6000 X158.849 Y112.463
G1 F1200 X107.536 Y61.149 E275.33059
G0 F6000 X106.97 Y61.149
G1 F1200 X158.849 Y113.028 E278.74691
G0 F6000 X158.849 Y113.594
G1 F1200 X106.404 Y61.149 E282.2005
G0 F6000 X105.839 Y61.149
G1 F1200 X158.849 Y114.16 E285.69133
G0 F6000 X158.849 Y114.725
G1 F1200 X105.273 Y61.149 E289.2194
G0 F6000 X104.707 Y61.149
G1 F1200 X158.849 Y115.291 E292.78475
G0 F6000 X158.849 Y115.857
G1 F1200 X104.141 Y61.149 E296.38736
G0 F6000 X103.576 Y61.149
G1 F1200 X158.849 Y116.423 E300.02721
G0 F6000 X158.849 Y116.988
G1 F1200 X103.01 Y61.149 E303.70431
G0 F6000 X102.444 Y61.149
G1 F1200 X158.849 Y117.554 E307.41867
G0 F6000 X158.849 Y118.12
G1 F1200 X101.879 Y61.149 E311.17028
G0 F6000 X101.313 Y61.149
G1 F1200 X158.849 Y118.685 E314.95912
G0 F6000 X158.849 Y119.251
G1 F1200 X100.747 Y61.149 E318.78524
G0 F6000 X100.182 Y61.149
G1 F1200 X158.849 Y119.817 E322.64859
G0 F6000 X158.849 Y120.382
G1 F1200 X99.616 Y61.149 E326.54919
G0 F6000 X99.05 Y61.149
G1 F1200 X158.849 Y120.948 E330.48705
G0 F6000 X158.849 Y121.514
