;FLAVOR:Marlin
;TIME:1569
;Filament used: 0.512026m
;Layer height: 0.2
;MINX:59.438
;MINY:34.575
;MINZ:0.2
;MAXX:160.557
;MAXY:185.436
;MAXZ:1.2
;Generated with Cura_SteamEngine master
M140 S80
M105
M190 S80
M104 S215
M105
M109 S215
M82 ;absolute extrusion mode
; Ender 3 Custom Start G-code
G92 E0 ; Reset Extruder
G28 ; Home all axes
G1 Z2.0 F3000 ; Move Z Axis up little to prevent scratching of Heat Bed
G1 X0.1 Y20 Z0.3 F5000.0 ; Move to start position
G1 X0.1 Y200.0 Z0.3 F1500.0 E15 ; Draw the first line
G1 X0.4 Y200.0 Z0.3 F5000.0 ; Move to side a little
G1 X0.4 Y20 Z0.3 F1500.0 E30 ; Draw the second line
G92 E0 ; Reset Extruder
G1 Z2.0 F3000 ; Move Z Axis up little to prevent scratching of Heat Bed
G1 X5 Y20 Z0.3 F5000.0 ; Move over to prevent blob squish
G92 E0
G92 E0
G1 F1500 E-6.5
;LAYER_COUNT:6
;LAYER:0
M107
G0 F6000 X81.829 Y44.383 Z0.2
;TYPE:SKIRT
G1 F1500 E0
G1 F1200 X81.876 Y44.303 E0.00309
G1 X82.332 Y43.591 E0.03121
G1 X82.474 Y43.387 E0.03947
G1 X83.042 Y42.64 E0.07069
G1 X83.672 Y41.945 E0.10189
G1 X84.358 Y41.306 E0.13307
G1 X85.097 Y40.728 E0.16427
G1 X86.081 Y40.1 E0.2031
G1 X86.307 Y39.972 E0.21174
G1 X87.142 Y39.545 E0.24293
G1 X88.159 Y39.138 E0.27936
G1 X88.812 Y38.914 E0.30232
G1 X89.014 Y38.847 E0.3094
G1 X89.979 Y38.537 E0.34311
G1 X92.428 Y37.711 E0.42908
G1 X94.8 Y36.835 E0.51318
G1 X98.234 Y35.43 E0.63658
G1 X98.416 Y35.357 E0.6431
G1 X99.301 Y35.045 E0.67432
G1 X100.208 Y34.81 E0.70548
G1 X101.133 Y34.653 E0.73668
G1 X102.068 Y34.575 E0.76789
G1 X103.343 Y34.597 E0.8103
G1 X104.117 Y34.652 E0.83611
G1 X104.456 Y34.683 E0.84743
G1 X105.16 Y34.754 E0.87097
G1 X105.39 Y34.782 E0.87867
G1 X105.966 Y34.867 E0.89804
G1 X106.314 Y34.932 E0.90981
G1 X107.869 Y35.244 E0.96256
G1 X110.454 Y35.725 E1.05002
G1 X112.912 Y36.111 E1.13277
G1 X115.447 Y36.436 E1.21778
G1 X117.954 Y36.685 E1.30157
G1 X120.43 Y36.861 E1.38413
G1 X122.963 Y36.969 E1.46846
G1 X125.479 Y37.005 E1.55215
G1 X127.964 Y36.97 E1.63481
G1 X131.618 Y36.797 E1.75647
G1 X132.556 Y36.793 E1.78767
G1 X133.912 Y36.929 E1.833
G1 X134.383 Y37.006 E1.84887
G1 X134.663 Y37.056 E1.85833
G1 X136.235 Y37.355 E1.91156
G1 X136.748 Y37.465 E1.92901
G1 X137.152 Y37.562 E1.94283
G1 X138.054 Y37.82 E1.97403
G1 X138.93 Y38.153 E2.0052
G1 X139.503 Y38.419 E2.02621
G1 X139.787 Y38.561 E2.03677
G1 X140.608 Y39.016 E2.06799
G1 X141.74 Y39.81 E2.11398
G1 X141.99 Y40.01 E2.12463
G1 X142.696 Y40.627 E2.15581
G1 X143.085 Y41.015 E2.17409
G1 X143.323 Y41.265 E2.18557
G1 X143.66 Y41.636 E2.20224
G1 X143.746 Y41.735 E2.2066
G1 X144.07 Y42.126 E2.22349
G1 X144.941 Y43.227 E2.27018
G1 X146.606 Y45.274 E2.35794
G1 X148.245 Y47.177 E2.44148
G1 X149.534 Y48.601 E2.50536
G1 X149.771 Y48.87 E2.51729
G1 X150.129 Y49.301 E2.53592
G1 X150.419 Y49.669 E2.5515
G1 X150.823 Y50.216 E2.57412
G1 X151.011 Y50.491 E2.5852
G1 X151.235 Y50.829 E2.59869
G1 X151.395 Y51.077 E2.6085
G1 X151.744 Y51.636 E2.63042
G1 X153.09 Y53.721 E2.71297
G1 X153.457 Y54.248 E2.73432
G1 X153.618 Y54.502 E2.74433
G1 X154.162 Y55.308 E2.77667
G1 X154.361 Y55.614 E2.78881
G1 X154.764 Y56.256 E2.81402
G1 X155.391 Y57.402 E2.85747
G1 X155.452 Y57.531 E2.86222
G1 X155.645 Y57.961 E2.87789
G1 X155.771 Y58.26 E2.88868
G1 X156.098 Y59.139 E2.91988
G1 X156.518 Y60.437 E2.96525
G1 X156.866 Y61.539 E3.00369
G1 X157.687 Y63.907 E3.08705
G1 X158.583 Y66.272 E3.17116
G1 X158.831 Y66.877 E3.19291
G1 X159.162 Y67.721 E3.22306
G1 X159.467 Y68.608 E3.25426
G1 X159.717 Y69.629 E3.28922
G1 X159.75 Y69.798 E3.29495
G1 X159.836 Y70.3 E3.31189
G1 X159.876 Y70.571 E3.321
G1 X159.987 Y71.775 E3.36122
G1 X160.015 Y72.54 E3.38668
G1 X160.043 Y73.798 E3.42853
G1 X160.17 Y76.315 E3.51235
G1 X160.364 Y78.785 E3.59476
G1 X160.383 Y78.972 E3.60101
G1 X160.508 Y80.328 E3.6463
G1 X160.545 Y80.897 E3.66527
G1 X160.557 Y81.196 E3.67522
G1 X160.555 Y82.134 E3.70642
G1 X160.473 Y83.067 E3.73757
G1 X160.424 Y83.439 E3.75005
G1 X160.059 Y86.098 E3.83932
G1 X159.916 Y87.382 E3.88229
G1 X159.847 Y87.921 E3.90036
G1 X159.687 Y88.845 E3.93155
G1 X159.46 Y89.714 E3.96142
G1 X159.268 Y90.344 E3.98333
G1 X158.299 Y93.752 E4.10117
G1 X158.224 Y94.006 E4.10998
G1 X158.081 Y94.457 E4.12572
G1 X157.92 Y94.916 E4.14189
G1 X157.789 Y95.264 E4.15426
G1 X157.26 Y96.451 E4.19748
G1 X157.175 Y96.615 E4.20363
G1 X156.974 Y96.985 E4.21763
G1 X156.368 Y98.052 E4.25845
G1 X155.761 Y99.085 E4.2983
G1 X154.552 Y101.279 E4.38161
G1 X153.368 Y103.579 E4.46765
G1 X153.306 Y103.704 E4.4723
G1 X153.019 Y104.244 E4.49263
G1 X152.888 Y104.475 E4.50147
G1 X152.391 Y105.271 E4.53268
G1 X151.689 Y106.187 E4.57106
G1 X151.631 Y106.255 E4.57404
G1 X151.274 Y106.654 E4.59184
G1 X150.483 Y107.493 E4.6302
G1 X149.617 Y108.387 E4.67159
G1 X147.913 Y110.25 E4.75557
G1 X146.261 Y112.163 E4.83963
G1 X144.675 Y114.107 E4.92308
G1 X143.134 Y116.107 E5.00706
G1 X141.668 Y118.127 E5.09007
G1 X140.227 Y120.235 E5.175
G1 X138.886 Y122.322 E5.25751
G1 X137.592 Y124.469 E5.34088
G1 X136.326 Y126.706 E5.42637
G1 X135.17 Y128.892 E5.50862
G1 X134.05 Y131.164 E5.59287
G1 X133 Y133.457 E5.67675
G1 X132.008 Y135.791 E5.7611
G1 X131.092 Y138.128 E5.84459
G1 X130.249 Y140.48 E5.92769
G1 X129.468 Y142.865 E6.01116
G1 X128.753 Y145.275 E6.09477
G1 X128.095 Y147.748 E6.17988
G1 X127.527 Y150.156 E6.26217
G1 X127.009 Y152.657 E6.34712
G1 X126.585 Y155.051 E6.42799
G1 X126.289 Y156.857 E6.48885
G1 X126.212 Y157.274 E6.50296
G1 X126.181 Y157.426 E6.50812
G1 X125.884 Y158.565 E6.54727
G1 X125.82 Y158.766 E6.55428
G1 X125.656 Y159.244 E6.57109
G1 X125.487 Y159.701 E6.5873
G1 X125.134 Y160.547 E6.61779
G1 X124.965 Y160.904 E6.63092
G1 X123.972 Y162.934 E6.70609
G1 X123.408 Y164.155 E6.75082
G1 X123.052 Y164.94 E6.77949
G1 X122.815 Y165.432 E6.79765
G1 X122.657 Y165.739 E6.80914
G1 X122.017 Y166.825 E6.85106
G1 X120.996 Y168.35 E6.9121
G1 X119.731 Y170.29 E6.98913
G1 X119.581 Y170.526 E6.99844
G1 X119.41 Y170.788 E7.00884
G1 X119.24 Y171.04 E7.01895
G1 X118.5 Y172.014 E7.05964
G1 X118.414 Y172.115 E7.06405
G1 X116.704 Y174.181 E7.15325
G1 X115.172 Y176.143 E7.23604
G1 X113.09 Y179.001 E7.35365
G1 X112.507 Y179.834 E7.38746
G1 X112.147 Y180.32 E7.40758
G1 X112.052 Y180.441 E7.4127
G1 X111.722 Y180.841 E7.42994
G1 X111.48 Y181.121 E7.44225
G1 X110.837 Y181.804 E7.47345
G1 X110.139 Y182.429 E7.50462
G1 X109.389 Y182.993 E7.53583
G1 X108.594 Y183.491 E7.56703
G1 X107.76 Y183.919 E7.59821
G1 X106.892 Y184.275 E7.62941
G1 X105.598 Y184.654 E7.67426
G1 X105.387 Y184.702 E7.68145
G1 X104.464 Y184.871 E7.71266
G1 X103.531 Y184.96 E7.74384
G1 X102.208 Y184.951 E7.78784
G1 X101.439 Y184.899 E7.81348
G1 X98.887 Y184.763 E7.89848
G1 X96.328 Y184.699 E7.98362
G1 X93.839 Y184.706 E8.0664
G1 X91.281 Y184.787 E8.15152
G1 X88.799 Y184.936 E8.23422
G1 X86.314 Y185.155 E8.31719
G1 X85.193 Y185.285 E8.35473
G1 X84.273 Y185.38 E8.38549
G1 X83.337 Y185.436 E8.41668
G1 X82.399 Y185.413 E8.44788
G1 X81.467 Y185.31 E8.47907
G1 X80.221 Y185.043 E8.52146
G1 X79.898 Y184.954 E8.5326
G1 X79.005 Y184.666 E8.56381
G1 X78.328 Y184.39 E8.58812
G1 X78.252 Y184.356 E8.59089
G1 X77.746 Y184.114 E8.60955
G1 X77.548 Y184.013 E8.61694
G1 X76.605 Y183.471 E8.65312
G1 X76.538 Y183.428 E8.65576
G1 X75.936 Y183.014 E8.68006
G1 X75.763 Y182.886 E8.68722
G1 X75.034 Y182.296 E8.71841
G1 X74.575 Y181.868 E8.73929
G1 X74.408 Y181.703 E8.7471
G1 X73.769 Y181.016 E8.7783
G1 X73.429 Y180.596 E8.79628
G1 X73.149 Y180.233 E8.81152
G1 X72.408 Y179.143 E8.85536
G1 X71.842 Y178.193 E8.89214
G1 X71.65 Y177.881 E8.90433
G1 X71.319 Y177.316 E8.9261
G1 X69.975 Y175.165 E9.01046
G1 X68.577 Y173.064 E9.0944
G1 X67.124 Y171.008 E9.17814
G1 X66.689 Y170.426 E9.2023
G1 X66.117 Y169.639 E9.23466
G1 X65.879 Y169.299 E9.24847
G1 X65.712 Y169.05 E9.25844
G1 X65.469 Y168.671 E9.27341
G1 X65.184 Y168.206 E9.29155
G1 X64.88 Y167.677 E9.31184
G1 X64.571 Y167.101 E9.33358
G1 X63.817 Y165.652 E9.38791
G1 X62.479 Y163.256 E9.47919
G1 X61.753 Y161.999 E9.52747
G1 X61.544 Y161.62 E9.54186
G1 X61.424 Y161.392 E9.55043
G1 X60.928 Y160.312 E9.58996
G1 X60.862 Y160.145 E9.59593
G1 X60.683 Y159.659 E9.61316
G1 X60.534 Y159.223 E9.62848
G1 X60.269 Y158.324 E9.65966
G1 X60.132 Y157.695 E9.68107
G1 X60.05 Y157.258 E9.69586
G1 X59.99 Y156.906 E9.70773
G1 X59.961 Y156.718 E9.71406
G1 X59.842 Y155.501 E9.75473
G1 X59.827 Y155.143 E9.76665
G1 X59.817 Y154.629 E9.78375
G1 X59.826 Y154.196 E9.79815
G1 X59.931 Y151.538 E9.88663
G1 X59.957 Y149.018 E9.97045
G1 X59.914 Y146.528 E10.05328
G1 X59.796 Y143.949 E10.13914
G1 X59.623 Y141.585 E10.21798
G1 X59.511 Y140.296 E10.26101
G1 X59.488 Y139.965 E10.27205
G1 X59.46 Y139.47 E10.28854
G1 X59.446 Y139.152 E10.29913
G1 X59.438 Y138.862 E10.30878
G1 X59.443 Y138.111 E10.33376
G1 X59.454 Y137.841 E10.34274
G1 X59.48 Y137.418 E10.35684
G1 X59.507 Y137.078 E10.36818
G1 X59.582 Y136.395 E10.39104
G1 X59.685 Y135.673 E10.41529
G1 X59.753 Y135.255 E10.42938
G1 X59.798 Y135.008 E10.43773
G1 X59.912 Y134.461 E10.45631
G1 X59.996 Y134.104 E10.46851
G1 X60.069 Y133.815 E10.47843
G1 X60.177 Y133.406 E10.4925
G1 X60.264 Y133.095 E10.50324
G1 X60.361 Y132.767 E10.51461
G1 X60.505 Y132.315 E10.53039
G1 X61.036 Y130.768 E10.58479
G1 X61.163 Y130.414 E10.5973
G1 X61.95 Y128.027 E10.6809
G1 X62.674 Y125.609 E10.76485
G1 X63.325 Y123.183 E10.84839
G1 X63.921 Y120.688 E10.93371
G1 X64.425 Y118.264 E11.01606
G1 X64.87 Y115.784 E11.09986
G1 X65.24 Y113.323 E11.18263
G1 X65.547 Y110.793 E11.2674
G1 X65.78 Y108.279 E11.35137
G1 X65.94 Y105.793 E11.43423
G1 X66.031 Y103.272 E11.51813
G1 X66.051 Y100.748 E11.60208
G1 X65.999 Y98.225 E11.68601
G1 X65.876 Y95.704 E11.76996
G1 X65.683 Y93.21 E11.85316
G1 X65.42 Y90.715 E11.93661
G1 X65.076 Y88.163 E12.02225
G1 X64.809 Y86.476 E12.07906
G1 X64.684 Y85.252 E12.11998
G1 X64.656 Y84.634 E12.14056
G1 X64.654 Y83.696 E12.17176
G1 X64.702 Y83.017 E12.1944
G1 X64.756 Y82.489 E12.21205
G1 X64.808 Y82.062 E12.22636
G1 X64.83 Y81.907 E12.23156
G1 X64.983 Y81.067 E12.25996
G1 X65.097 Y80.563 E12.27715
G1 X65.487 Y78.945 E12.33251
G1 X65.789 Y77.519 E12.38099
G1 X65.93 Y76.896 E12.40223
G1 X66.005 Y76.586 E12.41284
G1 X66.106 Y76.193 E12.42634
G1 X66.221 Y75.777 E12.44069
G1 X66.904 Y73.264 E12.52731
G1 X67.19 Y72.08 E12.56782
G1 X67.447 Y71.066 E12.60261
G1 X67.567 Y70.631 E12.61762
G1 X67.617 Y70.463 E12.62345
G1 X67.751 Y70.043 E12.63811
G1 X67.858 Y69.73 E12.64911
G1 X68.199 Y68.856 E12.68032
G1 X68.605 Y68.029 E12.71096
G1 X68.691 Y67.871 E12.71694
G1 X68.973 Y67.385 E12.73563
G1 X69.169 Y67.065 E12.74811
G1 X69.679 Y66.305 E12.77855
G1 X70.04 Y65.813 E12.79885
G1 X71.556 Y63.681 E12.88586
G1 X72.949 Y61.599 E12.96918
G1 X74.295 Y59.46 E13.05323
G1 X75.562 Y57.312 E13.13618
G1 X76.807 Y55.062 E13.22171
G1 X77.683 Y53.378 E13.28484
G1 X77.805 Y53.138 E13.2938
G1 X78.925 Y50.853 E13.37843
G1 X79.971 Y48.555 E13.46241
G1 X81.018 Y46.048 E13.55277
G1 X81.223 Y45.575 E13.56992
G1 X81.829 Y44.383 E13.6144
G0 F6000 X82.174 Y44.586
G1 F1200 X82.221 Y44.506 E13.61748
G1 X82.66 Y43.819 E13.6446
G1 X82.802 Y43.615 E13.65287
G1 X83.36 Y42.883 E13.68348
G1 X83.98 Y42.202 E13.71411
G1 X84.657 Y41.578 E13.74473
G1 X85.385 Y41.014 E13.77536
G1 X86.278 Y40.448 E13.81053
G1 X86.504 Y40.32 E13.81917
G1 X87.324 Y39.901 E13.84979
G1 X88.289 Y39.517 E13.88434
G1 X89.136 Y39.228 E13.9141
G1 X90.103 Y38.917 E13.94789
G1 X92.589 Y38.078 E14.03516
G1 X94.912 Y37.221 E14.11751
G1 X98.383 Y35.801 E14.24224
G1 X98.565 Y35.728 E14.24876
G1 X99.433 Y35.423 E14.27936
G1 X100.325 Y35.194 E14.30999
G1 X101.234 Y35.043 E14.34064
G1 X102.151 Y34.972 E14.37123
G1 X103.312 Y34.996 E14.40986
G1 X104.086 Y35.051 E14.43566
G1 X104.757 Y35.114 E14.45808
G1 X105.112 Y35.151 E14.46995
G1 X105.342 Y35.179 E14.47766
G1 X105.897 Y35.261 E14.49632
G1 X106.236 Y35.324 E14.50779
G1 X107.796 Y35.637 E14.56071
G1 X110.39 Y36.12 E14.64847
G1 X112.87 Y36.509 E14.73196
G1 X115.393 Y36.833 E14.81656
G1 X117.921 Y37.084 E14.90106
G1 X120.418 Y37.261 E14.98432
G1 X122.94 Y37.369 E15.06828
G1 X125.479 Y37.405 E15.15273
G1 X127.989 Y37.369 E15.23622
G1 X131.637 Y37.197 E15.35769
G1 X132.557 Y37.193 E15.38829
G1 X133.847 Y37.324 E15.43142
G1 X134.318 Y37.401 E15.44729
G1 X134.589 Y37.449 E15.45644
G1 X136.161 Y37.748 E15.50967
G1 X136.655 Y37.854 E15.52647
G1 X137.059 Y37.951 E15.54029
G1 X137.944 Y38.205 E15.57091
G1 X138.803 Y38.534 E15.60151
G1 X139.324 Y38.777 E15.62063
G1 X139.608 Y38.919 E15.63119
G1 X140.413 Y39.366 E15.66182
G1 X141.49 Y40.123 E15.7056
G1 X141.74 Y40.323 E15.71625
G1 X142.433 Y40.929 E15.74687
G1 X142.795 Y41.291 E15.76389
G1 X143.033 Y41.541 E15.77538
G1 X143.358 Y41.899 E15.79146
G1 X143.444 Y41.998 E15.79582
G1 X143.756 Y42.374 E15.81207
G1 X144.636 Y43.486 E15.85923
G1 X146.291 Y45.521 E15.94648
G1 X147.949 Y47.445 E16.03095
G1 X149.359 Y49.006 E16.10092
G1 X149.47 Y49.133 E16.10653
G1 X149.815 Y49.548 E16.12448
G1 X150.105 Y49.916 E16.14006
G1 X150.494 Y50.443 E16.16184
G1 X150.678 Y50.712 E16.17268
G1 X150.902 Y51.05 E16.18617
G1 X151.056 Y51.289 E16.19563
G1 X151.412 Y51.859 E16.21798
G1 X152.759 Y53.945 E16.30057
G1 X153.129 Y54.477 E16.32212
G1 X153.293 Y54.737 E16.33235
G1 X153.83 Y55.532 E16.36425
G1 X154.022 Y55.826 E16.37593
G1 X154.425 Y56.468 E16.40114
G1 X155.03 Y57.573 E16.44304
G1 X155.091 Y57.702 E16.44779
G1 X155.276 Y58.117 E16.4629
G1 X155.402 Y58.416 E16.4737
G1 X155.717 Y59.262 E16.50372
G1 X156.137 Y60.557 E16.549
G1 X156.494 Y61.686 E16.58838
G1 X157.31 Y64.04 E16.67125
G1 X158.21 Y66.417 E16.75579
G1 X158.458 Y67.023 E16.77756
G1 X158.789 Y67.867 E16.80772
G1 X159.088 Y68.738 E16.83835
G1 X159.325 Y69.706 E16.87149
G1 X159.358 Y69.875 E16.87722
G1 X159.44 Y70.358 E16.89351
G1 X159.48 Y70.629 E16.90263
G1 X159.587 Y71.789 E16.94137
G1 X159.619 Y72.706 E16.97189
G1 X159.643 Y73.791 E17.00799
G1 X159.773 Y76.366 E17.09374
G1 X159.966 Y78.828 E17.17588
G1 X160.109 Y80.365 E17.22722
G1 X160.145 Y80.913 E17.24548
G1 X160.157 Y81.212 E17.25544
G1 X160.154 Y82.133 E17.28607
G1 X160.076 Y83.015 E17.31552
G1 X160.027 Y83.384 E17.3279
G1 X159.662 Y86.039 E17.41704
G1 X159.495 Y87.53 E17.46694
G1 X159.451 Y87.869 E17.47831
G1 X159.293 Y88.776 E17.50893
G1 X159.078 Y89.598 E17.53719
G1 X158.871 Y90.276 E17.56077
G1 X157.915 Y93.639 E17.67705
G1 X157.84 Y93.893 E17.68586
G1 X157.75 Y94.182 E17.69593
G1 X157.701 Y94.332 E17.70118
G1 X157.545 Y94.775 E17.7168
G1 X157.414 Y95.123 E17.72916
G1 X156.905 Y96.267 E17.77081
G1 X156.82 Y96.431 E17.77695
G1 X156.626 Y96.788 E17.79047
G1 X155.934 Y98.004 E17.837
G1 X155.409 Y98.894 E17.87137
G1 X154.189 Y101.11 E17.95551
G1 X153.038 Y103.345 E18.03912
G1 X152.948 Y103.527 E18.04587
G1 X152.672 Y104.047 E18.06546
G1 X152.541 Y104.278 E18.07429
G1 X152.052 Y105.058 E18.10491
G1 X151.385 Y105.928 E18.14137
G1 X151.327 Y105.996 E18.14434
G1 X150.983 Y106.38 E18.16149
G1 X150.196 Y107.215 E18.19965
G1 X149.3 Y108.14 E18.24249
G1 X147.615 Y109.982 E18.32552
G1 X145.964 Y111.894 E18.40954
G1 X144.363 Y113.855 E18.49374
G1 X142.826 Y115.852 E18.57755
G1 X141.33 Y117.913 E18.66226
G1 X139.904 Y119.998 E18.74627
G1 X138.541 Y122.121 E18.83018
G1 X137.228 Y124.298 E18.91474
G1 X135.997 Y126.474 E18.99789
G1 X134.801 Y128.735 E19.08297
G1 X133.685 Y130.999 E19.16692
G1 X132.639 Y133.283 E19.25047
G1 X131.644 Y135.625 E19.33511
G1 X130.719 Y137.984 E19.41938
G1 X129.865 Y140.369 E19.50364
G1 X129.091 Y142.731 E19.58631
G1 X128.36 Y145.196 E19.67183
G1 X127.714 Y147.625 E19.75542
G1 X127.132 Y150.089 E19.83963
G1 X126.617 Y152.578 E19.92417
G1 X126.191 Y154.982 E20.00537
G1 X125.894 Y156.793 E20.06641
G1 X125.82 Y157.194 E20.07997
G1 X125.789 Y157.346 E20.08513
G1 X125.503 Y158.444 E20.12287
G1 X125.439 Y158.645 E20.12989
G1 X125.281 Y159.106 E20.1461
G1 X125.112 Y159.563 E20.1623
G1 X124.772 Y160.377 E20.19164
G1 X124.606 Y160.728 E20.20456
G1 X123.608 Y162.769 E20.28012
G1 X123.045 Y163.987 E20.32475
G1 X122.688 Y164.775 E20.35353
G1 X122.459 Y165.249 E20.37103
G1 X122.301 Y165.556 E20.38252
G1 X121.684 Y166.602 E20.42291
G1 X120.733 Y168.022 E20.47975
G1 X119.363 Y170.122 E20.56315
G1 X119.243 Y170.312 E20.57062
G1 X119.078 Y170.564 E20.58064
G1 X118.908 Y170.816 E20.59075
G1 X118.196 Y171.755 E20.62994
