;FLAVOR:Marlin
;TIME:1003
;Filament used: 0.990908m
;Layer height: 0.3
;MINX:9
;MINY:9
;MINZ:0.2
;MAXX:211
;MAXY:211
;MAXZ:0.8
;Generated with Cura_SteamEngine master
M140 S60
M105
M190 S60
M104 S200
M105
M109 S200
M82 ;absolute extrusion mode
; Ender 3 Custom Start G-code
G92 E0 ; Reset Extruder
G28 ; Home all axes
G1 Z2.0 F3000 ; Move Z Axis up little to prevent scratching of Heat Bed
G1 X0.1 Y20 Z0.3 F5000.0 ; Move to start position
G1 X0.1 Y200.0 Z0.3 F1500.0 E15 ; Draw the first line
G1 X0.4 Y200.0 Z0.3 F5000.0 ; Move to side a little
G1 X0.4 Y20 Z0.3 F1500.0 E30 ; Draw the second line
G92 E0 ; Reset Extruder
G1 Z2.0 F3000 ; Move Z Axis up little to prevent scratching of Heat Bed
G1 X5 Y20 Z0.3 F5000.0 ; Move over to prevent blob squish
G92 E0
G92 E0
G1 F1500 E-6.5
;LAYER_COUNT:3
;LAYER:0
M107
G0 F6000 X12.198 Y12.264 Z0.2
;TYPE:SKIRT
G1 F1500 E0
G1 F1200 X12.886 Y11.627 E0.03119
G1 X13.626 Y11.051 E0.06237
G1 X14.412 Y10.539 E0.09357
G1 X15.239 Y10.097 E0.12476
G1 X16.101 Y9.727 E0.15596
G1 X16.991 Y9.431 E0.18716
G1 X17.903 Y9.213 E0.21835
G1 X18.83 Y9.072 E0.24953
G1 X19.701 Y9.013 E0.27857
G1 X20.022 Y9.004 E0.28925
G1 X20.33 Y9 E0.29949
G1 X39.449 Y9.001 E0.93539
G1 X40.153 Y9.011 E0.95881
G1 X41.09 Y9.064 E0.99003
G1 X42.018 Y9.197 E1.02121
G1 X42.932 Y9.409 E1.05241
G1 X43.824 Y9.697 E1.08359
G1 X44.669 Y10.051 E1.11406
G1 X45.884 Y10.621 E1.1587
G1 X46.15 Y10.75 E1.16853
G1 X48.474 Y11.799 E1.25334
G1 X50.785 Y12.764 E1.33663
G1 X53.126 Y13.662 E1.42003
G1 X55.503 Y14.5 E1.50386
G1 X57.917 Y15.275 E1.58818
G1 X60.293 Y15.964 E1.67046
G1 X62.756 Y16.603 E1.7551
G1 X65.25 Y17.177 E1.84022
G1 X67.66 Y17.657 E1.92195
G1 X70.152 Y18.082 E2.00603
G1 X72.663 Y18.438 E2.09038
G1 X75.149 Y18.719 E2.17359
G1 X77.634 Y18.928 E2.25653
G1 X80.136 Y19.069 E2.33988
G1 X84.024 Y19.15 E2.46923
G1 X136.04 Y19.15 E4.19929
G1 X138.648 Y19.113 E4.28604
G1 X141.17 Y19.006 E4.36999
G1 X143.664 Y18.829 E4.45315
G1 X146.164 Y18.581 E4.53671
G1 X148.657 Y18.262 E4.62031
G1 X151.15 Y17.871 E4.70424
G1 X153.64 Y17.408 E4.78847
G1 X156.104 Y16.878 E4.8723
G1 X158.506 Y16.289 E4.95456
G1 X160.962 Y15.613 E5.03928
G1 X163.372 Y14.875 E5.12311
G1 X165.764 Y14.068 E5.20708
G1 X168.104 Y13.205 E5.29003
G1 X170.46 Y12.259 E5.37447
G1 X172.759 Y11.259 E5.45786
G1 X175.332 Y10.052 E5.55239
G1 X176.197 Y9.69 E5.58357
G1 X177.09 Y9.404 E5.61476
G1 X177.626 Y9.271 E5.63313
G1 X178.549 Y9.107 E5.66431
G1 X179.701 Y9.013 E5.70275
G1 X180.019 Y9.004 E5.71333
G1 X180.33 Y9 E5.72368
G1 X199.435 Y9.001 E6.35911
G1 X200.133 Y9.01 E6.38233
G1 X201.069 Y9.062 E6.41351
G1 X201.998 Y9.194 E6.44472
G1 X202.912 Y9.404 E6.47591
G1 X203.805 Y9.691 E6.50711
G1 X204.67 Y10.054 E6.53831
G1 X205.501 Y10.488 E6.56949
G1 X206.292 Y10.992 E6.60069
G1 X207.037 Y11.562 E6.63188
G1 X207.731 Y12.193 E6.66308
G1 X208.368 Y12.88 E6.69424
G1 X208.945 Y13.62 E6.72545
G1 X209.457 Y14.406 E6.75665
G1 X209.9 Y15.233 E6.78786
G1 X210.271 Y16.094 E6.81904
G1 X210.567 Y16.984 E6.85023
G1 X210.786 Y17.896 E6.88143
G1 X210.927 Y18.823 E6.91262
G1 X210.987 Y19.701 E6.94189
G1 X210.996 Y20.022 E6.95257
G1 X211 Y20.33 E6.96281
G1 X210.999 Y39.426 E7.59795
G1 X210.989 Y40.15 E7.62203
G1 X210.936 Y41.086 E7.65321
G1 X210.804 Y42.015 E7.68442
G1 X210.592 Y42.929 E7.71563
G1 X210.304 Y43.821 E7.7468
G1 X210.076 Y44.387 E7.7671
G1 X209.818 Y44.979 E7.78858
G1 X209.125 Y46.513 E7.84456
G1 X208.164 Y48.811 E7.92741
G1 X207.238 Y51.208 E8.01288
G1 X206.421 Y53.532 E8.09481
G1 X205.652 Y55.924 E8.17838
G1 X204.944 Y58.358 E8.26269
G1 X204.313 Y60.786 E8.34613
G1 X203.743 Y63.259 E8.43054
G1 X203.246 Y65.73 E8.51437
G1 X202.828 Y68.183 E8.59713
G1 X202.472 Y70.682 E8.68109
G1 X202.185 Y73.203 E8.76548
G1 X201.973 Y75.696 E8.8487
G1 X201.832 Y78.18 E8.93145
G1 X201.759 Y80.768 E9.01756
G1 X201.75 Y82.062 E9.0606
G1 X201.75 Y137.926 E10.91864
G1 X201.787 Y140.535 E11.00543
G1 X201.894 Y143.057 E11.08938
G1 X202.071 Y145.551 E11.17254
G1 X202.319 Y148.049 E11.25604
G1 X202.637 Y150.538 E11.33949
G1 X203.031 Y153.047 E11.42397
G1 X203.49 Y155.513 E11.50739
G1 X204.017 Y157.964 E11.59078
G1 X204.62 Y160.424 E11.67502
G1 X205.29 Y162.858 E11.75899
G1 X206.018 Y165.237 E11.84173
G1 X206.829 Y167.64 E11.92609
G1 X207.703 Y170.01 E12.0101
G1 X208.637 Y172.338 E12.09353
G1 X209.707 Y174.793 E12.1826
G1 X210.012 Y175.467 E12.20721
G1 X210.361 Y176.337 E12.23839
G1 X210.728 Y177.621 E12.2828
G1 X210.892 Y178.544 E12.31398
G1 X210.985 Y179.667 E12.35146
G1 X210.995 Y179.99 E12.36221
G1 X211 Y180.33 E12.37352
G1 X210.999 Y199.4 E13.00779
G1 X210.99 Y200.127 E13.03197
G1 X210.939 Y201.064 E13.06318
G1 X210.807 Y201.992 E13.09436
G1 X210.598 Y202.906 E13.12554
G1 X210.311 Y203.799 E13.15674
G1 X209.949 Y204.665 E13.18796
G1 X209.515 Y205.496 E13.21914
G1 X209.011 Y206.287 E13.25034
G1 X208.442 Y207.032 E13.28152
G1 X207.811 Y207.727 E13.31274
G1 X207.124 Y208.365 E13.34392
G1 X206.385 Y208.942 E13.3751
G1 X205.599 Y209.454 E13.4063
G1 X204.773 Y209.897 E13.43748
G1 X203.911 Y210.269 E13.46871
G1 X203.022 Y210.565 E13.49987
G1 X202.11 Y210.785 E13.53107
G1 X201.183 Y210.926 E13.56226
G1 X200.299 Y210.987 E13.59173
G1 X199.978 Y210.996 E13.60241
G1 X199.67 Y211 E13.61266
G1 X180.549 Y210.999 E14.24862
G1 X179.851 Y210.989 E14.27184
G1 X178.915 Y210.935 E14.30303
G1 X177.837 Y210.773 E14.33928
G1 X176.926 Y210.55 E14.37048
G1 X176.037 Y210.251 E14.40167
G1 X175.596 Y210.069 E14.41754
G1 X175.021 Y209.818 E14.43841
G1 X173.487 Y209.125 E14.49439
G1 X171.189 Y208.164 E14.57724
G1 X168.792 Y207.238 E14.66271
G1 X166.468 Y206.421 E14.74464
G1 X164.076 Y205.652 E14.82821
G1 X161.642 Y204.944 E14.91252
G1 X159.214 Y204.313 E14.99596
G1 X156.741 Y203.743 E15.08037
G1 X154.27 Y203.246 E15.1642
G1 X151.817 Y202.828 E15.24696
G1 X149.318 Y202.472 E15.33092
G1 X146.797 Y202.185 E15.41531
G1 X144.304 Y201.973 E15.49852
G1 X141.82 Y201.832 E15.58128
G1 X139.232 Y201.759 E15.66739
G1 X137.938 Y201.75 E15.71043
G1 X82.074 Y201.75 E17.56847
G1 X79.466 Y201.787 E17.65522
G1 X76.944 Y201.894 E17.73918
G1 X74.449 Y202.071 E17.82237
G1 X71.951 Y202.319 E17.90586
G1 X69.462 Y202.637 E17.98932
G1 X66.953 Y203.031 E18.07379
G1 X64.487 Y203.49 E18.15722
G1 X62.036 Y204.017 E18.24061
G1 X59.576 Y204.62 E18.32485
G1 X57.142 Y205.29 E18.40881
G1 X54.763 Y206.018 E18.49156
G1 X52.36 Y206.829 E18.57592
G1 X49.99 Y207.703 E18.65993
G1 X47.662 Y208.637 E18.74336
G1 X45.157 Y209.729 E18.83425
G1 X44.557 Y210.001 E18.85616
G1 X43.277 Y210.488 E18.90171
G1 X42.342 Y210.736 E18.93388
G1 X41.418 Y210.898 E18.96508
G1 X40.299 Y210.987 E19.00242
G1 X39.981 Y210.996 E19.013
G1 X39.67 Y211 E19.02335
G1 X20.565 Y210.999 E19.65878
G1 X19.867 Y210.99 E19.682
G1 X18.931 Y210.938 E19.71318
G1 X18.002 Y210.806 E19.74439
G1 X17.088 Y210.596 E19.77558
G1 X16.195 Y210.309 E19.80678
G1 X15.33 Y209.946 E19.83798
G1 X14.499 Y209.512 E19.86916
G1 X13.708 Y209.008 E19.90035
G1 X12.963 Y208.438 E19.93155
G1 X12.269 Y207.807 E19.96275
G1 X11.632 Y207.12 E19.99391
G1 X11.055 Y206.38 E20.02512
G1 X10.543 Y205.594 E20.05632
G1 X10.1 Y204.767 E20.08753
G1 X9.729 Y203.906 E20.11871
G1 X9.433 Y203.016 E20.1499
G1 X9.214 Y202.104 E20.1811
G1 X9.073 Y201.177 E20.21229
G1 X9.013 Y200.288 E20.24192
G1 X9.004 Y199.955 E20.253
G1 X9 Y199.658 E20.26288
G1 X9.001 Y180.536 E20.89888
G1 X9.012 Y179.827 E20.92246
G1 X9.067 Y178.891 E20.95365
G1 X9.201 Y177.963 E20.98484
G1 X9.414 Y177.049 E21.01605
G1 X9.703 Y176.157 E21.04724
G1 X10.054 Y175.322 E21.07736
G1 X10.633 Y174.089 E21.12267
G1 X11.657 Y171.822 E21.2054
G1 X12.647 Y169.458 E21.29065
G1 X13.55 Y167.11 E21.37432
G1 X14.372 Y164.781 E21.45646
G1 X15.159 Y162.334 E21.54196
G1 X15.85 Y159.958 E21.62426
G1 X16.491 Y157.491 E21.70904
G1 X17.06 Y155.027 E21.79315
G1 X17.545 Y152.604 E21.87533
G1 X17.977 Y150.084 E21.96037
G1 X18.329 Y147.612 E22.04342
G1 X18.613 Y145.114 E22.12704
G1 X18.827 Y142.599 E22.21099
G1 X18.968 Y140.117 E22.29367
G1 X19.041 Y137.53 E22.37975
G1 X19.05 Y136.233 E22.42289
G1 X19.05 Y83.754 E24.16835
G1 X19.013 Y81.145 E24.25514
G1 X18.906 Y78.624 E24.33906
G1 X18.729 Y76.129 E24.42225
G1 X18.481 Y73.63 E24.50578
G1 X18.163 Y71.141 E24.58924
G1 X17.769 Y68.632 E24.67371
G1 X17.31 Y66.166 E24.75714
G1 X16.776 Y63.683 E24.84161
G1 X16.189 Y61.288 E24.92362
G1 X15.511 Y58.822 E25.00869
G1 X14.782 Y56.442 E25.09148
G1 X13.971 Y54.039 E25.17583
G1 X13.091 Y51.651 E25.26048
G1 X12.167 Y49.352 E25.34289
G1 X11.16 Y47.037 E25.42685
G1 X10.048 Y44.663 E25.51405
G1 X9.687 Y43.797 E25.54525
G1 X9.401 Y42.904 E25.57644
G1 X9.192 Y41.99 E25.60762
G1 X9.061 Y41.061 E25.63883
G1 X9.015 Y40.333 E25.66309
G1 X9.005 Y40.005 E25.674
G1 X9 Y39.67 E25.68515
G1 X9.001 Y20.525 E26.32191
G1 X9.01 Y19.86 E26.34403
G1 X9.063 Y18.924 E26.37521
G1 X9.195 Y17.995 E26.40642
G1 X9.406 Y17.081 E26.43762
G1 X9.694 Y16.189 E26.4688
G1 X10.057 Y15.324 E26.5
G1 X10.492 Y14.493 E26.5312
G1 X10.996 Y13.703 E26.56236
G1 X11.566 Y12.958 E26.59356
G1 X12.198 Y12.264 E26.62478
G0 F6000 X12.589 Y12.439
G1 F1200 X13.274 Y11.823 E26.65542
G1 X14.01 Y11.27 E26.68604
G1 X14.791 Y10.782 E26.71667
G1 X15.611 Y10.364 E26.74728
G1 X16.465 Y10.019 E26.77792
G1 X17.345 Y9.749 E26.80853
G1 X18.245 Y9.557 E26.83914
G1 X19.159 Y9.443 E26.86978
G1 X19.712 Y9.413 E26.8882
G1 X20.033 Y9.404 E26.89888
G1 X20.33 Y9.4 E26.90876
G1 X39.444 Y9.401 E27.54449
G1 X40.148 Y9.411 E27.56791
G1 X41.067 Y9.464 E27.59853
G1 X41.978 Y9.597 E27.62915
G1 X42.874 Y9.808 E27.65976
G1 X43.748 Y10.096 E27.69037
G1 X44.499 Y10.414 E27.7175
G1 X45.845 Y11.046 E27.76695
G1 X46.005 Y11.124 E27.77287
G1 X48.305 Y12.161 E27.85679
G1 X50.654 Y13.143 E27.94147
G1 X52.966 Y14.03 E28.02383
G1 X55.385 Y14.882 E28.10913
G1 X57.789 Y15.654 E28.19311
G1 X60.196 Y16.351 E28.27646
G1 X62.671 Y16.994 E28.36151
G1 X65.148 Y17.564 E28.44605
G1 X67.592 Y18.051 E28.52893
G1 X70.094 Y18.478 E28.61335
G1 X72.598 Y18.833 E28.69747
G1 X75.103 Y19.116 E28.78131
G1 X77.651 Y19.33 E28.86636
G1 X80.106 Y19.469 E28.94814
G1 X84.016 Y19.55 E29.07822
G1 X136.046 Y19.55 E30.80874
G1 X138.67 Y19.513 E30.89603
G1 X141.179 Y19.406 E30.97955
G1 X143.699 Y19.228 E31.06358
G1 X146.214 Y18.979 E31.14764
G1 X148.703 Y18.66 E31.2311
G1 X151.255 Y18.259 E31.31702
G1 X153.686 Y17.807 E31.39926
G1 X156.178 Y17.271 E31.48404
G1 X158.635 Y16.669 E31.56818
G1 X161.08 Y15.996 E31.65252
G1 X163.48 Y15.261 E31.73601
G1 X165.894 Y14.447 E31.82074
G1 X168.244 Y13.58 E31.90405
G1 X170.632 Y12.621 E31.98964
G1 X172.91 Y11.63 E32.07226
G1 X175.502 Y10.414 E32.16749
G1 X176.352 Y10.06 E32.19812
G1 X177.229 Y9.78 E32.22874
G1 X177.713 Y9.661 E32.24531
G1 X178.619 Y9.501 E32.27591
G1 X179.712 Y9.413 E32.31238
G1 X180.03 Y9.404 E32.32296
G1 X180.33 Y9.4 E32.33294
G1 X199.43 Y9.401 E32.96821
G1 X200.128 Y9.41 E32.99143
G1 X201.047 Y9.462 E33.02204
G1 X201.958 Y9.593 E33.05266
G1 X202.854 Y9.803 E33.08326
G1 X203.729 Y10.09 E33.11389
G1 X204.576 Y10.452 E33.14453
G1 X205.388 Y10.886 E33.17515
G1 X206.159 Y11.388 E33.20575
G1 X206.884 Y11.956 E33.23639
G1 X207.557 Y12.585 E33.26702
G1 X208.172 Y13.269 E33.29762
G1 X208.726 Y14.004 E33.32823
G1 X209.214 Y14.785 E33.35886
G1 X209.633 Y15.605 E33.38949
G1 X209.979 Y16.458 E33.4201
G1 X210.249 Y17.338 E33.45072
G1 X210.442 Y18.239 E33.48137
G1 X210.556 Y19.152 E33.51197
G1 X210.587 Y19.712 E33.53062
G1 X210.596 Y20.033 E33.5413
G1 X210.6 Y20.33 E33.55118
G1 X210.599 Y39.42 E34.18612
G1 X210.589 Y40.144 E34.2102
G1 X210.536 Y41.064 E34.24085
G1 X210.404 Y41.975 E34.27147
G1 X210.193 Y42.871 E34.30208
G1 X209.906 Y43.745 E34.33268
G1 X209.71 Y44.228 E34.35002
G1 X209.512 Y44.683 E34.36652
G1 X208.763 Y46.343 E34.42709
G1 X207.799 Y48.649 E34.51022
G1 X206.868 Y51.058 E34.59612
G1 X206.035 Y53.426 E34.67961
G1 X205.27 Y55.805 E34.76273
G1 X204.562 Y58.242 E34.84714
G1 X203.92 Y60.71 E34.93195
G1 X203.355 Y63.162 E35.01564
G1 X202.855 Y65.649 E35.10002
G1 X202.43 Y68.137 E35.18397
G1 X202.072 Y70.647 E35.2683
G1 X201.792 Y73.122 E35.35114
G1 X201.574 Y75.677 E35.43643
G1 X201.432 Y78.182 E35.51988
G1 X201.359 Y80.754 E35.60546
G1 X201.35 Y82.059 E35.64886
G1 X201.35 Y137.932 E37.50721
G1 X201.387 Y140.556 E37.59449
G1 X201.494 Y143.066 E37.67805
G1 X201.672 Y145.582 E37.76194
G1 X201.922 Y148.106 E37.8463
G1 X202.243 Y150.614 E37.9304
G1 X202.63 Y153.076 E38.01329
G1 X203.099 Y155.598 E38.09861
G1 X203.631 Y158.072 E38.18278
G1 X204.231 Y160.52 E38.26661
G1 X204.898 Y162.943 E38.35019
G1 X205.643 Y165.377 E38.43486
G1 X206.461 Y167.802 E38.51998
G1 X207.316 Y170.119 E38.60212
G1 X208.276 Y172.51 E38.68782
G1 X209.347 Y174.969 E38.77702
G1 X209.647 Y175.632 E38.80123
G1 X209.989 Y176.487 E38.83185
G1 X210.338 Y177.708 E38.87409
G1 X210.498 Y178.614 E38.90469
G1 X210.585 Y179.679 E38.94023
G1 X210.595 Y180.002 E38.95098
G1 X210.6 Y180.33 E38.96189
G1 X210.599 Y199.395 E39.59599
G1 X210.59 Y200.122 E39.62018
G1 X210.539 Y201.041 E39.65079
G1 X210.408 Y201.953 E39.68143
G1 X210.198 Y202.849 E39.71204
G1 X209.912 Y203.724 E39.74266
G1 X209.551 Y204.571 E39.77328
G1 X209.117 Y205.383 E39.80391
G1 X208.615 Y206.155 E39.83454
G1 X208.047 Y206.88 E39.86517
G1 X207.419 Y207.553 E39.89578
G1 X206.735 Y208.169 E39.9264
G1 X206 Y208.723 E39.95701
G1 X205.22 Y209.212 E39.98763
G1 X204.4 Y209.631 E40.01826
G1 X203.547 Y209.977 E40.04888
G1 X202.667 Y210.248 E40.0795
G1 X201.767 Y210.441 E40.11012
G1 X200.853 Y210.556 E40.14075
G1 X200.288 Y210.587 E40.15957
G1 X199.967 Y210.596 E40.17026
G1 X199.67 Y210.6 E40.18013
G1 X180.555 Y210.599 E40.8159
G1 X179.857 Y210.589 E40.83912
G1 X178.938 Y210.536 E40.86974
G1 X177.915 Y210.381 E40.90415
G1 X177.021 Y210.162 E40.93476
G1 X175.756 Y209.703 E40.97952
G1 X175.186 Y209.453 E41.00022
G1 X173.657 Y208.763 E41.05602
G1 X171.351 Y207.799 E41.13915
G1 X168.942 Y206.868 E41.22505
G1 X166.574 Y206.035 E41.30854
G1 X164.195 Y205.27 E41.39165
G1 X161.758 Y204.562 E41.47606
G1 X159.29 Y203.92 E41.56088
G1 X156.838 Y203.355 E41.64457
G1 X154.351 Y202.855 E41.72894
G1 X151.863 Y202.43 E41.81289
G1 X149.353 Y202.072 E41.89722
G1 X146.878 Y201.792 E41.98006
G1 X144.323 Y201.574 E42.06535
G1 X141.818 Y201.432 E42.1488
G1 X139.246 Y201.359 E42.23438
G1 X137.941 Y201.35 E42.27779
G1 X82.068 Y201.35 E44.13613
G1 X79.443 Y201.387 E44.22345
G1 X76.935 Y201.494 E44.30694
G1 X74.418 Y201.672 E44.39086
G1 X71.894 Y201.922 E44.47522
G1 X69.386 Y202.243 E44.55932
G1 X66.924 Y202.63 E44.64221
G1 X64.402 Y203.099 E44.72753
G1 X61.928 Y203.631 E44.8117
G1 X59.48 Y204.231 E44.89553
G1 X57.057 Y204.898 E44.97912
G1 X54.623 Y205.643 E45.06378
G1 X52.198 Y206.461 E45.1489
G1 X49.881 Y207.316 E45.23104
G1 X47.49 Y208.276 E45.31674
G1 X45.039 Y209.344 E45.40566
G1 X44.392 Y209.637 E45.42929
G1 X43.159 Y210.106 E45.47316
G1 X42.24 Y210.349 E45.50478
G1 X41.332 Y210.505 E45.53542
G1 X40.288 Y210.587 E45.57025
G1 X39.97 Y210.596 E45.58083
G1 X39.67 Y210.6 E45.59081
G1 X20.57 Y210.599 E46.22608
G1 X19.872 Y210.59 E46.2493
G1 X18.953 Y210.538 E46.27991
G1 X18.042 Y210.407 E46.31052
G1 X17.146 Y210.197 E46.34113
G1 X16.271 Y209.91 E46.37176
G1 X15.424 Y209.548 E46.4024
G1 X14.612 Y209.114 E46.43302
G1 X13.841 Y208.612 E46.46362
G1 X13.116 Y208.044 E46.49425
G1 X12.443 Y207.415 E46.52489
G1 X11.828 Y206.731 E46.55549
G1 X11.274 Y205.996 E46.5861
G1 X10.786 Y205.215 E46.61673
G1 X10.367 Y204.395 E46.64736
G1 X10.021 Y203.542 E46.67797
G1 X9.751 Y202.662 E46.70859
G1 X9.558 Y201.761 E46.73923
G1 X9.444 Y200.848 E46.76984
G1 X9.413 Y200.277 E46.78886
G1 X9.404 Y199.944 E46.79994
G1 X9.4 Y199.658 E46.80945
G1 X9.401 Y180.543 E47.44522
G1 X9.412 Y179.834 E47.4688
G1 X9.467 Y178.915 E47.49942
G1 X9.6 Y178.004 E47.53004
G1 X9.813 Y177.108 E47.56067
G1 X10.102 Y176.234 E47.59129
G1 X10.416 Y175.492 E47.61809
G1 X10.964 Y174.325 E47.66097
G1 X12.032 Y171.962 E47.74722
G1 X13.03 Y169.578 E47.83318
G1 X13.913 Y167.283 E47.91497
G1 X14.758 Y164.889 E47.9994
G1 X15.538 Y162.464 E48.08413
G1 X16.232 Y160.074 E48.16691
G1 X16.885 Y157.568 E48.25304
G1 X17.447 Y155.13 E48.33625
G1 X17.939 Y152.673 E48.4196
G1 X18.374 Y150.137 E48.50518
G1 X18.723 Y147.682 E48.58765
G1 X19.01 Y145.157 E48.67217
