;FLAVOR:Marlin
;TIME:1193
;Filament used: 0.284671m
;Layer height: 0.2
;MINX:64.526
;MINY:77.331
;MINZ:0.2
;MAXX:155.476
;MAXY:142.677
;MAXZ:0.6
;Generated with Cura_SteamEngine master
M140 S67
M105
M190 S67
M104 S205
M105
M109 S205
M82 ;absolute extrusion mode
; Ender 3 Custom Start G-code
G92 E0 ; Reset Extruder
G28 ; Home all axes
G1 Z2.0 F3000 ; Move Z Axis up little to prevent scratching of Heat Bed
G1 X0.1 Y20 Z0.3 F5000.0 ; Move to start position
G1 X0.1 Y200.0 Z0.3 F1500.0 E15 ; Draw the first line
G1 X0.4 Y200.0 Z0.3 F5000.0 ; Move to side a little
G1 X0.4 Y20 Z0.3 F1500.0 E30 ; Draw the second line
G92 E0 ; Reset Extruder
G1 Z2.0 F3000 ; Move Z Axis up little to prevent scratching of Heat Bed
G1 X5 Y20 Z0.3 F5000.0 ; Move over to prevent blob squish
G92 E0
G92 E0
G1 F1500 E-6.5
;LAYER_COUNT:3
;LAYER:0
M107
G0 F6000 X81.198 Y84.445 Z0.2
;TYPE:SKIRT
G1 F1500 E0
G1 F1200 X82.158 Y83.555 E0.04354
G1 X82.259 Y83.472 E0.04789
G1 X82.628 Y83.182 E0.0635
G1 X84.023 Y82.132 E0.12157
G1 X85.257 Y81.189 E0.17323
G1 X86.169 Y80.561 E0.21005
G1 X86.359 Y80.444 E0.21748
G1 X86.727 Y80.226 E0.2317
G1 X87.926 Y79.624 E0.27633
G1 X88.281 Y79.472 E0.28917
G1 X88.714 Y79.297 E0.3047
G1 X89.284 Y79.093 E0.32484
G1 X89.792 Y78.927 E0.34261
G1 X90.839 Y78.605 E0.37905
G1 X92.577 Y78.023 E0.44001
G1 X92.818 Y77.946 E0.44842
G1 X93.923 Y77.655 E0.48643
G1 X94.235 Y77.59 E0.49703
G1 X95.16 Y77.438 E0.52821
G1 X96.073 Y77.366 E0.55867
G1 X96.502 Y77.353 E0.57294
G1 X97.39 Y77.336 E0.60248
G1 X98.406 Y77.36 E0.63628
G1 X98.903 Y77.395 E0.65286
G1 X99.26 Y77.426 E0.66477
G1 X100.391 Y77.544 E0.7026
G1 X100.958 Y77.61 E0.72158
G1 X103.511 Y77.835 E0.80682
G1 X105.973 Y77.982 E0.88886
G1 X108.522 Y78.062 E0.97368
G1 X111.047 Y78.07 E1.05766
G1 X113.542 Y78.006 E1.14067
G1 X116.06 Y77.871 E1.22454
G1 X118.579 Y77.665 E1.3086
G1 X120.22 Y77.493 E1.36348
G1 X121.015 Y77.402 E1.3901
G1 X122.261 Y77.331 E1.43161
G1 X122.66 Y77.332 E1.44488
G1 X123.097 Y77.339 E1.45941
G1 X123.879 Y77.365 E1.48544
G1 X125.12 Y77.478 E1.52688
G1 X125.375 Y77.516 E1.53546
G1 X126.296 Y77.694 E1.56666
G1 X126.989 Y77.882 E1.59054
G1 X127.322 Y77.987 E1.60215
G1 X129.593 Y78.737 E1.6817
G1 X130.477 Y79.017 E1.71254
G1 X131.113 Y79.24 E1.73496
G1 X131.635 Y79.441 E1.75356
G1 X132.495 Y79.815 E1.78475
G1 X133.159 Y80.166 E1.80973
G1 X133.53 Y80.379 E1.82396
G1 X134.323 Y80.881 E1.85518
G1 X134.789 Y81.222 E1.87438
G1 X135.086 Y81.452 E1.88688
G1 X136.883 Y82.804 E1.96167
G1 X137.139 Y82.999 E1.97238
G1 X137.332 Y83.15 E1.98053
G1 X137.727 Y83.465 E1.99733
G1 X138.647 Y84.287 E2.03837
G1 X138.743 Y84.383 E2.04288
G1 X139.108 Y84.766 E2.06048
G1 X139.355 Y85.038 E2.0727
G1 X139.956 Y85.759 E2.10392
G1 X140.302 Y86.239 E2.1236
G1 X140.905 Y87.126 E2.15927
G1 X141.652 Y88.259 E2.20441
G1 X141.998 Y88.758 E2.2246
G1 X142.787 Y89.912 E2.2711
G1 X143.333 Y90.798 E2.30571
G1 X143.469 Y91.044 E2.31506
G1 X143.903 Y91.919 E2.34755
G1 X144.002 Y92.143 E2.35569
G1 X144.177 Y92.563 E2.37083
G1 X144.26 Y92.774 E2.37837
G1 X144.365 Y93.051 E2.38822
G1 X144.431 Y93.233 E2.39466
G1 X144.623 Y93.811 E2.41492
G1 X144.726 Y94.153 E2.4268
G1 X144.861 Y94.642 E2.44367
G1 X144.946 Y94.98 E2.45526
G1 X145.039 Y95.384 E2.46905
G1 X145.136 Y95.842 E2.48462
G1 X145.194 Y96.132 E2.49446
G1 X145.358 Y97.027 E2.52472
G1 X145.625 Y98.553 E2.57625
G1 X146.135 Y101.041 E2.66072
G1 X146.696 Y103.447 E2.74289
G1 X147.345 Y105.902 E2.82735
G1 X148.061 Y108.333 E2.91164
G1 X148.835 Y110.708 E2.99472
G1 X149.686 Y113.092 E3.07891
G1 X150.602 Y115.441 E3.16277
G1 X151.582 Y117.763 E3.2466
G1 X152.625 Y120.049 E3.33017
G1 X153.429 Y121.703 E3.39134
G1 X153.748 Y122.425 E3.41759
G1 X154.375 Y123.991 E3.4737
G1 X154.635 Y124.632 E3.4967
G1 X154.951 Y125.516 E3.52793
G1 X155.189 Y126.423 E3.55912
G1 X155.354 Y127.376 E3.59128
G1 X155.367 Y127.478 E3.5947
G1 X155.417 Y127.955 E3.61066
G1 X155.438 Y128.207 E3.61907
G1 X155.476 Y129.145 E3.65029
G1 X155.441 Y129.998 E3.67868
G1 X155.433 Y130.098 E3.68202
G1 X155.371 Y130.677 E3.70139
G1 X155.33 Y130.984 E3.71169
G1 X155.246 Y131.518 E3.72967
G1 X154.998 Y132.578 E3.76588
G1 X154.937 Y132.791 E3.77325
G1 X154.846 Y133.093 E3.78374
G1 X154.772 Y133.326 E3.79187
G1 X154.336 Y134.471 E3.83262
G1 X154.283 Y134.59 E3.83695
G1 X154.062 Y135.059 E3.8542
G1 X153.899 Y135.383 E3.86626
G1 X153.442 Y136.202 E3.89745
G1 X153.113 Y136.704 E3.91742
G1 X153.034 Y136.818 E3.92203
G1 X152.734 Y137.231 E3.93901
G1 X152.556 Y137.464 E3.94876
G1 X151.956 Y138.184 E3.97993
G1 X151.221 Y138.919 E4.0145
G1 X150.908 Y139.204 E4.02858
G1 X150.188 Y139.806 E4.0598
G1 X149.574 Y140.243 E4.08486
G1 X149.287 Y140.433 E4.09631
G1 X148.094 Y141.12 E4.1421
G1 X147.898 Y141.217 E4.14937
G1 X146.955 Y141.63 E4.18361
G1 X146.634 Y141.753 E4.19505
G1 X145.578 Y142.097 E4.23199
G1 X145.331 Y142.164 E4.2405
G1 X144.486 Y142.358 E4.26934
G1 X144.316 Y142.39 E4.27509
G1 X143.849 Y142.468 E4.29084
G1 X143.599 Y142.504 E4.29924
G1 X142.915 Y142.58 E4.32213
G1 X142.196 Y142.638 E4.34612
G1 X141.446 Y142.673 E4.37109
G1 X141.118 Y142.677 E4.382
G1 X140.735 Y142.675 E4.39474
G1 X139.586 Y142.649 E4.43297
G1 X139.214 Y142.634 E4.44535
G1 X138.507 Y142.594 E4.4689
G1 X138.244 Y142.576 E4.47767
G1 X137.287 Y142.497 E4.50961
G1 X136.341 Y142.4 E4.54124
G1 X136.093 Y142.371 E4.54954
G1 X135.193 Y142.258 E4.57971
G1 X134.956 Y142.226 E4.58766
G1 X133.981 Y142.082 E4.62044
G1 X133.684 Y142.034 E4.63045
G1 X132.768 Y141.873 E4.66138
G1 X132.435 Y141.809 E4.67266
G1 X131.342 Y141.582 E4.70979
G1 X131.117 Y141.533 E4.71745
G1 X128.691 Y140.976 E4.80024
G1 X126.223 Y140.482 E4.88395
G1 X123.747 Y140.059 E4.9675
G1 X121.248 Y139.705 E5.05145
G1 X118.77 Y139.425 E5.13439
G1 X116.235 Y139.21 E5.21901
G1 X113.734 Y139.07 E5.30232
G1 X111.204 Y138.999 E5.3865
G1 X108.68 Y139.001 E5.47045
G1 X106.19 Y139.072 E5.5533
G1 X103.686 Y139.215 E5.63672
G1 X101.136 Y139.434 E5.72185
G1 X98.684 Y139.713 E5.80393
G1 X96.144 Y140.076 E5.88926
G1 X93.708 Y140.496 E5.97148
G1 X91.208 Y140.998 E6.05629
G1 X88.882 Y141.533 E6.13567
G1 X88.656 Y141.582 E6.14337
G1 X87.57 Y141.808 E6.18026
G1 X87.229 Y141.874 E6.19181
G1 X86.311 Y142.035 E6.22281
G1 X86.02 Y142.082 E6.23262
G1 X85.046 Y142.226 E6.26536
G1 X84.807 Y142.258 E6.27338
G1 X83.907 Y142.371 E6.30355
G1 X83.658 Y142.4 E6.31189
G1 X82.711 Y142.497 E6.34355
G1 X82.476 Y142.518 E6.3514
G1 X81.758 Y142.576 E6.37536
G1 X81.493 Y142.594 E6.38419
G1 X80.786 Y142.634 E6.40775
G1 X80.415 Y142.649 E6.42009
G1 X79.183 Y142.677 E6.46108
G1 X78.465 Y142.67 E6.48496
G1 X77.854 Y142.644 E6.5053
G1 X76.833 Y142.553 E6.5394
G1 X76.101 Y142.453 E6.56397
G1 X75.433 Y142.34 E6.5865
G1 X75.328 Y142.319 E6.59006
G1 X74.527 Y142.128 E6.61745
G1 X74.33 Y142.073 E6.62426
G1 X73.737 Y141.889 E6.64491
G1 X73.608 Y141.845 E6.64944
G1 X72.67 Y141.476 E6.68297
G1 X72.283 Y141.303 E6.69706
G1 X71.444 Y140.884 E6.72826
G1 X70.801 Y140.499 E6.75318
G1 X70.719 Y140.446 E6.75643
G1 X70.371 Y140.212 E6.77038
G1 X70.106 Y140.026 E6.78115
G1 X69.362 Y139.455 E6.81234
G1 X68.875 Y139.021 E6.83404
G1 X68.679 Y138.836 E6.843
G1 X68.025 Y138.164 E6.87419
G1 X67.535 Y137.576 E6.89965
G1 X67.335 Y137.318 E6.9105
G1 X66.699 Y136.406 E6.94748
G1 X66.526 Y136.129 E6.95835
G1 X65.898 Y134.975 E7.00204
G1 X65.753 Y134.666 E7.0134
G1 X65.29 Y133.515 E7.05466
G1 X65.241 Y133.37 E7.05975
G1 X65.066 Y132.801 E7.07955
G1 X64.976 Y132.478 E7.0907
G1 X64.763 Y131.564 E7.12192
G1 X64.668 Y130.974 E7.14179
G1 X64.615 Y130.544 E7.1562
G1 X64.586 Y130.271 E7.16533
G1 X64.526 Y129.335 E7.19653
G1 X64.559 Y128.235 E7.23313
G1 X64.583 Y127.934 E7.24318
G1 X64.697 Y127.003 E7.27437
G1 X64.89 Y126.085 E7.30557
G1 X65.096 Y125.379 E7.33003
G1 X65.117 Y125.315 E7.33227
G1 X65.297 Y124.808 E7.35017
G1 X65.511 Y124.256 E7.36986
G1 X65.804 Y123.54 E7.39559
G1 X66.241 Y122.448 E7.43471
G1 X66.491 Y121.872 E7.4556
G1 X66.674 Y121.483 E7.46989
G1 X67.608 Y119.551 E7.54127
G1 X68.635 Y117.262 E7.62471
G1 X69.595 Y114.954 E7.70785
G1 X70.514 Y112.554 E7.79333
G1 X71.323 Y110.243 E7.87477
G1 X72.098 Y107.811 E7.95966
G1 X72.797 Y105.386 E8.0436
G1 X73.418 Y102.976 E8.12638
G1 X73.985 Y100.49 E8.21118
G1 X74.47 Y98.046 E8.29406
G1 X74.704 Y96.692 E8.33976
G1 X74.87 Y95.806 E8.36974
G1 X74.987 Y95.258 E8.38838
G1 X75.084 Y94.855 E8.40216
G1 X75.2 Y94.416 E8.41727
G1 X75.286 Y94.114 E8.42771
G1 X75.429 Y93.648 E8.44392
G1 X75.527 Y93.354 E8.45423
G1 X75.715 Y92.835 E8.47259
G1 X75.786 Y92.653 E8.47909
G1 X75.929 Y92.305 E8.4916
G1 X76.009 Y92.119 E8.49834
G1 X76.315 Y91.467 E8.52229
G1 X76.468 Y91.167 E8.53349
G1 X77.125 Y90.048 E8.57665
G1 X77.685 Y89.213 E8.61009
G1 X78.512 Y88.021 E8.65834
G1 X79.351 Y86.749 E8.70903
G1 X79.702 Y86.234 E8.72975
G1 X80.263 Y85.482 E8.76096
G1 X80.58 Y85.11 E8.77721
G1 X80.703 Y84.972 E8.78336
G1 X80.971 Y84.682 E8.7965
G1 X81.198 Y84.445 E8.80741
G0 F6000 X81.487 Y84.722
G1 F1200 X82.412 Y83.865 E8.84935
G1 X82.513 Y83.782 E8.8537
G1 X82.868 Y83.502 E8.86874
G1 X84.263 Y82.452 E8.92681
G1 X85.499 Y81.507 E8.97856
G1 X86.379 Y80.902 E9.01408
G1 X86.799 Y80.647 E9.03042
G1 X86.928 Y80.572 E9.03538
G1 X88.084 Y79.992 E9.0784
G1 X88.439 Y79.84 E9.09124
G1 X88.859 Y79.67 E9.10631
G1 X89.409 Y79.473 E9.12575
G1 X89.917 Y79.307 E9.14352
G1 X90.11 Y79.246 E9.15025
G1 X90.968 Y78.984 E9.18009
G1 X92.699 Y78.404 E9.24081
G1 X92.94 Y78.327 E9.24923
G1 X94.004 Y78.047 E9.28582
G1 X94.316 Y77.982 E9.29642
G1 X95.225 Y77.833 E9.32706
G1 X96.088 Y77.766 E9.35585
G1 X96.508 Y77.753 E9.36982
G1 X97.399 Y77.736 E9.39946
G1 X98.378 Y77.759 E9.43203
G1 X98.875 Y77.794 E9.4486
G1 X99.219 Y77.824 E9.46009
G1 X100.345 Y77.941 E9.49774
G1 X100.948 Y78.011 E9.51793
G1 X103.453 Y78.232 E9.60157
G1 X105.971 Y78.382 E9.68547
G1 X108.509 Y78.461 E9.76992
G1 X111.021 Y78.469 E9.85347
G1 X113.573 Y78.404 E9.93838
G1 X116.077 Y78.271 E10.02178
G1 X118.657 Y78.059 E10.10788
G1 X120.188 Y77.898 E10.15908
G1 X121.06 Y77.799 E10.18827
G1 X122.261 Y77.731 E10.22828
G1 X122.654 Y77.732 E10.24135
G1 X123.288 Y77.744 E10.26245
G1 X123.866 Y77.764 E10.28168
G1 X125.061 Y77.874 E10.3216
G1 X125.316 Y77.912 E10.33017
G1 X126.22 Y78.087 E10.3608
G1 X126.871 Y78.265 E10.38324
G1 X127.197 Y78.367 E10.3946
G1 X129.449 Y79.111 E10.47349
G1 X130.356 Y79.398 E10.50513
G1 X130.969 Y79.613 E10.52673
G1 X131.491 Y79.814 E10.54534
G1 X132.335 Y80.182 E10.57596
G1 X132.96 Y80.513 E10.59949
G1 X133.331 Y80.726 E10.61371
G1 X134.109 Y81.219 E10.64435
G1 X134.544 Y81.539 E10.66231
G1 X134.761 Y81.707 E10.67144
G1 X136.641 Y83.123 E10.74972
G1 X136.897 Y83.318 E10.76042
G1 X137.083 Y83.463 E10.76827
G1 X137.478 Y83.778 E10.78507
G1 X138.364 Y84.57 E10.8246
G1 X138.46 Y84.666 E10.82911
G1 X138.812 Y85.035 E10.84607
G1 X139.059 Y85.307 E10.85829
G1 X139.648 Y86.015 E10.88892
G1 X139.972 Y86.464 E10.90734
G1 X140.571 Y87.346 E10.9428
G1 X141.328 Y88.495 E10.98857
G1 X141.667 Y88.983 E11.00833
G1 X142.456 Y90.137 E11.05482
G1 X142.983 Y90.991 E11.0882
G1 X143.119 Y91.237 E11.09755
G1 X143.537 Y92.081 E11.12888
G1 X143.636 Y92.305 E11.13702
G1 X143.805 Y92.71 E11.15162
G1 X143.888 Y92.921 E11.15916
G1 X143.989 Y93.187 E11.16862
G1 X144.055 Y93.369 E11.17506
G1 X144.24 Y93.926 E11.19458
G1 X144.343 Y94.268 E11.20646
G1 X144.473 Y94.74 E11.22275
G1 X144.558 Y95.078 E11.23434
G1 X144.648 Y95.467 E11.24762
G1 X144.745 Y95.925 E11.26319
G1 X144.8 Y96.204 E11.27265
G1 X144.964 Y97.096 E11.30281
G1 X145.233 Y98.63 E11.35461
G1 X145.74 Y101.106 E11.43867
G1 X146.316 Y103.576 E11.52303
G1 X146.958 Y106.003 E11.60653
G1 X147.674 Y108.433 E11.69079
G1 X148.461 Y110.85 E11.77533
G1 X149.317 Y113.247 E11.85999
G1 X150.22 Y115.563 E11.94266
G1 X151.221 Y117.936 E12.02833
G1 X152.267 Y120.227 E12.11209
G1 X153.069 Y121.878 E12.17314
G1 X153.377 Y122.573 E12.19842
G1 X154.005 Y124.142 E12.25463
G1 X154.265 Y124.783 E12.27764
G1 X154.573 Y125.65 E12.30824
G1 X154.806 Y126.541 E12.33887
G1 X154.957 Y127.427 E12.36877
G1 X154.97 Y127.529 E12.37219
G1 X155.018 Y127.989 E12.38757
G1 X155.039 Y128.241 E12.39598
G1 X155.076 Y129.161 E12.4266
G1 X155.042 Y129.966 E12.4534
G1 X155.034 Y130.066 E12.45674
G1 X154.975 Y130.624 E12.4754
G1 X154.934 Y130.931 E12.4857
G1 X154.852 Y131.446 E12.50305
G1 X154.613 Y132.468 E12.53796
G1 X154.552 Y132.681 E12.54533
G1 X154.465 Y132.972 E12.55543
G1 X154.391 Y133.205 E12.56356
G1 X153.971 Y134.309 E12.60285
G1 X153.918 Y134.428 E12.60718
G1 X153.704 Y134.879 E12.62378
G1 X153.541 Y135.203 E12.63585
G1 X153.092 Y136.007 E12.66647
G1 X152.784 Y136.477 E12.68516
G1 X152.705 Y136.591 E12.68978
G1 X152.416 Y136.988 E12.70611
G1 X152.238 Y137.221 E12.71586
G1 X151.648 Y137.928 E12.74649
G1 X150.952 Y138.624 E12.77923
G1 X150.639 Y138.909 E12.79331
G1 X149.932 Y139.498 E12.82391
G1 X149.353 Y139.91 E12.84755
G1 X149.066 Y140.1 E12.85899
G1 X147.917 Y140.761 E12.90308
G1 X147.721 Y140.858 E12.91036
G1 X146.812 Y141.256 E12.94336
G1 X146.491 Y141.379 E12.95479
G1 X145.473 Y141.711 E12.99041
G1 X145.226 Y141.778 E12.99892
G1 X144.412 Y141.965 E13.0267
G1 X144.242 Y141.997 E13.03245
G1 X143.792 Y142.072 E13.04763
G1 X143.542 Y142.108 E13.05603
G1 X142.883 Y142.182 E13.07808
G1 X142.164 Y142.24 E13.10208
G1 X141.441 Y142.273 E13.12615
G1 X141.113 Y142.277 E13.13706
G1 X140.744 Y142.275 E13.14933
G1 X139.595 Y142.249 E13.18756
G1 X139.236 Y142.235 E13.19951
G1 X138.529 Y142.195 E13.22306
G1 X138.276 Y142.178 E13.23149
G1 X137.557 Y142.12 E13.25548
G1 X137.328 Y142.099 E13.26313
G1 X136.382 Y142.002 E13.29476
G1 X136.142 Y141.974 E13.3028
G1 X135.242 Y141.861 E13.33297
G1 X135.014 Y141.83 E13.34062
G1 X134.039 Y141.686 E13.3734
G1 X133.753 Y141.64 E13.38304
G1 X132.837 Y141.479 E13.41397
G1 X132.517 Y141.418 E13.4248
G1 X131.424 Y141.191 E13.46193
G1 X131.207 Y141.143 E13.46932
G1 X128.788 Y140.588 E13.55187
G1 X126.298 Y140.089 E13.63634
G1 X123.804 Y139.664 E13.72048
G1 X121.313 Y139.31 E13.80417
G1 X118.777 Y139.024 E13.88905
G1 X116.257 Y138.81 E13.97317
G1 X113.767 Y138.67 E14.05611
G1 X111.215 Y138.599 E14.14103
G1 X108.703 Y138.601 E14.22458
G1 X106.158 Y138.674 E14.30926
G1 X103.628 Y138.818 E14.39354
G1 X101.129 Y139.033 E14.47697
G1 X98.62 Y139.318 E14.56095
G1 X96.086 Y139.68 E14.64609
G1 X93.632 Y140.103 E14.72891
G1 X91.111 Y140.609 E14.81444
G1 X88.792 Y141.143 E14.89358
G1 X88.575 Y141.191 E14.90098
G1 X87.489 Y141.417 E14.93787
G1 X87.16 Y141.48 E14.94901
G1 X86.242 Y141.641 E14.98001
G1 X85.961 Y141.686 E14.98948
G1 X84.987 Y141.83 E15.02222
G1 X84.758 Y141.861 E15.02991
G1 X83.858 Y141.974 E15.06008
G1 X83.617 Y142.002 E15.06815
G1 X82.67 Y142.099 E15.09981
G1 X82.443 Y142.12 E15.10739
G1 X81.725 Y142.178 E15.13135
G1 X81.471 Y142.195 E15.13982
G1 X80.764 Y142.235 E15.16337
G1 X80.406 Y142.249 E15.17529
G1 X79.174 Y142.277 E15.21627
G1 X78.482 Y142.27 E15.23929
G1 X77.871 Y142.244 E15.25963
G1 X76.887 Y142.156 E15.29249
G1 X76.155 Y142.056 E15.31706
G1 X75.511 Y141.948 E15.33878
G1 X75.406 Y141.927 E15.34234
G1 X74.635 Y141.743 E15.36871
G1 X74.438 Y141.688 E15.37551
G1 X73.866 Y141.51 E15.39543
G1 X73.737 Y141.466 E15.39997
G1 X72.833 Y141.111 E15.43227
G1 X72.446 Y140.938 E15.44637
G1 X71.623 Y140.526 E15.47698
G1 X71.018 Y140.163 E15.50045
G1 X70.936 Y140.11 E15.50369
G1 X70.6 Y139.884 E15.51716
G1 X70.335 Y139.698 E15.52793
G1 X69.605 Y139.137 E15.55855
G1 X69.149 Y138.731 E15.57886
G1 X68.953 Y138.546 E15.58782
G1 X68.312 Y137.885 E15.61845
G1 X67.851 Y137.331 E15.64242
G1 X67.651 Y137.073 E15.65328
G1 X67.038 Y136.194 E15.68892
G1 X66.865 Y135.917 E15.69978
G1 X66.26 Y134.805 E15.74189
G1 X66.115 Y134.496 E15.75324
G1 X65.669 Y133.387 E15.793
G1 X65.62 Y133.242 E15.79809
G1 X65.451 Y132.693 E15.81719
G1 X65.361 Y132.37 E15.82834
G1 X65.153 Y131.473 E15.85897
G1 X65.064 Y130.921 E15.87757
G1 X65.012 Y130.502 E15.89161
G1 X64.983 Y130.229 E15.90074
G1 X64.926 Y129.31 E15.93137
G1 X64.958 Y128.266 E15.96611
G1 X64.982 Y127.965 E15.97615
G1 X65.094 Y127.052 E16.00674
G1 X65.286 Y126.151 E16.03738
G1 X65.476 Y125.503 E16.05984
G1 X65.497 Y125.439 E16.06208
G1 X65.671 Y124.951 E16.07931
G1 X65.799 Y124.617 E16.09121
