;FLAVOR:Marlin
;TIME:6330
;Filament used: 3.65212m
;Layer height: 0.2
;MINX:68.625
;MINY:52.456
;MINZ:0.2
;MAXX:165.395
;MAXY:167.232
;MAXZ:11.8
;Generated with Cura_SteamEngine master
M140 S60
M105
M190 S60
M104 S200
M105
M109 S200
M82 ;absolute extrusion mode
; Ender 3 Custom Start G-code
G92 E0 ; Reset Extruder
G28 ; Home all axes
G1 Z2.0 F3000 ; Move Z Axis up little to prevent scratching of Heat Bed
G1 X0.1 Y20 Z0.3 F5000.0 ; Move to start position
G1 X0.1 Y200.0 Z0.3 F1500.0 E15 ; Draw the first line
G1 X0.4 Y200.0 Z0.3 F5000.0 ; Move to side a little
G1 X0.4 Y20 Z0.3 F1500.0 E30 ; Draw the second line
G92 E0 ; Reset Extruder
G1 Z2.0 F3000 ; Move Z Axis up little to prevent scratching of Heat Bed
G1 X5 Y20 Z0.3 F5000.0 ; Move over to prevent blob squish
G92 E0
G92 E0
G1 F1500 E-6.5
;LAYER_COUNT:59
;LAYER:0
M107
G0 F6000 X75.428 Y66.882 Z0.2
;TYPE:SKIRT
G1 F1500 E0
G1 F1200 X76.077 Y66.205 E0.03119
G1 X76.619 Y65.72 E0.05538
G1 X76.901 Y65.484 E0.06761
G1 X77.646 Y64.914 E0.09881
G1 X78.627 Y64.3 E0.13731
G1 X78.829 Y64.188 E0.14499
G1 X79.244 Y63.969 E0.16059
G1 X79.544 Y63.819 E0.17175
G1 X79.775 Y63.707 E0.18029
G1 X100.368 Y54.008 E0.93738
G1 X101.089 Y53.682 E0.9637
G1 X101.42 Y53.539 E0.97569
G1 X101.616 Y53.458 E0.98274
G1 X102.597 Y53.106 E1.01741
G1 X102.842 Y53.031 E1.02593
G1 X103.991 Y52.746 E1.06531
G1 X104.471 Y52.654 E1.08156
G1 X105.399 Y52.517 E1.11276
G1 X105.964 Y52.472 E1.13161
G1 X106.211 Y52.459 E1.13984
G1 X107.306 Y52.456 E1.17626
G1 X107.71 Y52.475 E1.18971
G1 X109.022 Y52.616 E1.2336
G1 X109.36 Y52.673 E1.245
G1 X110.542 Y52.94 E1.2853
G1 X110.795 Y53.012 E1.29405
G1 X111.707 Y53.315 E1.32602
G1 X112.024 Y53.436 E1.3373
G1 X112.733 Y53.736 E1.36291
G1 X113.121 Y53.919 E1.37718
G1 X113.919 Y54.313 E1.40678
G1 X126.752 Y60.864 E1.886
G1 X127.183 Y61.091 E1.9022
G1 X127.508 Y61.27 E1.91454
G1 X128.366 Y61.76 E1.94741
G1 X130.628 Y63.007 E2.03332
G1 X132.87 Y64.162 E2.1172
G1 X135.161 Y65.261 E2.20171
G1 X137.436 Y66.274 E2.28454
G1 X139.779 Y67.24 E2.36883
G1 X142.154 Y68.142 E2.45333
G1 X144.49 Y68.95 E2.53554
G1 X146.888 Y69.709 E2.6192
G1 X149.318 Y70.4 E2.70323
G1 X151.793 Y71.032 E2.78819
G1 X154.249 Y71.582 E2.8719
G1 X156.172 Y71.962 E2.93709
G1 X157.084 Y72.183 E2.9683
G1 X157.973 Y72.48 E2.99948
G1 X159.169 Y73.022 E3.04315
G1 X159.372 Y73.129 E3.05078
G1 X160.182 Y73.601 E3.08197
G1 X160.95 Y74.141 E3.11319
G1 X161.668 Y74.744 E3.14438
G1 X162.332 Y75.406 E3.17556
G1 X162.938 Y76.122 E3.20676
G1 X163.48 Y76.887 E3.23794
G1 X163.955 Y77.696 E3.26915
G1 X164.36 Y78.542 E3.30034
G1 X164.612 Y79.188 E3.32341
G1 X164.72 Y79.493 E3.33417
G1 X164.995 Y80.39 E3.36537
G1 X165.193 Y81.307 E3.39657
G1 X165.305 Y82.158 E3.42512
G1 X165.338 Y82.517 E3.43711
G1 X165.383 Y83.361 E3.46523
G1 X165.395 Y84.266 E3.49533
G1 X165.394 Y87.492 E3.60263
G1 X165.372 Y88.953 E3.65122
G1 X165.335 Y90.19 E3.69239
G1 X165.329 Y92.698 E3.7758
G1 X165.372 Y94.286 E3.82864
G1 X165.395 Y95.967 E3.88455
G1 X165.392 Y136.343 E5.22747
G1 X165.382 Y137.056 E5.25118
G1 X165.336 Y137.923 E5.28006
G1 X165.314 Y138.159 E5.28794
G1 X165.187 Y139.088 E5.31913
G1 X164.981 Y140.003 E5.35032
G1 X164.592 Y141.178 E5.39149
G1 X164.47 Y141.487 E5.40254
G1 X164.089 Y142.343 E5.4337
G1 X163.636 Y143.165 E5.46492
G1 X163.115 Y143.944 E5.49609
G1 X162.529 Y144.677 E5.5273
G1 X161.883 Y145.357 E5.5585
G1 X161.182 Y145.979 E5.58967
G1 X160.43 Y146.54 E5.62087
G1 X159.804 Y146.936 E5.64551
G1 X159.671 Y147.014 E5.65064
G1 X158.842 Y147.453 E5.68184
G1 X157.979 Y147.821 E5.71304
G1 X157.088 Y148.113 E5.74423
G1 X156.607 Y148.237 E5.76075
G1 X155.785 Y148.429 E5.78883
G1 X153.34 Y149.039 E5.87264
G1 X150.886 Y149.727 E5.95741
G1 X148.485 Y150.473 E6.04103
G1 X146.101 Y151.289 E6.12484
G1 X143.734 Y152.174 E6.20889
G1 X141.43 Y153.111 E6.29161
G1 X139.108 Y154.133 E6.37599
G1 X136.854 Y155.202 E6.45897
G1 X134.594 Y156.353 E6.54332
G1 X132.353 Y157.575 E6.62822
G1 X130.221 Y158.818 E6.7103
G1 X128.077 Y160.15 E6.79425
G1 X125.968 Y161.545 E6.87835
G1 X123.94 Y162.969 E6.96077
G1 X121.655 Y164.683 E7.05578
G1 X121.293 Y164.943 E7.0706
G1 X121.126 Y165.058 E7.07735
G1 X119.996 Y165.739 E7.12123
G1 X119.792 Y165.846 E7.12889
G1 X118.944 Y166.246 E7.16007
G1 X118.398 Y166.459 E7.17957
G1 X118.267 Y166.506 E7.1842
G1 X116.962 Y166.885 E7.22939
G1 X116.677 Y166.949 E7.23911
G1 X115.754 Y167.115 E7.2703
G1 X114.993 Y167.192 E7.29574
G1 X114.721 Y167.21 E7.30481
G1 X113.784 Y167.232 E7.33598
G1 X113.071 Y167.195 E7.35973
G1 X112.727 Y167.166 E7.37121
G1 X112.027 Y167.084 E7.39465
G1 X111.622 Y167.02 E7.40829
G1 X111.199 Y166.946 E7.42257
G1 X97.888 Y164.465 E7.87292
G1 X97.184 Y164.324 E7.8968
G1 X96.729 Y164.223 E7.9123
G1 X96.316 Y164.117 E7.92648
G1 X96.114 Y164.061 E7.93346
G1 X94.885 Y163.641 E7.97665
G1 X94.609 Y163.528 E7.98657
G1 X93.729 Y163.121 E8.01882
G1 X93.638 Y163.074 E8.02223
G1 X93.04 Y162.742 E8.04498
G1 X92.836 Y162.62 E8.05288
G1 X91.826 Y161.937 E8.09343
G1 X91.626 Y161.785 E8.10179
G1 X90.904 Y161.186 E8.13299
G1 X90.549 Y160.85 E8.14925
G1 X90.286 Y160.59 E8.16155
G1 X89.814 Y160.093 E8.18435
G1 X89.219 Y159.425 E8.2141
G1 X75.84 Y144.004 E8.89313
G1 X75.382 Y143.461 E8.91676
G1 X74.727 Y142.603 E8.95266
G1 X74.586 Y142.398 E8.96094
G1 X74.088 Y141.603 E8.99214
G1 X73.853 Y141.168 E9.00858
G1 X73.712 Y140.892 E9.01889
G1 X73.322 Y140.04 E9.05006
G1 X73.065 Y139.343 E9.07476
G1 X72.977 Y139.077 E9.08408
G1 X72.72 Y138.175 E9.11528
G1 X72.61 Y137.657 E9.13289
G1 X72.578 Y137.487 E9.13864
G1 X72.469 Y136.788 E9.16217
G1 X72.342 Y135.75 E9.19696
G1 X72.32 Y135.554 E9.20352
G1 X72.103 Y133.472 E9.27314
G1 X72.025 Y132.606 E9.30206
G1 X71.981 Y131.627 E9.33465
G1 X71.981 Y131.386 E9.34267
G1 X72.034 Y130.308 E9.37857
G1 X72.067 Y129.973 E9.38976
G1 X72.132 Y129.444 E9.40749
G1 X72.276 Y128.47 E9.44024
G1 X72.613 Y125.946 E9.52493
G1 X72.877 Y123.421 E9.60937
G1 X73.069 Y120.907 E9.69323
G1 X73.188 Y118.423 E9.77594
G1 X73.237 Y115.898 E9.85994
G1 X73.214 Y113.339 E9.94506
G1 X73.122 Y110.855 E10.02773
G1 X72.959 Y108.369 E10.11059
G1 X72.719 Y105.817 E10.19585
G1 X72.414 Y103.333 E10.27909
G1 X72.042 Y100.87 E10.36193
G1 X71.588 Y98.359 E10.44681
G1 X71.078 Y95.922 E10.52962
G1 X70.492 Y93.476 E10.61327
G1 X69.824 Y91.002 E10.6985
G1 X69.202 Y88.913 E10.771
G1 X69.066 Y88.414 E10.7882
G1 X68.975 Y88.046 E10.80081
G1 X68.757 Y86.915 E10.83912
G1 X68.729 Y86.713 E10.8459
G1 X68.64 Y85.78 E10.87708
G1 X68.625 Y85.203 E10.89627
G1 X68.625 Y84.937 E10.90512
G1 X68.706 Y83.604 E10.94954
G1 X68.732 Y83.391 E10.95667
G1 X68.885 Y82.466 E10.98786
G1 X69.055 Y81.77 E11.01169
G1 X69.147 Y81.44 E11.02308
G1 X69.357 Y80.771 E11.0464
G1 X69.728 Y79.712 E11.08373
G1 X72.778 Y71.435 E11.37712
G1 X73.028 Y70.788 E11.40018
G1 X73.292 Y70.163 E11.42275
G1 X73.365 Y70.004 E11.42857
G1 X73.793 Y69.169 E11.45978
G1 X74.096 Y68.665 E11.47934
G1 X74.279 Y68.379 E11.49063
G1 X74.818 Y67.612 E11.52181
G1 X75.294 Y67.034 E11.54671
G1 X75.428 Y66.882 E11.55345
G0 F6000 X75.728 Y67.146
G1 F1200 X76.366 Y66.483 E11.58406
G1 X76.876 Y66.027 E11.60681
G1 X77.158 Y65.791 E11.61904
G1 X77.889 Y65.231 E11.64967
G1 X78.821 Y64.65 E11.6862
G1 X79.023 Y64.538 E11.69388
G1 X79.423 Y64.327 E11.70892
G1 X79.723 Y64.177 E11.72008
G1 X79.946 Y64.069 E11.72832
G1 X100.533 Y54.372 E12.4852
G1 X101.254 Y54.046 E12.51152
G1 X101.572 Y53.909 E12.52304
G1 X101.768 Y53.828 E12.53009
G1 X102.714 Y53.488 E12.56352
G1 X102.959 Y53.413 E12.57205
G1 X104.067 Y53.138 E12.61002
G1 X104.547 Y53.046 E12.62627
G1 X105.458 Y52.913 E12.65689
G1 X105.985 Y52.872 E12.67447
G1 X106.232 Y52.859 E12.6827
G1 X107.287 Y52.856 E12.71779
G1 X107.691 Y52.875 E12.73124
G1 X108.956 Y53.011 E12.77356
G1 X109.294 Y53.068 E12.78496
G1 X110.432 Y53.325 E12.82376
G1 X110.685 Y53.397 E12.83251
G1 X111.564 Y53.689 E12.86332
G1 X111.881 Y53.81 E12.8746
G1 X112.565 Y54.099 E12.8993
G1 X112.945 Y54.278 E12.91327
G1 X113.737 Y54.669 E12.94265
G1 X126.566 Y61.218 E13.42173
G1 X126.997 Y61.445 E13.43793
G1 X127.31 Y61.617 E13.44981
G1 X128.181 Y62.114 E13.48316
G1 X130.458 Y63.37 E13.56965
G1 X132.693 Y64.521 E13.65327
G1 X134.962 Y65.61 E13.73697
G1 X137.314 Y66.656 E13.82259
G1 X139.62 Y67.607 E13.90555
G1 X142.008 Y68.514 E13.99051
G1 X144.388 Y69.338 E14.07428
G1 X146.773 Y70.092 E14.15748
G1 X149.214 Y70.787 E14.24189
G1 X151.679 Y71.416 E14.32651
G1 X154.155 Y71.971 E14.4109
G1 X156.095 Y72.354 E14.47667
G1 X156.989 Y72.572 E14.50728
G1 X157.862 Y72.866 E14.53792
G1 X158.983 Y73.376 E14.57888
G1 X159.186 Y73.483 E14.58651
G1 X159.981 Y73.947 E14.61713
G1 X160.732 Y74.479 E14.64774
G1 X161.435 Y75.073 E14.67835
G1 X162.084 Y75.727 E14.70899
G1 X162.673 Y76.434 E14.7396
G1 X163.199 Y77.19 E14.77023
G1 X163.657 Y77.988 E14.80083
G1 X164.044 Y78.824 E14.83147
G1 X164.235 Y79.322 E14.84921
G1 X164.343 Y79.627 E14.85998
G1 X164.612 Y80.507 E14.89058
G1 X164.804 Y81.408 E14.92122
G1 X164.906 Y82.195 E14.94762
G1 X164.939 Y82.554 E14.95961
G1 X164.983 Y83.367 E14.98669
G1 X164.995 Y84.266 E15.01659
G1 X164.994 Y87.487 E15.12372
G1 X164.972 Y88.941 E15.17209
G1 X164.935 Y90.177 E15.21322
G1 X164.929 Y92.708 E15.2974
G1 X164.972 Y94.292 E15.3501
G1 X164.995 Y95.967 E15.40582
G1 X164.992 Y136.338 E16.74856
G1 X164.982 Y137.051 E16.77228
G1 X164.937 Y137.886 E16.80009
G1 X164.915 Y138.122 E16.80797
G1 X164.79 Y139.034 E16.83859
G1 X164.586 Y139.932 E16.86922
G1 X164.22 Y141.031 E16.90775
G1 X164.098 Y141.34 E16.9188
G1 X163.723 Y142.181 E16.94942
G1 X163.277 Y142.986 E16.98003
G1 X162.762 Y143.749 E17.01065
G1 X162.183 Y144.465 E17.04127
G1 X161.544 Y145.128 E17.0719
G1 X160.85 Y145.733 E17.10252
G1 X160.106 Y146.275 E17.13314
G1 X159.601 Y146.591 E17.15295
G1 X159.468 Y146.669 E17.15808
G1 X158.655 Y147.099 E17.18867
G1 X157.807 Y147.458 E17.2193
G1 X156.517 Y147.847 E17.26411
G1 X155.711 Y148.035 E17.29164
G1 X153.24 Y148.652 E17.37635
G1 X150.764 Y149.346 E17.46187
G1 X148.353 Y150.096 E17.54586
G1 X145.969 Y150.911 E17.62965
G1 X143.622 Y151.789 E17.713
G1 X141.255 Y152.752 E17.79799
G1 X138.955 Y153.764 E17.88157
G1 X136.638 Y154.863 E17.96686
G1 X134.427 Y155.988 E18.04937
G1 X132.181 Y157.213 E18.13446
G1 X129.989 Y158.491 E18.21885
G1 X127.876 Y159.804 E18.3016
G1 X125.739 Y161.217 E18.3868
G1 X123.7 Y162.649 E18.46968
G1 X121.415 Y164.363 E18.56468
G1 X121.066 Y164.613 E18.57896
G1 X120.899 Y164.728 E18.5857
G1 X119.811 Y165.385 E18.62798
G1 X119.607 Y165.492 E18.63564
G1 X118.774 Y165.884 E18.66626
G1 X118.263 Y166.082 E18.68449
G1 X118.132 Y166.129 E18.68911
G1 X116.875 Y166.494 E18.73265
G1 X116.59 Y166.558 E18.74236
G1 X115.683 Y166.721 E18.77301
G1 X114.967 Y166.793 E18.79695
G1 X114.695 Y166.811 E18.80602
G1 X113.775 Y166.832 E18.83662
G1 X113.105 Y166.797 E18.85894
G1 X112.761 Y166.768 E18.87042
G1 X112.086 Y166.689 E18.89302
G1 X111.691 Y166.626 E18.90633
G1 X111.272 Y166.553 E18.92047
G1 X97.966 Y164.073 E19.37065
G1 X97.262 Y163.932 E19.39453
G1 X96.821 Y163.834 E19.40956
G1 X96.423 Y163.732 E19.42322
G1 X96.221 Y163.676 E19.4302
G1 X95.037 Y163.271 E19.47182
G1 X94.761 Y163.158 E19.48174
G1 X93.913 Y162.766 E19.51281
G1 X93.822 Y162.719 E19.51621
G1 X93.245 Y162.398 E19.53818
G1 X93.041 Y162.276 E19.54608
G1 X92.068 Y161.618 E19.58515
G1 X91.868 Y161.466 E19.5935
G1 X90.83 Y160.565 E19.63922
G1 X90.567 Y160.305 E19.65152
G1 X90.112 Y159.827 E19.67347
G1 X89.521 Y159.163 E19.70304
G1 X76.145 Y143.746 E20.3819
G1 X75.687 Y143.203 E20.40553
G1 X75.056 Y142.376 E20.44013
G1 X74.915 Y142.171 E20.4484
G1 X74.209 Y140.986 E20.49428
G1 X74.068 Y140.71 E20.50459
G1 X73.686 Y139.873 E20.53519
G1 X73.444 Y139.217 E20.55845
G1 X73.356 Y138.951 E20.56776
G1 X73.105 Y138.066 E20.59836
G1 X73.003 Y137.583 E20.61478
G1 X72.971 Y137.413 E20.62053
G1 X72.866 Y136.739 E20.64322
G1 X72.739 Y135.701 E20.678
G1 X72.501 Y133.431 E20.75392
G1 X72.423 Y132.57 E20.78267
G1 X72.381 Y131.627 E20.81407
G1 X72.381 Y131.386 E20.82208
G1 X72.432 Y130.347 E20.85668
G1 X72.465 Y130.012 E20.86788
G1 X72.528 Y129.503 E20.88494
G1 X72.664 Y128.585 E20.9158
G1 X73.012 Y125.973 E21.00344
G1 X73.276 Y123.456 E21.08762
G1 X73.467 Y120.956 E21.17101
G1 X73.588 Y118.414 E21.25566
G1 X73.637 Y115.903 E21.33919
G1 X73.614 Y113.356 E21.4239
G1 X73.52 Y110.812 E21.50858
G1 X73.356 Y108.309 E21.592
G1 X73.12 Y105.799 E21.67586
G1 X72.813 Y103.296 E21.75973
G1 X72.432 Y100.776 E21.8445
G1 X71.98 Y98.277 E21.92896
G1 X71.473 Y95.852 E22.01136
G1 X70.881 Y93.384 E22.09578
G1 X70.21 Y90.898 E22.18142
G1 X69.585 Y88.799 E22.25426
G1 X69.454 Y88.318 E22.27084
G1 X69.363 Y87.95 E22.28345
G1 X69.153 Y86.86 E22.32037
G1 X69.125 Y86.658 E22.32716
G1 X69.039 Y85.742 E22.35776
G1 X69.025 Y85.203 E22.37569
G1 X69.025 Y84.937 E22.38454
G1 X69.103 Y83.653 E22.42732
G1 X69.129 Y83.44 E22.43446
G1 X69.28 Y82.531 E22.46511
G1 X69.44 Y81.877 E22.4875
G1 X69.532 Y81.547 E22.49889
G1 X69.735 Y80.902 E22.52138
G1 X70.103 Y79.85 E22.55845
G1 X73.151 Y71.579 E22.85163
G1 X73.401 Y70.932 E22.8747
G1 X73.656 Y70.33 E22.89645
G1 X73.729 Y70.171 E22.90227
G1 X74.149 Y69.352 E22.93288
G1 X74.433 Y68.881 E22.95117
G1 X74.616 Y68.595 E22.96247
G1 X75.146 Y67.842 E22.99309
G1 X75.594 Y67.298 E23.01653
G1 X75.728 Y67.146 E23.02327
G0 F6000 X76.028 Y67.411
G1 F1200 X76.654 Y66.76 E23.05331
G1 X77.133 Y66.334 E23.07463
G1 X77.415 Y66.098 E23.08686
G1 X78.132 Y65.549 E23.1169
G1 X79.015 Y64.999 E23.1515
G1 X79.217 Y64.887 E23.15918
G1 X79.601 Y64.685 E23.17361
G1 X79.901 Y64.535 E23.18477
G1 X80.116 Y64.431 E23.19271
G1 X100.698 Y54.737 E23.9494
G1 X101.419 Y54.411 E23.97572
G1 X101.725 Y54.278 E23.98681
G1 X101.921 Y54.197 E23.99387
G1 X102.831 Y53.871 E24.02602
G1 X103.076 Y53.796 E24.03454
G1 X104.142 Y53.531 E24.07107
G1 X104.622 Y53.439 E24.08733
G1 X105.516 Y53.309 E24.11738
G1 X106.006 Y53.271 E24.13372
G1 X106.253 Y53.258 E24.14195
G1 X107.268 Y53.255 E24.17571
G1 X107.672 Y53.274 E24.18916
G1 X108.889 Y53.405 E24.22987
G1 X109.227 Y53.462 E24.24127
G1 X110.323 Y53.71 E24.27865
G1 X110.576 Y53.782 E24.2874
G1 X111.421 Y54.063 E24.31702
G1 X111.738 Y54.184 E24.3283
G1 X112.396 Y54.462 E24.35206
G1 X112.768 Y54.637 E24.36573
G1 X113.555 Y55.025 E24.39492
G1 X126.379 Y61.572 E24.87381
G1 X126.81 Y61.799 E24.89002
G1 X127.111 Y61.964 E24.90143
G1 X127.966 Y62.452 E24.93418
G1 X130.261 Y63.718 E25.02135
G1 X132.516 Y64.879 E25.10571
G1 X134.834 Y65.991 E25.19122
G1 X137.104 Y67.001 E25.27386
G1 X139.505 Y67.992 E25.36025
G1 X141.871 Y68.891 E25.44443
G1 X144.252 Y69.714 E25.52822
G1 X146.639 Y70.469 E25.61149
G1 X149.121 Y71.176 E25.69733
G1 X151.622 Y71.814 E25.78317
G1 X154.038 Y72.355 E25.86552
G1 X156.017 Y72.746 E25.93261
G1 X156.895 Y72.961 E25.96268
G1 X157.75 Y73.251 E25.99271
G1 X158.796 Y73.73 E26.03097
G1 X158.999 Y73.837 E26.0386
G1 X159.779 Y74.293 E26.06866
G1 X160.515 Y74.816 E26.09869
G1 X161.202 Y75.402 E26.12872
G1 X161.834 Y76.047 E26.15875
G1 X162.407 Y76.745 E26.18879
G1 X162.916 Y77.491 E26.21883
G1 X163.357 Y78.279 E26.24886
G1 X163.858 Y79.455 E26.29138
G1 X163.966 Y79.76 E26.30214
G1 X164.229 Y80.624 E26.33218
G1 X164.415 Y81.508 E26.36222
G1 X164.508 Y82.231 E26.38647
G1 X164.541 Y82.59 E26.39846
G1 X164.583 Y83.373 E26.42454
G1 X164.595 Y84.266 E26.45424
G1 X164.594 Y87.481 E26.56117
G1 X164.576 Y88.764 E26.60385
G1 X164.535 Y90.164 E26.65044
G1 X164.529 Y92.718 E26.73538
G1 X164.572 Y94.297 E26.78792
G1 X164.595 Y95.967 E26.84347
G1 X164.592 Y136.332 E28.18601
G1 X164.582 Y137.045 E28.20973
G1 X164.539 Y137.849 E28.23651
G1 X164.517 Y138.085 E28.24439
G1 X164.393 Y138.979 E28.27441
G1 X164.191 Y139.86 E28.30448
G1 X163.848 Y140.884 E28.34039
G1 X163.726 Y141.193 E28.35144
G1 X163.358 Y142.017 E28.38146
G1 X162.918 Y142.806 E28.41151
G1 X162.41 Y143.553 E28.44155
G1 X161.838 Y144.251 E28.47157
G1 X161.206 Y144.897 E28.50162
G1 X160.52 Y145.484 E28.53165
G1 X159.784 Y146.008 E28.5617
G1 X159.399 Y146.246 E28.57676
G1 X159.266 Y146.324 E28.58189
G1 X158.468 Y146.745 E28.6119
G1 X157.635 Y147.095 E28.64195
G1 X156.426 Y147.458 E28.68393
G1 X155.589 Y147.654 E28.71252
G1 X153.108 Y148.273 E28.79757
G1 X150.675 Y148.955 E28.88161
