;FLAVOR:Marlin
;TIME:5725
;Filament used: 4.52001m
;Layer height: 0.3
;MINX:27.068
;MINY:22.166
;MINZ:0.2
;MAXX:158.788
;MAXY:148.157
;MAXZ:13.4
;Generated with Cura_SteamEngine master
M140 S60
M105
M190 S60
M104 S200
M105
M109 S200
M82 ;absolute extrusion mode
; Ender 3 Custom Start G-code
G92 E0 ; Reset Extruder
G28 ; Home all axes
G1 Z2.0 F3000 ; Move Z Axis up little to prevent scratching of Heat Bed
G1 X0.1 Y20 Z0.3 F5000.0 ; Move to start position
G1 X0.1 Y200.0 Z0.3 F1500.0 E15 ; Draw the first line
G1 X0.4 Y200.0 Z0.3 F5000.0 ; Move to side a little
G1 X0.4 Y20 Z0.3 F1500.0 E30 ; Draw the second line
G92 E0 ; Reset Extruder
G1 Z2.0 F3000 ; Move Z Axis up little to prevent scratching of Heat Bed
G1 X5 Y20 Z0.3 F5000.0 ; Move over to prevent blob squish
G92 E0
G92 E0
G1 F1500 E-6.5
;LAYER_COUNT:45
;LAYER:0
M107
G0 F6000 X44.609 Y81.4 Z0.2
;TYPE:SKIRT
G1 F1500 E0
G1 F1200 X44.874 Y81.258 E0.01
G1 X45.561 Y80.901 E0.03575
G1 X45.867 Y80.748 E0.04713
G1 X46.36 Y80.511 E0.06532
G1 X46.707 Y80.352 E0.07802
G1 X47.282 Y80.1 E0.0989
G1 X49.659 Y79.018 E0.18576
G1 X51.906 Y77.916 E0.269
G1 X54.141 Y76.741 E0.35299
G1 X56.338 Y75.506 E0.43681
G1 X58.468 Y74.227 E0.51945
G1 X60.626 Y72.848 E0.60463
G1 X62.696 Y71.44 E0.68789
G1 X64.745 Y69.961 E0.77194
G1 X66.721 Y68.447 E0.85474
G1 X68.686 Y66.852 E0.93891
G1 X70.602 Y65.204 E1.02297
G1 X72.449 Y63.523 E1.10603
G1 X74.285 Y61.753 E1.19086
G1 X76.02 Y59.984 E1.27327
G1 X77.755 Y58.113 E1.35814
G1 X79.403 Y56.229 E1.44139
G1 X81.011 Y54.285 E1.5253
G1 X82.55 Y52.312 E1.60852
G1 X84.046 Y50.279 E1.69248
G1 X85.486 Y48.2 E1.77659
G1 X86.849 Y46.11 E1.85958
G1 X88.155 Y43.974 E1.94285
G1 X89.799 Y41.089 E2.05329
G1 X89.879 Y40.943 E2.05883
G1 X90.035 Y40.667 E2.06938
G1 X90.521 Y39.838 E2.10134
G1 X90.703 Y39.539 E2.11298
G1 X91.062 Y38.969 E2.13538
G1 X91.24 Y38.696 E2.14622
G1 X91.703 Y38.007 E2.17383
G1 X91.887 Y37.741 E2.18459
G1 X92.292 Y37.175 E2.20774
G1 X92.503 Y36.891 E2.21951
G1 X93.064 Y36.158 E2.25021
G1 X93.257 Y35.912 E2.26061
G1 X93.64 Y35.44 E2.28082
G1 X93.873 Y35.162 E2.29289
G1 X94.489 Y34.452 E2.32415
G1 X94.697 Y34.22 E2.33452
G1 X95.137 Y33.741 E2.35615
G1 X95.381 Y33.483 E2.36796
G1 X96.016 Y32.835 E2.39814
G1 X96.251 Y32.603 E2.40912
G1 X96.713 Y32.159 E2.43043
G1 X96.952 Y31.936 E2.4413
G1 X97.64 Y31.313 E2.47217
G1 X97.89 Y31.093 E2.48325
G1 X98.349 Y30.702 E2.5033
G1 X98.615 Y30.483 E2.51476
G1 X99.357 Y29.89 E2.54636
G1 X99.618 Y29.687 E2.55735
G1 X100.128 Y29.304 E2.57857
G1 X100.412 Y29.098 E2.59024
G1 X101.235 Y28.52 E2.62369
G1 X101.489 Y28.347 E2.63391
G1 X101.923 Y28.06 E2.65121
G1 X102.229 Y27.865 E2.66328
G1 X103.047 Y27.362 E2.69522
G1 X103.328 Y27.194 E2.70611
G1 X103.864 Y26.886 E2.72667
G1 X104.152 Y26.727 E2.73761
G1 X104.996 Y26.275 E2.76946
G1 X105.284 Y26.126 E2.78024
G1 X105.838 Y25.85 E2.80083
G1 X106.17 Y25.692 E2.81306
G1 X107.032 Y25.298 E2.84458
G1 X107.328 Y25.168 E2.85533
G1 X107.873 Y24.938 E2.87501
G1 X108.171 Y24.817 E2.8857
G1 X109.068 Y24.469 E2.9177
G1 X109.387 Y24.351 E2.92902
G1 X109.934 Y24.158 E2.94831
G1 X110.248 Y24.052 E2.95933
G1 X111.172 Y23.757 E2.99159
G1 X111.492 Y23.661 E3.0027
G1 X112.107 Y23.485 E3.02398
G1 X112.441 Y23.394 E3.03549
G1 X113.376 Y23.158 E3.06757
G1 X113.686 Y23.085 E3.07816
G1 X114.227 Y22.965 E3.09659
G1 X114.579 Y22.893 E3.10854
G1 X115.543 Y22.712 E3.14117
G1 X115.854 Y22.658 E3.15166
G1 X116.448 Y22.564 E3.17167
G1 X116.783 Y22.516 E3.18292
G1 X117.658 Y22.405 E3.21226
G1 X117.965 Y22.371 E3.22253
G1 X118.585 Y22.31 E3.24325
G1 X118.947 Y22.28 E3.25533
G1 X119.945 Y22.215 E3.2886
G1 X120.269 Y22.199 E3.29939
G1 X120.888 Y22.177 E3.31999
G1 X121.23 Y22.17 E3.33137
G1 X122.132 Y22.166 E3.36137
G1 X122.475 Y22.17 E3.37278
G1 X123.111 Y22.187 E3.39394
G1 X123.435 Y22.2 E3.40472
G1 X124.394 Y22.254 E3.43667
G1 X124.731 Y22.279 E3.44791
G1 X125.339 Y22.332 E3.46821
G1 X125.682 Y22.367 E3.47967
G1 X126.599 Y22.476 E3.51039
G1 X126.919 Y22.519 E3.52113
G1 X127.558 Y22.614 E3.54261
G1 X127.898 Y22.67 E3.55407
G1 X128.81 Y22.835 E3.5849
G1 X129.13 Y22.897 E3.59574
G1 X130.774 Y23.245 E3.65163
G1 X131.228 Y23.348 E3.66712
G1 X133.697 Y23.842 E3.75086
G1 X136.172 Y24.264 E3.83437
G1 X138.662 Y24.617 E3.91802
G1 X141.198 Y24.903 E4.0029
G1 X143.376 Y25.091 E4.07561
G1 X144.402 Y25.167 E4.10983
G1 X145.621 Y25.326 E4.15071
G1 X145.754 Y25.351 E4.15522
G1 X146.309 Y25.47 E4.17409
G1 X146.557 Y25.53 E4.18258
G1 X147.775 Y25.901 E4.22493
G1 X148.369 Y26.12 E4.24599
G1 X149.235 Y26.482 E4.2772
G1 X149.756 Y26.744 E4.2966
G1 X149.883 Y26.812 E4.30139
G1 X150.446 Y27.134 E4.32296
G1 X150.749 Y27.32 E4.33479
G1 X151.65 Y27.937 E4.37111
G1 X151.775 Y28.032 E4.37633
G1 X152.296 Y28.454 E4.39863
G1 X152.483 Y28.615 E4.40684
G1 X153.344 Y29.442 E4.44655
G1 X153.784 Y29.913 E4.46798
G1 X154.395 Y30.625 E4.49919
G1 X154.83 Y31.218 E4.52365
G1 X154.914 Y31.341 E4.5286
G1 X155.186 Y31.761 E4.54525
G1 X155.369 Y32.057 E4.55682
G1 X155.981 Y33.189 E4.59962
G1 X156.051 Y33.339 E4.60513
G1 X156.231 Y33.746 E4.61993
G1 X156.359 Y34.052 E4.63096
G1 X156.736 Y35.1 E4.668
G1 X156.784 Y35.258 E4.6735
G1 X156.953 Y35.877 E4.69484
G1 X157.014 Y36.13 E4.70349
G1 X157.244 Y37.416 E4.74695
G1 X157.317 Y38.033 E4.76761
G1 X157.393 Y39.377 E4.81238
G1 X157.391 Y39.716 E4.82366
G1 X157.353 Y42.017 E4.9002
G1 X157.382 Y44.507 E4.98302
G1 X157.483 Y47.027 E5.06691
G1 X157.651 Y49.484 E5.14882
G1 X158.009 Y53.005 E5.26653
G1 X158.216 Y54.722 E5.32405
G1 X158.247 Y55.011 E5.33372
G1 X158.313 Y55.715 E5.35724
G1 X158.34 Y56.062 E5.36881
G1 X158.392 Y56.902 E5.3968
G1 X158.407 Y57.221 E5.40743
G1 X158.43 Y57.921 E5.43072
G1 X158.436 Y58.239 E5.4413
G1 X158.438 Y59.168 E5.4722
G1 X158.431 Y59.748 E5.49149
G1 X158.438 Y62.394 E5.5795
G1 X158.499 Y64.571 E5.65193
G1 X158.514 Y64.942 E5.66428
G1 X158.553 Y66.12 E5.70348
G1 X158.589 Y67.357 E5.74464
G1 X158.622 Y68.656 E5.78786
G1 X158.652 Y70.026 E5.83344
G1 X158.679 Y71.478 E5.88174
G1 X158.713 Y73.81 E5.95931
G1 X158.742 Y76.365 E6.0443
G1 X158.765 Y79.192 E6.13833
G1 X158.782 Y82.328 E6.24263
G1 X158.788 Y83.872 E6.29399
G1 X158.778 Y84.893 E6.32795
G1 X158.772 Y85.178 E6.33743
G1 X158.748 Y85.801 E6.35817
G1 X158.667 Y87.472 E6.41381
G1 X158.624 Y88.165 E6.4369
G1 X158.526 Y89.098 E6.4681
G1 X158.349 Y90.019 E6.4993
G1 X158.094 Y90.922 E6.53051
G1 X157.763 Y91.799 E6.56168
G1 X157.359 Y92.645 E6.59287
G1 X157.071 Y93.154 E6.61232
G1 X156.419 Y94.235 E6.65431
G1 X156.176 Y94.624 E6.66956
G1 X154.908 Y96.794 E6.75315
G1 X153.701 Y98.998 E6.83673
G1 X152.541 Y101.267 E6.92149
G1 X151.476 Y103.505 E7.00392
G1 X150.451 Y105.826 E7.08831
G1 X149.484 Y108.187 E7.17317
G1 X148.618 Y110.5 E7.25532
G1 X147.794 Y112.896 E7.33959
G1 X147.041 Y115.309 E7.42366
G1 X146.374 Y117.675 E7.50542
G1 X145.898 Y119.599 E7.57135
G1 X145.825 Y119.848 E7.57998
G1 X145.644 Y120.575 E7.60489
G1 X145.486 Y121.174 E7.6255
G1 X145.4 Y121.481 E7.6361
G1 X145.13 Y122.396 E7.66783
G1 X145.03 Y122.717 E7.67902
G1 X144.844 Y123.283 E7.69883
G1 X144.732 Y123.607 E7.71023
G1 X144.407 Y124.501 E7.74187
G1 X144.291 Y124.807 E7.75276
G1 X144.064 Y125.378 E7.77319
G1 X143.926 Y125.708 E7.78509
G1 X143.543 Y126.587 E7.81698
G1 X143.423 Y126.854 E7.82672
G1 X143.176 Y127.382 E7.8461
G1 X143.015 Y127.712 E7.85832
G1 X142.568 Y128.59 E7.89109
G1 X142.423 Y128.865 E7.90143
G1 X142.158 Y129.351 E7.91984
G1 X141.983 Y129.659 E7.93162
G1 X141.491 Y130.496 E7.96391
G1 X141.327 Y130.767 E7.97445
G1 X140.977 Y131.325 E7.99636
G1 X140.788 Y131.615 E8.00787
G1 X140.317 Y132.316 E8.03596
G1 X140.126 Y132.591 E8.04709
G1 X139.723 Y133.153 E8.0701
G1 X139.523 Y133.424 E8.0813
G1 X138.971 Y134.146 E8.11153
G1 X138.774 Y134.396 E8.12211
G1 X138.378 Y134.884 E8.14301
G1 X138.145 Y135.161 E8.15505
G1 X137.53 Y135.87 E8.18627
G1 X137.32 Y136.105 E8.19675
G1 X136.889 Y136.574 E8.21794
G1 X136.657 Y136.819 E8.22916
G1 X136.013 Y137.478 E8.25981
G1 X135.767 Y137.722 E8.27133
G1 X135.309 Y138.162 E8.29246
G1 X135.074 Y138.382 E8.30316
G1 X134.382 Y139.009 E8.33422
G1 X134.131 Y139.229 E8.34532
G1 X133.671 Y139.621 E8.36542
G1 X133.408 Y139.839 E8.37678
G1 X132.668 Y140.431 E8.4083
G1 X132.393 Y140.643 E8.41985
G1 X131.882 Y141.026 E8.44109
G1 X131.622 Y141.215 E8.45178
G1 X130.87 Y141.745 E8.48238
G1 X130.605 Y141.926 E8.49306
G1 X130.099 Y142.261 E8.51324
G1 X129.794 Y142.456 E8.52528
G1 X128.977 Y142.959 E8.55719
G1 X128.691 Y143.13 E8.56827
G1 X128.155 Y143.438 E8.58884
G1 X127.867 Y143.597 E8.59978
G1 X127.023 Y144.049 E8.63162
G1 X126.735 Y144.198 E8.64241
G1 X126.181 Y144.474 E8.66299
G1 X125.849 Y144.632 E8.67522
G1 X124.987 Y145.026 E8.70674
G1 X124.7 Y145.153 E8.71718
G1 X124.154 Y145.384 E8.7369
G1 X123.851 Y145.507 E8.74778
G1 X122.986 Y145.843 E8.77864
G1 X122.664 Y145.962 E8.79006
G1 X122.086 Y146.166 E8.81045
G1 X121.778 Y146.27 E8.82126
G1 X120.853 Y146.566 E8.85356
G1 X120.512 Y146.668 E8.8654
G1 X119.922 Y146.836 E8.8858
G1 X119.608 Y146.921 E8.89662
G1 X118.691 Y147.153 E8.92808
G1 X118.364 Y147.23 E8.93926
G1 X117.766 Y147.362 E8.95963
G1 X117.444 Y147.429 E8.97056
G1 X116.505 Y147.607 E9.00235
G1 X116.186 Y147.662 E9.01312
G1 X115.602 Y147.755 E9.03279
G1 X115.243 Y147.806 E9.04485
G1 X114.248 Y147.931 E9.0782
G1 X113.93 Y147.966 E9.08884
G1 X113.41 Y148.016 E9.10622
G1 X113.072 Y148.044 E9.1175
G1 X112.074 Y148.109 E9.15076
G1 X111.752 Y148.125 E9.16148
G1 X111.136 Y148.147 E9.18199
G1 X110.778 Y148.154 E9.1939
G1 X109.825 Y148.157 E9.22559
G1 X109.481 Y148.153 E9.23703
G1 X108.876 Y148.136 E9.25716
G1 X108.563 Y148.122 E9.26759
G1 X107.61 Y148.068 E9.29933
G1 X107.278 Y148.045 E9.3104
G1 X106.715 Y147.996 E9.3292
G1 X106.376 Y147.961 E9.34053
G1 X105.413 Y147.847 E9.37279
G1 X105.09 Y147.804 E9.38362
G1 X104.464 Y147.711 E9.40467
G1 X104.124 Y147.655 E9.41613
G1 X103.211 Y147.49 E9.44699
G1 X102.888 Y147.426 E9.45795
G1 X100.951 Y147.015 E9.5238
G1 X100.67 Y146.951 E9.53339
G1 X98.248 Y146.469 E9.61553
G1 X95.75 Y146.046 E9.69979
G1 X93.248 Y145.694 E9.78383
G1 X90.719 Y145.412 E9.86846
G1 X88.787 Y145.245 E9.93296
G1 X87.622 Y145.157 E9.97182
G1 X87.009 Y145.093 E9.99232
G1 X85.885 Y144.943 E10.03004
G1 X85.264 Y144.852 E10.05091
G1 X82.746 Y144.554 E10.13524
G1 X80.221 Y144.327 E10.21957
G1 X77.74 Y144.175 E10.30224
G1 X75.216 Y144.092 E10.38623
G1 X72.691 Y144.08 E10.47022
G1 X70.17 Y144.14 E10.55409
G1 X67.703 Y144.268 E10.63625
G1 X64.896 Y144.511 E10.72996
G1 X64.669 Y144.521 E10.73752
G1 X63.632 Y144.617 E10.77216
G1 X63.305 Y144.643 E10.78307
G1 X62.506 Y144.693 E10.80969
G1 X62.175 Y144.708 E10.82071
G1 X61.342 Y144.735 E10.84843
G1 X60.908 Y144.741 E10.86287
G1 X60.483 Y144.738 E10.87701
G1 X60.261 Y144.734 E10.88439
G1 X59.345 Y144.709 E10.91487
G1 X58.864 Y144.685 E10.93089
G1 X58.143 Y144.632 E10.95493
G1 X57.507 Y144.575 E10.97617
G1 X57.185 Y144.541 E10.98694
G1 X56.456 Y144.454 E11.01136
G1 X56.152 Y144.414 E11.02156
G1 X55.597 Y144.332 E11.04022
G1 X55.281 Y144.281 E11.05086
G1 X54.504 Y144.143 E11.07711
G1 X54.167 Y144.077 E11.08853
G1 X53.61 Y143.96 E11.10746
G1 X53.294 Y143.889 E11.11823
G1 X52.522 Y143.703 E11.14465
G1 X52.197 Y143.619 E11.15581
G1 X51.378 Y143.395 E11.18405
G1 X50.965 Y143.274 E11.19837
G1 X50.753 Y143.207 E11.20576
G1 X50.484 Y143.118 E11.21518
G1 X49.181 Y142.669 E11.26102
G1 X48.537 Y142.424 E11.28394
G1 X47.228 Y141.879 E11.3311
G1 X46.647 Y141.617 E11.3523
G1 X45.386 Y141.004 E11.39893
G1 X44.838 Y140.718 E11.41949
G1 X43.988 Y140.244 E11.45186
G1 X43.692 Y140.073 E11.46323
G1 X43.243 Y139.804 E11.48064
G1 X42.983 Y139.643 E11.49081
G1 X42.343 Y139.235 E11.51606
G1 X42.048 Y139.041 E11.5278
G1 X41.476 Y138.65 E11.55084
G1 X41.233 Y138.479 E11.56073
G1 X40.762 Y138.138 E11.58007
G1 X40.49 Y137.935 E11.59136
G1 X40.038 Y137.586 E11.61035
G1 X39.766 Y137.369 E11.62192
G1 X38.914 Y136.667 E11.65864
G1 X38.644 Y136.437 E11.67044
G1 X38.37 Y136.196 E11.68257
G1 X38.177 Y136.022 E11.69122
G1 X37.688 Y135.571 E11.71334
G1 X37.43 Y135.325 E11.7252
G1 X36.861 Y134.765 E11.75175
G1 X36.648 Y134.549 E11.76184
G1 X36.298 Y134.185 E11.77864
G1 X36.065 Y133.935 E11.79
G1 X35.494 Y133.303 E11.81833
G1 X35.295 Y133.077 E11.82835
G1 X35.03 Y132.767 E11.84191
G1 X34.811 Y132.502 E11.85335
G1 X34.097 Y131.612 E11.8913
G1 X33.799 Y131.223 E11.90759
G1 X33.355 Y130.616 E11.93261
G1 X33.176 Y130.364 E11.94289
G1 X32.884 Y129.939 E11.96004
G1 X32.757 Y129.749 E11.96764
G1 X32.574 Y129.465 E11.97888
G1 X31.851 Y128.308 E12.02426
G1 X31.523 Y127.747 E12.04587
G1 X30.847 Y126.508 E12.09281
G1 X30.657 Y126.146 E12.10641
G1 X30.546 Y125.924 E12.11467
G1 X30.291 Y125.398 E12.13411
G1 X30.133 Y125.058 E12.14658
G1 X29.937 Y124.613 E12.16275
G1 X29.681 Y124.017 E12.18433
G1 X29.55 Y123.7 E12.19573
G1 X29.267 Y122.98 E12.22146
G1 X29.099 Y122.533 E12.23735
G1 X29.005 Y122.273 E12.24654
G1 X28.792 Y121.656 E12.26825
G1 X28.69 Y121.344 E12.27917
G1 X28.529 Y120.826 E12.29721
G1 X28.409 Y120.405 E12.31177
G1 X28.032 Y118.987 E12.36057
G1 X27.937 Y118.6 E12.37383
G1 X27.864 Y118.279 E12.38478
G1 X27.801 Y117.983 E12.39484
G1 X27.632 Y117.132 E12.4237
G1 X27.57 Y116.791 E12.43523
G1 X27.478 Y116.237 E12.45391
G1 X27.428 Y115.911 E12.46487
G1 X27.327 Y115.165 E12.48991
G1 X27.289 Y114.848 E12.50053
G1 X27.227 Y114.263 E12.5201
G1 X27.198 Y113.94 E12.53088
G1 X27.138 Y113.153 E12.55714
G1 X27.118 Y112.82 E12.56823
G1 X27.092 Y112.252 E12.58714
G1 X27.082 Y111.932 E12.59779
G1 X27.069 Y111.151 E12.62377
G1 X27.068 Y110.814 E12.63498
G1 X27.076 Y110.243 E12.65397
G1 X27.086 Y109.914 E12.66492
G1 X27.12 Y109.14 E12.69069
G1 X27.138 Y108.824 E12.70122
G1 X27.178 Y108.275 E12.71952
G1 X27.207 Y107.947 E12.73048
G1 X27.294 Y107.102 E12.75873
G1 X27.333 Y106.774 E12.76972
G1 X27.4 Y106.272 E12.78656
G1 X27.45 Y105.935 E12.79789
G1 X27.593 Y105.069 E12.82709
G1 X27.65 Y104.753 E12.83777
G1 X27.741 Y104.287 E12.85356
G1 X27.809 Y103.965 E12.8645
G1 X27.995 Y103.144 E12.8925
G1 X28.082 Y102.787 E12.90472
G1 X28.242 Y102.176 E12.92573
G1 X28.321 Y101.89 E12.9356
G1 X28.513 Y101.23 E12.95846
G1 X28.602 Y100.939 E12.96858
G1 X28.778 Y100.391 E12.98773
G1 X28.888 Y100.066 E12.99914
G1 X29.16 Y99.302 E13.02611
G1 X29.273 Y98.998 E13.0369
G1 X29.474 Y98.482 E13.05532
G1 X29.606 Y98.16 E13.06689
G1 X29.925 Y97.412 E13.09394
G1 X30.041 Y97.149 E13.1035
G1 X30.268 Y96.653 E13.12164
G1 X30.423 Y96.328 E13.13362
G1 X30.774 Y95.623 E13.15981
G1 X30.922 Y95.336 E13.17055
G1 X31.181 Y94.852 E13.18881
G1 X31.343 Y94.561 E13.19989
G1 X31.751 Y93.851 E13.22712
G1 X31.909 Y93.584 E13.23744
G1 X32.346 Y92.871 E13.26525
G1 X32.556 Y92.542 E13.27824
G1 X32.668 Y92.373 E13.28498
G1 X32.828 Y92.138 E13.29444
G1 X33.378 Y91.353 E13.32632
G1 X33.572 Y91.085 E13.33732
G1 X33.996 Y90.517 E13.36089
G1 X34.2 Y90.252 E13.37202
G1 X34.576 Y89.779 E13.39211
G1 X34.773 Y89.539 E13.40244
G1 X35.253 Y88.969 E13.42723
G1 X35.476 Y88.712 E13.43854
G1 X36.047 Y88.075 E13.467
G1 X36.316 Y87.785 E13.48015
G1 X36.579 Y87.512 E13.49276
G1 X36.768 Y87.321 E13.5017
G1 X37.465 Y86.632 E13.53429
G1 X37.731 Y86.378 E13.54653
G1 X37.837 Y86.28 E13.55133
G1 X38.101 Y86.043 E13.56313
G1 X39.254 Y85.044 E13.61387
G1 X39.77 Y84.624 E13.636
G1 X40.875 Y83.778 E13.68229
G1 X41.247 Y83.505 E13.69763
G1 X42.076 Y82.937 E13.73106
G1 X42.338 Y82.763 E13.74152
G1 X42.826 Y82.45 E13.7608
G1 X43.142 Y82.255 E13.77315
G1 X44.013 Y81.737 E13.80686
G1 X44.299 Y81.572 E13.81784
G1 X44.609 Y81.4 E13.82963
G0 F6000 X44.803 Y81.75
G1 F1200 X45.058 Y81.613 E13.83926
G1 X45.745 Y81.256 E13.86501
G1 X46.04 Y81.109 E13.87597
G1 X46.533 Y80.872 E13.89416
G1 X46.868 Y80.718 E13.90643
G1 X47.432 Y80.471 E13.92691
G1 X49.835 Y79.377 E14.01472
G1 X52.089 Y78.272 E14.09822
G1 X54.317 Y77.1 E14.18195
G1 X56.56 Y75.839 E14.26753
G1 X58.684 Y74.564 E14.34993
G1 X60.821 Y73.199 E14.43426
G1 X62.933 Y71.762 E14.51923
G1 X64.976 Y70.287 E14.60304
G1 X66.97 Y68.759 E14.68659
G1 X68.954 Y67.15 E14.77155
G1 X70.869 Y65.502 E14.85558
G1 X72.731 Y63.807 E14.93933
G1 X74.548 Y62.056 E15.02326
G1 X76.334 Y60.234 E15.10812
G1 X78.049 Y58.385 E15.192
G1 X79.696 Y56.502 E15.2752
