;FLAVOR:Marlin
;TIME:2262
;Filament used: 0.675533m
;Layer height: 0.2
;MINX:9.853
;MINY:73.984
;MINZ:0.2
;MAXX:210.144
;MAXY:146.021
;MAXZ:0.8
;Generated with Cura_SteamEngine master
M140 S80
M105
M190 S80
M104 S215
M105
M109 S215
M82 ;absolute extrusion mode
; Ender 3 Custom Start G-code
G92 E0 ; Reset Extruder
G28 ; Home all axes
G1 Z2.0 F3000 ; Move Z Axis up little to prevent scratching of Heat Bed
G1 X0.1 Y20 Z0.3 F5000.0 ; Move to start position
G1 X0.1 Y200.0 Z0.3 F1500.0 E15 ; Draw the first line
G1 X0.4 Y200.0 Z0.3 F5000.0 ; Move to side a little
G1 X0.4 Y20 Z0.3 F1500.0 E30 ; Draw the second line
G92 E0 ; Reset Extruder
G1 Z2.0 F3000 ; Move Z Axis up little to prevent scratching of Heat Bed
G1 X5 Y20 Z0.3 F5000.0 ; Move over to prevent blob squish
G92 E0
G92 E0
G1 F1500 E-6.5
;LAYER_COUNT:4
;LAYER:0
M107
G0 F6000 X23.321 Y85.8 Z0.2
;TYPE:SKIRT
G1 F1500 E0
G1 F1200 X24.403 Y85.522 E0.03716
G1 X24.787 Y85.418 E0.05039
G1 X25.242 Y85.305 E0.06598
G1 X27.656 Y84.634 E0.14932
G1 X30.07 Y83.89 E0.23333
G1 X32.003 Y83.239 E0.30117
G1 X32.856 Y82.941 E0.33122
G1 X33.754 Y82.67 E0.36242
G1 X34.672 Y82.476 E0.39363
G1 X35.602 Y82.361 E0.4248
G1 X36.54 Y82.326 E0.45602
G1 X37.476 Y82.371 E0.48718
G1 X38.406 Y82.495 E0.51839
G1 X39.322 Y82.698 E0.5496
G1 X39.871 Y82.86 E0.56863
G1 X40.176 Y82.959 E0.5793
G1 X42.61 Y83.71 E0.66402
G1 X45.076 Y84.396 E0.74915
G1 X47.506 Y84.999 E0.83243
G1 X49.952 Y85.533 E0.9157
G1 X52.439 Y86 E0.99986
G1 X54.926 Y86.397 E1.08363
G1 X57.392 Y86.719 E1.16634
G1 X60.485 Y87.025 E1.26972
G1 X60.905 Y87.061 E1.28374
G1 X61.323 Y87.105 E1.29772
G1 X63.962 Y87.433 E1.38617
G1 X66.482 Y87.675 E1.47037
G1 X68.981 Y87.844 E1.55368
G1 X71.527 Y87.943 E1.63842
G1 X74.02 Y87.969 E1.72134
G1 X76.539 Y87.926 E1.80514
G1 X79.034 Y87.811 E1.88821
G1 X81.58 Y87.622 E1.97312
G1 X84.051 Y87.369 E2.05574
G1 X86.556 Y87.039 E2.13977
G1 X89.07 Y86.637 E2.22445
G1 X91.514 Y86.173 E2.30719
G1 X93.992 Y85.631 E2.39156
G1 X96.386 Y85.037 E2.4736
G1 X98.812 Y84.359 E2.55738
G1 X102.198 Y83.292 E2.67546
G1 X103.368 Y82.899 E2.71651
G1 X104.269 Y82.639 E2.7477
G1 X105.153 Y82.462 E2.77768
G1 X105.952 Y82.337 E2.80458
G1 X107.31 Y82.145 E2.8502
G1 X109.79 Y81.721 E2.93388
G1 X112.252 Y81.231 E3.01737
G1 X114.682 Y80.672 E3.10031
G1 X117.157 Y80.03 E3.18535
G1 X119.562 Y79.334 E3.26862
G1 X121.958 Y78.565 E3.35232
G1 X124.348 Y77.724 E3.43659
G1 X126.677 Y76.828 E3.51958
G1 X129.026 Y75.849 E3.60423
G1 X130.403 Y75.239 E3.65432
G1 X131.018 Y74.961 E3.67677
G1 X131.888 Y74.611 E3.70796
G1 X132.785 Y74.337 E3.73915
G1 X133.702 Y74.14 E3.77035
G1 X134.632 Y74.022 E3.80153
G1 X135.57 Y73.984 E3.83275
G1 X136.506 Y74.026 E3.86391
G1 X137.436 Y74.147 E3.89511
G1 X138.461 Y74.376 E3.93004
G1 X141.103 Y75.101 E4.02116
G1 X143.536 Y75.697 E4.10447
G1 X146.001 Y76.222 E4.1883
G1 X148.83 Y76.737 E4.28394
G1 X150.063 Y76.975 E4.3257
G1 X152.634 Y77.434 E4.41257
G1 X155.147 Y77.811 E4.49709
G1 X157.795 Y78.13 E4.5858
G1 X158.619 Y78.218 E4.61336
G1 X159.546 Y78.357 E4.64454
G1 X160.134 Y78.488 E4.66457
G1 X161.016 Y78.71 E4.69482
G1 X163.603 Y79.322 E4.78324
G1 X166.046 Y79.83 E4.86623
G1 X168.512 Y80.266 E4.94953
G1 X170.975 Y80.632 E5.03234
G1 X173.523 Y80.938 E5.1177
G1 X176.001 Y81.165 E5.20046
G1 X176.488 Y81.195 E5.21669
G1 X176.652 Y81.212 E5.22218
G1 X178.667 Y81.356 E5.28937
G1 X181.256 Y81.504 E5.37562
G1 X183.753 Y81.576 E5.4587
G1 X186.277 Y81.578 E5.54265
G1 X188.799 Y81.508 E5.62657
G1 X191.373 Y81.364 E5.71231
G1 X191.973 Y81.319 E5.73232
G1 X192.24 Y81.303 E5.74122
G1 X193.178 Y81.287 E5.77242
G1 X194.113 Y81.35 E5.80359
G1 X195.04 Y81.494 E5.83479
G1 X195.952 Y81.715 E5.866
G1 X196.841 Y82.014 E5.8972
G1 X197.915 Y82.497 E5.93637
G1 X200.932 Y84 E6.04848
G1 X201.752 Y84.455 E6.07967
G1 X202.531 Y84.977 E6.11085
G1 X203.263 Y85.564 E6.14206
G1 X203.941 Y86.211 E6.17323
G1 X204.563 Y86.913 E6.20443
G1 X205.122 Y87.666 E6.23562
G1 X205.615 Y88.464 E6.26682
G1 X206.038 Y89.301 E6.29801
G1 X206.389 Y90.171 E6.32921
G1 X206.591 Y90.801 E6.35122
G1 X206.696 Y91.166 E6.36385
G1 X207.438 Y93.646 E6.44995
G1 X208.237 Y96.07 E6.53484
G1 X209.103 Y98.458 E6.61932
G1 X209.358 Y99.118 E6.64286
G1 X209.502 Y99.514 E6.65687
G1 X209.55 Y99.654 E6.66179
G1 X209.816 Y100.554 E6.69301
G1 X210.005 Y101.472 E6.72418
G1 X210.115 Y102.404 E6.7554
G1 X210.144 Y103.341 E6.78657
G1 X210.094 Y104.278 E6.81778
G1 X209.964 Y105.207 E6.84898
G1 X209.756 Y106.121 E6.88016
G1 X209.471 Y107.014 E6.91134
G1 X209.11 Y107.88 E6.94254
G1 X208.677 Y108.712 E6.97374
G1 X208.175 Y109.504 E7.00493
G1 X207.567 Y110.298 E7.03819
G1 X207.425 Y110.467 E7.04553
G1 X207.116 Y110.822 E7.06118
G1 X203.099 Y115.287 E7.26095
G1 X202.545 Y115.887 E7.28811
G1 X202.092 Y116.348 E7.3096
G1 X201.902 Y116.53 E7.31836
G1 X200.051 Y118.367 E7.40509
G1 X199.523 Y118.916 E7.43043
G1 X199.108 Y119.334 E7.45002
G1 X198.417 Y119.968 E7.48121
G1 X197.675 Y120.542 E7.51241
G1 X196.608 Y121.207 E7.55423
G1 X196.314 Y121.365 E7.56533
G1 X195.699 Y121.681 E7.58832
G1 X194.653 Y122.203 E7.62721
G1 X194.032 Y122.503 E7.65014
G1 X193.171 Y122.874 E7.68133
G1 X192.281 Y123.171 E7.71253
G1 X191.369 Y123.391 E7.74374
G1 X190.442 Y123.533 E7.77493
G1 X189.773 Y123.585 E7.79725
G1 X189.492 Y123.598 E7.8066
G1 X187.308 Y123.684 E7.8793
G1 X184.777 Y123.855 E7.96367
G1 X182.243 Y124.098 E8.04834
G1 X179.788 Y124.405 E8.13063
G1 X177.278 Y124.791 E8.21509
G1 X174.812 Y125.241 E8.29847
G1 X172.349 Y125.762 E8.3822
G1 X169.901 Y126.354 E8.46597
G1 X167.478 Y127.013 E8.54949
G1 X165.051 Y127.747 E8.63382
G1 X162.673 Y128.541 E8.7172
G1 X160.336 Y129.394 E8.79995
G1 X157.956 Y130.341 E8.88514
G1 X155.654 Y131.334 E8.96853
G1 X153.407 Y132.378 E9.05094
G1 X151.061 Y133.566 E9.1384
G1 X150.333 Y133.926 E9.16541
G1 X149.773 Y134.184 E9.18592
G1 X149.093 Y134.474 E9.21051
G1 X146.708 Y135.531 E9.29727
G1 X144.381 Y136.642 E9.38304
G1 X143.278 Y137.204 E9.42421
G1 X141.958 Y137.863 E9.47328
G1 X141.352 Y138.154 E9.49564
G1 X140.49 Y138.524 E9.52684
G1 X139.599 Y138.818 E9.55805
G1 X138.687 Y139.036 E9.58923
G1 X137.5 Y139.2 E9.62909
G1 X136.153 Y139.311 E9.67404
G1 X135.729 Y139.34 E9.68818
G1 X133.189 Y139.586 E9.77305
G1 X130.747 Y139.892 E9.85491
G1 X128.237 Y140.281 E9.93939
G1 X125.761 Y140.734 E10.02311
G1 X123.29 Y141.259 E10.10713
G1 X120.853 Y141.851 E10.19054
G1 X118.458 Y142.504 E10.27311
G1 X115.985 Y143.254 E10.35906
G1 X113.666 Y144.031 E10.4404
G1 X110.526 Y145.202 E10.55187
G1 X110.093 Y145.359 E10.56719
G1 X109.198 Y145.641 E10.5984
G1 X108.283 Y145.846 E10.62958
G1 X107.353 Y145.971 E10.66079
G1 X106.582 Y146.015 E10.68648
G1 X106.398 Y146.019 E10.6926
G1 X105.991 Y146.021 E10.70614
G1 X105.664 Y146.016 E10.71701
G1 X104.728 Y145.961 E10.7482
G1 X103.799 Y145.828 E10.77941
G1 X102.886 Y145.615 E10.8106
G1 X102.034 Y145.341 E10.84036
G1 X101.133 Y145.01 E10.87229
G1 X98.675 Y144.143 E10.95898
G1 X96.288 Y143.376 E11.04237
G1 X93.883 Y142.678 E11.12566
G1 X91.43 Y142.041 E11.20995
G1 X88.989 Y141.479 E11.29326
G1 X86.485 Y140.978 E11.3782
G1 X84.061 Y140.564 E11.45999
G1 X82.805 Y140.391 E11.50216
G1 X82.657 Y140.364 E11.50716
G1 X81.299 Y140.165 E11.55281
G1 X80.378 Y139.989 E11.584
G1 X79.17 Y139.631 E11.6259
G1 X78.312 Y139.283 E11.6567
G1 X77.158 Y138.756 E11.69889
G1 X76.969 Y138.667 E11.70584
G1 X74.635 Y137.641 E11.79064
G1 X72.333 Y136.705 E11.87329
G1 X69.968 Y135.82 E11.95728
G1 X67.586 Y135.005 E12.04101
G1 X65.17 Y134.255 E12.12515
G1 X62.773 Y133.584 E12.20794
G1 X60.263 Y132.957 E12.29399
G1 X57.882 Y132.434 E12.37507
G1 X55.4 Y131.962 E12.4591
G1 X51.724 Y131.392 E12.58283
G1 X51.191 Y131.321 E12.60071
G1 X50.267 Y131.157 E12.63193
G1 X49.361 Y130.915 E12.66312
G1 X48.479 Y130.597 E12.6943
G1 X47.917 Y130.348 E12.71474
G1 X47.321 Y130.064 E12.7367
G1 X47.104 Y129.958 E12.74474
G1 X46.823 Y129.816 E12.75521
G1 X44.582 Y128.769 E12.83748
G1 X42.277 Y127.771 E12.92102
G1 X39.898 Y126.818 E13.00626
G1 X37.582 Y125.967 E13.08832
G1 X35.183 Y125.161 E13.1725
G1 X32.747 Y124.418 E13.2572
G1 X30.355 Y123.763 E13.33969
G1 X27.896 Y123.162 E13.42388
G1 X24.229 Y122.402 E13.54844
G1 X24.027 Y122.364 E13.55528
G1 X23.113 Y122.152 E13.58648
G1 X22.221 Y121.862 E13.61768
G1 X21.357 Y121.498 E13.64886
G1 X20.527 Y121.061 E13.68006
G1 X19.737 Y120.555 E13.71127
G1 X18.994 Y119.984 E13.74243
G1 X18.562 Y119.603 E13.76159
G1 X18.416 Y119.467 E13.76823
G1 X18.211 Y119.271 E13.77766
G1 X18.001 Y119.065 E13.78744
G1 X13.439 Y114.502 E14.00205
G1 X12.969 Y114.019 E14.02447
G1 X12.345 Y113.32 E14.05563
G1 X11.782 Y112.57 E14.08682
G1 X11.285 Y111.774 E14.11803
G1 X10.857 Y110.94 E14.14921
G1 X10.502 Y110.072 E14.1804
G1 X10.223 Y109.176 E14.21162
G1 X10.021 Y108.26 E14.24281
G1 X9.897 Y107.331 E14.27399
G1 X9.853 Y106.394 E14.30519
G1 X9.889 Y105.457 E14.33637
G1 X9.995 Y104.587 E14.36552
G1 X10.025 Y104.402 E14.37176
G1 X10.077 Y104.105 E14.38179
G1 X10.16 Y103.673 E14.39642
G1 X10.478 Y102.086 E14.45025
G1 X10.624 Y101.412 E14.47319
G1 X10.862 Y100.505 E14.50438
G1 X11.176 Y99.621 E14.53558
G1 X11.564 Y98.767 E14.56678
G1 X11.845 Y98.247 E14.58643
G1 X12.304 Y97.451 E14.617
G1 X13.575 Y95.171 E14.70382
G1 X14.848 Y92.72 E14.79568
G1 X15.177 Y92.062 E14.82014
G1 X15.632 Y91.241 E14.85136
G1 X16.155 Y90.463 E14.88254
G1 X16.743 Y89.732 E14.91375
G1 X17.39 Y89.053 E14.94494
G1 X18.093 Y88.433 E14.97612
G1 X18.847 Y87.874 E15.00734
G1 X19.931 Y87.227 E15.04932
G1 X20.541 Y86.909 E15.0722
G1 X20.836 Y86.761 E15.08318
G1 X21.266 Y86.553 E15.09907
G1 X22.127 Y86.181 E15.13026
G1 X23.321 Y85.8 E15.17195
G0 F6000 X23.421 Y86.188
G1 F1200 X24.748 Y85.847 E15.21752
G1 X24.884 Y85.806 E15.22224
G1 X25.332 Y85.695 E15.23759
G1 X27.765 Y85.019 E15.32158
G1 X30.2 Y84.268 E15.40633
G1 X32.157 Y83.609 E15.47502
G1 X32.988 Y83.319 E15.50429
G1 X33.87 Y83.053 E15.53493
G1 X34.771 Y82.865 E15.56554
G1 X35.685 Y82.756 E15.59616
G1 X36.605 Y82.727 E15.62677
G1 X37.524 Y82.777 E15.65738
G1 X38.436 Y82.907 E15.68802
G1 X39.748 Y83.241 E15.73305
G1 X40.004 Y83.324 E15.742
G1 X42.523 Y84.101 E15.82968
G1 X44.953 Y84.777 E15.91357
G1 X47.388 Y85.381 E15.99702
G1 X49.897 Y85.93 E16.08244
G1 X52.374 Y86.395 E16.16626
G1 X54.848 Y86.789 E16.24959
G1 X57.366 Y87.118 E16.33405
G1 X60.481 Y87.427 E16.43816
G1 X60.871 Y87.46 E16.45118
G1 X61.273 Y87.502 E16.46462
G1 X63.907 Y87.829 E16.5529
G1 X66.453 Y88.074 E16.63797
G1 X68.974 Y88.244 E16.72201
G1 X71.507 Y88.343 E16.80633
G1 X74.022 Y88.369 E16.88998
G1 X76.529 Y88.326 E16.97337
G1 X79.084 Y88.208 E17.05844
G1 X81.58 Y88.023 E17.14169
G1 X84.142 Y87.76 E17.22735
G1 X86.6 Y87.437 E17.30981
G1 X89.136 Y87.031 E17.39523
G1 X91.602 Y86.563 E17.47871
G1 X94.068 Y86.024 E17.56267
G1 X96.484 Y85.424 E17.64546
G1 X98.958 Y84.734 E17.73089
G1 X102.287 Y83.684 E17.84699
G1 X103.496 Y83.278 E17.88941
G1 X104.38 Y83.023 E17.92001
G1 X105.216 Y82.857 E17.94836
G1 X106.009 Y82.733 E17.97505
G1 X107.357 Y82.542 E18.02034
G1 X109.864 Y82.114 E18.10493
G1 X112.315 Y81.626 E18.18805
G1 X114.833 Y81.047 E18.27398
G1 X117.263 Y80.416 E18.35748
G1 X119.668 Y79.72 E18.44076
G1 X122.097 Y78.94 E18.52561
G1 X124.488 Y78.099 E18.60991
G1 X126.795 Y77.212 E18.69212
G1 X129.2 Y76.21 E18.77877
G1 X130.565 Y75.605 E18.82843
G1 X131.183 Y75.326 E18.85098
G1 X132.037 Y74.983 E18.88159
G1 X132.918 Y74.716 E18.91221
G1 X133.819 Y74.526 E18.94284
G1 X134.733 Y74.416 E18.97346
G1 X135.653 Y74.385 E19.00407
G1 X136.573 Y74.433 E19.03472
G1 X137.484 Y74.562 E19.06532
G1 X138.355 Y74.762 E19.09504
G1 X140.973 Y75.48 E19.18533
G1 X143.486 Y76.096 E19.27139
G1 X145.881 Y76.606 E19.35283
G1 X148.754 Y77.13 E19.44997
G1 X149.982 Y77.367 E19.49156
G1 X152.582 Y77.831 E19.57941
G1 X155.072 Y78.204 E19.66315
G1 X157.707 Y78.522 E19.75142
G1 X158.576 Y78.615 E19.78049
G1 X159.487 Y78.753 E19.81114
G1 X160.036 Y78.876 E19.82985
G1 X160.956 Y79.108 E19.86141
G1 X163.466 Y79.701 E19.94719
G1 X165.998 Y80.228 E20.03321
G1 X168.419 Y80.656 E20.11498
G1 X170.975 Y81.036 E20.20093
G1 X173.436 Y81.331 E20.28337
G1 X175.976 Y81.564 E20.3682
G1 X176.463 Y81.594 E20.38443
G1 X176.625 Y81.611 E20.38985
G1 X178.62 Y81.754 E20.45637
G1 X181.221 Y81.902 E20.54302
G1 X183.776 Y81.976 E20.62804
G1 X186.288 Y81.978 E20.71159
G1 X188.833 Y81.908 E20.79626
G1 X191.334 Y81.768 E20.87958
G1 X191.803 Y81.731 E20.89523
G1 X192.264 Y81.702 E20.91059
G1 X193.184 Y81.687 E20.94119
G1 X194.103 Y81.752 E20.97183
G1 X195.012 Y81.896 E21.00245
G1 X195.905 Y82.119 E21.03306
G1 X196.776 Y82.418 E21.06369
G1 X197.78 Y82.874 E21.10036
G1 X200.753 Y84.358 E21.21088
G1 X201.558 Y84.805 E21.24151
G1 X202.321 Y85.319 E21.2721
G1 X203.037 Y85.898 E21.30273
G1 X203.7 Y86.537 E21.33336
G1 X204.305 Y87.231 E21.36398
G1 X204.848 Y87.975 E21.39461
G1 X205.324 Y88.763 E21.42523
G1 X205.729 Y89.59 E21.45586
G1 X206.062 Y90.448 E21.48647
G1 X206.207 Y90.911 E21.50261
G1 X206.324 Y91.319 E21.51673
G1 X207.053 Y93.755 E21.6013
G1 X207.857 Y96.194 E21.68671
G1 X208.728 Y98.597 E21.77173
G1 X208.985 Y99.262 E21.79544
G1 X209.124 Y99.644 E21.80896
G1 X209.172 Y99.784 E21.81388
G1 X209.433 Y100.667 E21.84451
G1 X209.615 Y101.569 E21.87511
G1 X209.719 Y102.484 E21.90574
G1 X209.743 Y103.405 E21.93638
G1 X209.688 Y104.324 E21.967
G1 X209.552 Y105.234 E21.99761
G1 X209.338 Y106.13 E22.02825
G1 X209.048 Y107.003 E22.05884
G1 X208.682 Y107.848 E22.08947
G1 X208.245 Y108.658 E22.12008
G1 X207.739 Y109.427 E22.1507
G1 X207.261 Y110.041 E22.17658
G1 X207.119 Y110.21 E22.18392
G1 X206.747 Y110.635 E22.20271
G1 X202.801 Y115.02 E22.39891
G1 X202.251 Y115.615 E22.42586
G1 X201.815 Y116.059 E22.44656
G1 X201.627 Y116.24 E22.45524
G1 X199.784 Y118.067 E22.54155
G1 X199.235 Y118.639 E22.56792
G1 X198.825 Y119.051 E22.58725
G1 X198.147 Y119.673 E22.61786
G1 X197.417 Y120.234 E22.64848
G1 X196.416 Y120.856 E22.68767
G1 X196.13 Y121.009 E22.69846
G1 X195.52 Y121.323 E22.72128
G1 X194.479 Y121.843 E22.75998
G1 X193.858 Y122.143 E22.78292
G1 X193.012 Y122.507 E22.81355
G1 X192.138 Y122.796 E22.84417
G1 X191.243 Y123.008 E22.87476
G1 X190.332 Y123.142 E22.90539
G1 X189.754 Y123.186 E22.92467
G1 X189.476 Y123.199 E22.93393
G1 X187.266 Y123.286 E23.00749
G1 X184.749 Y123.456 E23.09139
G1 X182.227 Y123.698 E23.17566
G1 X179.71 Y124.012 E23.26003
G1 X177.216 Y124.396 E23.34395
G1 X174.729 Y124.85 E23.42804
G1 X172.277 Y125.368 E23.51139
G1 X169.774 Y125.974 E23.59705
G1 X167.373 Y126.627 E23.67981
G1 X164.936 Y127.364 E23.76449
G1 X162.525 Y128.169 E23.84903
G1 X160.187 Y129.023 E23.93182
G1 X157.798 Y129.972 E24.01731
G1 X155.506 Y130.961 E24.10034
G1 X153.225 Y132.022 E24.18401
G1 X150.884 Y133.208 E24.2713
G1 X150.156 Y133.568 E24.29831
G1 X149.616 Y133.816 E24.31807
G1 X148.923 Y134.111 E24.34312
G1 X146.539 Y135.168 E24.42986
G1 X144.236 Y136.268 E24.51475
G1 X143.099 Y136.846 E24.55717
G1 X141.94 Y137.426 E24.60028
G1 X141.178 Y137.793 E24.62841
G1 X140.332 Y138.156 E24.65903
G1 X139.457 Y138.443 E24.68965
G1 X138.561 Y138.653 E24.72026
G1 X137.467 Y138.802 E24.75698
G1 X136.126 Y138.912 E24.80174
G1 X135.696 Y138.941 E24.81607
G1 X133.172 Y139.186 E24.90041
G1 X130.673 Y139.499 E24.98418
G1 X128.14 Y139.891 E25.06943
G1 X125.678 Y140.342 E25.15268
G1 X123.251 Y140.858 E25.23521
G1 X120.725 Y141.471 E25.32166
G1 X118.332 Y142.124 E25.40416
G1 X115.888 Y142.865 E25.4891
G1 X113.517 Y143.659 E25.57227
G1 X110.389 Y144.826 E25.68331
G1 X109.956 Y144.983 E25.69863
G1 X109.078 Y145.259 E25.72924
G1 X108.179 Y145.458 E25.75987
G1 X107.266 Y145.578 E25.79049
G1 X106.573 Y145.615 E25.81358
G1 X106.389 Y145.619 E25.8197
G1 X105.997 Y145.621 E25.83273
G1 X105.67 Y145.616 E25.84361
G1 X104.751 Y145.562 E25.87423
G1 X103.84 Y145.428 E25.90486
G1 X102.944 Y145.216 E25.93548
G1 X102.172 Y144.965 E25.96248
G1 X101.256 Y144.628 E25.99494
G1 X98.825 Y143.771 E26.08068
G1 X96.416 Y142.997 E26.16483
G1 X93.981 Y142.29 E26.24917
G1 X91.515 Y141.65 E26.3339
G1 X89.093 Y141.093 E26.41656
G1 X86.559 Y140.585 E26.50252
G1 X84.121 Y140.169 E26.58478
G1 X82.859 Y139.995 E26.62715
G1 X82.7 Y139.966 E26.63253
G1 X81.357 Y139.769 E26.67767
G1 X80.453 Y139.596 E26.70829
