;FLAVOR:Marlin
;TIME:2997
;Filament used: 2.36777m
;Layer height: 0.28
;MINX:57.662
;MINY:79.316
;MINZ:0.28
;MAXX:162.333
;MAXY:140.68
;MAXZ:4.2
;Generated with Cura_SteamEngine master
M140 S60
M105
M190 S60
M104 S205
M105
M109 S205
M82 ;absolute extrusion mode
; Ender 3 Custom Start G-code
G92 E0 ; Reset Extruder
G28 ; Home all axes
G1 Z2.0 F3000 ; Move Z Axis up little to prevent scratching of Heat Bed
G1 X0.1 Y20 Z0.3 F5000.0 ; Move to start position
G1 X0.1 Y200.0 Z0.3 F1500.0 E15 ; Draw the first line
G1 X0.4 Y200.0 Z0.3 F5000.0 ; Move to side a little
G1 X0.4 Y20 Z0.3 F1500.0 E30 ; Draw the second line
G92 E0 ; Reset Extruder
G1 Z2.0 F3000 ; Move Z Axis up little to prevent scratching of Heat Bed
G1 X5 Y20 Z0.3 F5000.0 ; Move over to prevent blob squish
G92 E0
G92 E0
G1 F3600 E-6
;LAYER_COUNT:15
;LAYER:0
M106 S255
G0 F6000 X62.731 Y89.063 Z0.28
;TYPE:SKIRT
G1 F3600 E0
G1 F3300 X63.542 Y88.592 E0.04367
G1 X64.39 Y88.191 E0.08735
G1 X65.269 Y87.864 E0.13102
G1 X66.173 Y87.614 E0.17469
G1 X66.991 Y87.456 E0.21349
G1 X67.806 Y87.331 E0.25188
G1 X68.993 Y87.166 E0.30768
G1 X71.478 Y86.749 E0.42501
G1 X73.934 Y86.265 E0.54157
G1 X76.405 Y85.705 E0.65955
G1 X78.847 Y85.079 E0.77694
G1 X81.242 Y84.392 E0.89296
G1 X83.683 Y83.616 E1.01223
G1 X86.031 Y82.797 E1.12802
G1 X88.335 Y81.918 E1.24285
G1 X91.579 Y80.559 E1.40662
G1 X91.993 Y80.376 E1.4277
G1 X93.169 Y79.936 E1.48616
G1 X93.388 Y79.868 E1.49684
G1 X94.295 Y79.628 E1.54053
G1 X95.599 Y79.423 E1.60199
G1 X95.922 Y79.392 E1.6171
G1 X96.58 Y79.349 E1.64781
G1 X96.931 Y79.339 E1.66416
G1 X97.347 Y79.334 E1.68353
G1 X99.77 Y79.329 E1.79636
G1 X103.64 Y79.316 E1.97656
G1 X105.123 Y79.316 E2.04561
G1 X107.152 Y79.326 E2.14009
G1 X107.741 Y79.332 E2.16752
G1 X108.41 Y79.346 E2.19868
G1 X108.939 Y79.367 E2.22333
G1 X109.319 Y79.39 E2.24106
G1 X109.798 Y79.428 E2.26343
G1 X110.453 Y79.5 E2.29412
G1 X110.946 Y79.569 E2.3173
G1 X111.583 Y79.678 E2.34739
G1 X112.022 Y79.766 E2.36824
G1 X112.627 Y79.905 E2.39714
G1 X113.081 Y80.023 E2.41899
G1 X113.786 Y80.231 E2.45321
G1 X114.3 Y80.402 E2.47844
G1 X114.631 Y80.518 E2.49477
G1 X114.97 Y80.647 E2.51166
G1 X115.963 Y81.044 E2.56145
G1 X117.032 Y81.491 E2.61541
G1 X119.375 Y82.397 E2.73238
G1 X121.747 Y83.237 E2.84955
G1 X124.153 Y84.014 E2.96728
G1 X126.56 Y84.716 E3.08403
G1 X129.012 Y85.356 E3.20203
G1 X131.458 Y85.924 E3.31896
G1 X133.924 Y86.419 E3.43608
G1 X136.373 Y86.842 E3.5518
G1 X140.089 Y87.351 E3.72645
G1 X140.732 Y87.426 E3.75659
G1 X141.414 Y87.527 E3.7887
G1 X142.073 Y87.646 E3.81988
G1 X142.508 Y87.733 E3.84053
G1 X143.174 Y87.893 E3.87243
G1 X143.382 Y87.95 E3.88247
G1 X143.843 Y88.087 E3.90486
G1 X144.272 Y88.225 E3.92585
G1 X144.891 Y88.445 E3.95644
G1 X145.089 Y88.522 E3.96633
G1 X145.567 Y88.721 E3.99044
G1 X145.979 Y88.904 E4.01143
G1 X146.661 Y89.235 E4.04673
G1 X146.899 Y89.361 E4.05927
G1 X147.269 Y89.567 E4.07899
G1 X147.595 Y89.756 E4.09654
G1 X148.424 Y90.287 E4.14238
G1 X148.744 Y90.513 E4.16062
G1 X148.964 Y90.673 E4.17329
G1 X149.175 Y90.83 E4.18553
G1 X149.921 Y91.437 E4.23032
G1 X150.202 Y91.687 E4.24783
G1 X150.447 Y91.911 E4.26329
G1 X150.63 Y92.084 E4.27501
G1 X151.274 Y92.748 E4.31809
G1 X151.577 Y93.087 E4.33926
G1 X151.845 Y93.398 E4.35837
G1 X152.029 Y93.62 E4.3718
G1 X152.544 Y94.292 E4.41122
G1 X152.698 Y94.51 E4.42365
G1 X152.867 Y94.755 E4.43751
G1 X153.075 Y95.067 E4.45497
G1 X153.557 Y95.861 E4.49822
G1 X153.714 Y96.146 E4.51337
G1 X153.847 Y96.395 E4.52652
G1 X154.02 Y96.729 E4.54403
G1 X154.321 Y97.359 E4.57655
G1 X154.416 Y97.575 E4.58753
G1 X154.591 Y97.997 E4.60881
G1 X154.839 Y98.631 E4.64051
G1 X154.932 Y98.876 E4.65271
G1 X155.089 Y99.311 E4.67424
G1 X159.194 Y111.05 E5.25332
G1 X159.79 Y112.834 E5.3409
G1 X160.062 Y113.635 E5.38029
G1 X161.434 Y117.381 E5.56605
G1 X161.594 Y117.794 E5.58667
G1 X161.896 Y118.682 E5.63035
G1 X162.12 Y119.592 E5.67399
G1 X162.267 Y120.519 E5.71769
G1 X162.333 Y121.454 E5.76134
G1 X162.32 Y122.392 E5.80502
G1 X162.228 Y123.325 E5.84867
G1 X162.055 Y124.247 E5.89236
G1 X161.806 Y125.151 E5.93602
G1 X161.479 Y126.03 E5.97969
G1 X161.08 Y126.879 E6.02337
G1 X160.609 Y127.69 E6.06704
G1 X160.071 Y128.458 E6.1107
G1 X159.47 Y129.178 E6.15437
G1 X158.809 Y129.844 E6.19807
G1 X158.094 Y130.451 E6.24174
G1 X157.33 Y130.995 E6.28541
G1 X156.523 Y131.472 E6.32906
G1 X155.677 Y131.878 E6.37276
G1 X154.801 Y132.211 E6.41639
G1 X153.899 Y132.468 E6.46007
G1 X152.792 Y132.674 E6.5125
G1 X152.116 Y132.764 E6.54425
G1 X149.522 Y133.148 E6.66636
G1 X147.1 Y133.577 E6.78089
G1 X144.611 Y134.091 E6.89924
G1 X142.184 Y134.663 E7.01534
G1 X139.713 Y135.32 E7.1344
G1 X137.335 Y136.025 E7.24989
G1 X134.894 Y136.826 E7.36952
G1 X132.557 Y137.666 E7.48516
G1 X130.233 Y138.576 E7.60137
G1 X128.211 Y139.432 E7.70361
G1 X127.633 Y139.657 E7.7325
G1 X127.435 Y139.728 E7.74229
G1 X126.539 Y140.007 E7.78599
G1 X125.176 Y140.278 E7.8507
G1 X125.116 Y140.286 E7.85352
G1 X124.156 Y140.371 E7.89839
G1 X123.2 Y140.414 E7.94295
G1 X122.998 Y140.421 E7.95236
G1 X119.176 Y140.523 E8.1304
G1 X117.75 Y140.565 E8.19682
G1 X114.408 Y140.643 E8.35248
G1 X113.416 Y140.672 E8.3987
G1 X112.879 Y140.68 E8.4237
G1 X112.122 Y140.679 E8.45895
G1 X111.661 Y140.668 E8.48043
G1 X111.157 Y140.645 E8.50392
G1 X110.843 Y140.626 E8.51857
G1 X110.641 Y140.611 E8.528
G1 X110.342 Y140.584 E8.54198
G1 X109.805 Y140.527 E8.56712
G1 X109.694 Y140.513 E8.57233
G1 X109.298 Y140.455 E8.59097
G1 X109.059 Y140.416 E8.60224
G1 X108.809 Y140.372 E8.61406
G1 X108.531 Y140.32 E8.62723
G1 X107.91 Y140.186 E8.65682
G1 X107.712 Y140.137 E8.66631
G1 X107.432 Y140.064 E8.67979
G1 X107.12 Y139.978 E8.69486
G1 X106.802 Y139.885 E8.71028
G1 X106.562 Y139.811 E8.72198
G1 X106.051 Y139.639 E8.74709
G1 X105.69 Y139.508 E8.76497
G1 X105.188 Y139.312 E8.79006
G1 X104.29 Y138.935 E8.83541
G1 X101.892 Y137.971 E8.95576
G1 X99.513 Y137.091 E9.07387
G1 X97.151 Y136.294 E9.18995
G1 X94.731 Y135.552 E9.30781
G1 X92.299 Y134.881 E9.42528
G1 X89.859 Y134.281 E9.54229
G1 X87.397 Y133.752 E9.65954
G1 X84.918 Y133.29 E9.77696
G1 X82.453 Y132.901 E9.89316
G1 X81.412 Y132.772 E9.94201
G1 X79.191 Y132.469 E10.04639
G1 X78.538 Y132.36 E10.07721
G1 X78.417 Y132.336 E10.08296
G1 X77.928 Y132.227 E10.10629
G1 X77.449 Y132.107 E10.12928
G1 X77.352 Y132.081 E10.13396
G1 X76.774 Y131.909 E10.16204
G1 X76.417 Y131.792 E10.17953
G1 X75.679 Y131.52 E10.21615
G1 X75.212 Y131.329 E10.23965
G1 X74.743 Y131.125 E10.26346
G1 X74.448 Y130.988 E10.27861
G1 X73.933 Y130.732 E10.30539
G1 X73.612 Y130.562 E10.3223
G1 X73.315 Y130.399 E10.33808
G1 X73.071 Y130.26 E10.35115
G1 X72.535 Y129.934 E10.38037
G1 X72.376 Y129.831 E10.38919
G1 X72.089 Y129.639 E10.40527
G1 X71.802 Y129.44 E10.42153
G1 X71.354 Y129.112 E10.44738
G1 X71.162 Y128.964 E10.45867
G1 X70.958 Y128.803 E10.47077
G1 X70.785 Y128.663 E10.48113
G1 X70.375 Y128.314 E10.5062
G1 X70.187 Y128.146 E10.51794
G1 X69.866 Y127.847 E10.53837
G1 X69.647 Y127.635 E10.55256
G1 X69.445 Y127.435 E10.5658
G1 X69.342 Y127.33 E10.57265
G1 X68.953 Y126.912 E10.59924
G1 X68.702 Y126.628 E10.61689
G1 X68.494 Y126.385 E10.63178
G1 X68.379 Y126.247 E10.64015
G1 X68.061 Y125.847 E10.66394
G1 X67.836 Y125.55 E10.68129
G1 X67.524 Y125.117 E10.70614
G1 X67.364 Y124.883 E10.71934
G1 X67.041 Y124.382 E10.7471
G1 X66.681 Y123.789 E10.7794
G1 X66.339 Y123.183 E10.8118
G1 X66.15 Y122.822 E10.83078
G1 X65.996 Y122.517 E10.84669
G1 X65.87 Y122.257 E10.86014
G1 X65.675 Y121.836 E10.88174
G1 X65.543 Y121.534 E10.89709
G1 X65.401 Y121.195 E10.9142
G1 X65.193 Y120.659 E10.94098
G1 X64.668 Y119.192 E11.01353
G1 X64.416 Y118.456 E11.04975
G1 X63.63 Y116.185 E11.16165
G1 X63.207 Y114.941 E11.22284
G1 X62.341 Y112.504 E11.34327
G1 X61.442 Y110.185 E11.45908
G1 X59.921 Y106.63 E11.63913
G1 X59.595 Y105.912 E11.67585
G1 X59.22 Y104.973 E11.72293
G1 X58.885 Y104.006 E11.77058
G1 X58.767 Y103.645 E11.78827
G1 X58.542 Y102.913 E11.82393
G1 X58.257 Y101.965 E11.87002
G1 X58.08 Y101.344 E11.90009
G1 X57.862 Y100.432 E11.94375
G1 X57.722 Y99.505 E11.98741
G1 X57.662 Y98.569 E12.03108
G1 X57.681 Y97.631 E12.07477
G1 X57.781 Y96.699 E12.11841
G1 X57.959 Y95.778 E12.16209
G1 X58.215 Y94.876 E12.20575
G1 X58.547 Y93.999 E12.24942
G1 X58.953 Y93.153 E12.29311
G1 X59.429 Y92.345 E12.33678
G1 X59.972 Y91.58 E12.38046
G1 X60.579 Y90.865 E12.42413
G1 X61.244 Y90.204 E12.46779
G1 X61.963 Y89.602 E12.51146
G1 X62.731 Y89.063 E12.55515
G0 F6000 X63.162 Y89.266
G1 F3300 X63.969 Y88.823 E12.59802
G1 X64.811 Y88.452 E12.64086
G1 X65.683 Y88.155 E12.68375
G1 X66.577 Y87.936 E12.72661
G1 X67.052 Y87.852 E12.74907
G1 X68.016 Y87.705 E12.79448
G1 X69.043 Y87.562 E12.84276
G1 X71.55 Y87.142 E12.96113
G1 X74.028 Y86.653 E13.07874
G1 X76.495 Y86.094 E13.19652
G1 X78.952 Y85.464 E13.31463
G1 X81.391 Y84.765 E13.43278
G1 X83.767 Y84.01 E13.54886
G1 X86.188 Y83.166 E13.66825
G1 X88.489 Y82.288 E13.78293
G1 X91.718 Y80.934 E13.94597
G1 X92.154 Y80.742 E13.96815
G1 X93.288 Y80.318 E14.02453
G1 X93.507 Y80.25 E14.0352
G1 X94.397 Y80.015 E14.07807
G1 X95.637 Y79.821 E14.13651
G1 X95.96 Y79.79 E14.15162
G1 X96.595 Y79.749 E14.18125
G1 X96.936 Y79.739 E14.19713
G1 X97.348 Y79.734 E14.21632
G1 X99.771 Y79.729 E14.32914
G1 X103.641 Y79.716 E14.50935
G1 X105.122 Y79.716 E14.57831
G1 X107.148 Y79.726 E14.67265
G1 X107.733 Y79.732 E14.69989
G1 X108.402 Y79.746 E14.73105
G1 X108.921 Y79.767 E14.75524
G1 X109.287 Y79.789 E14.77231
G1 X109.766 Y79.827 E14.79468
G1 X110.397 Y79.896 E14.82424
G1 X110.89 Y79.965 E14.84742
G1 X111.504 Y80.07 E14.87643
G1 X111.943 Y80.158 E14.89727
G1 X112.526 Y80.292 E14.92513
G1 X112.98 Y80.41 E14.94697
G1 X113.66 Y80.611 E14.97999
G1 X114.174 Y80.782 E15.00521
G1 X114.495 Y80.894 E15.02104
G1 X114.821 Y81.018 E15.03729
G1 X115.814 Y81.415 E15.08708
G1 X116.894 Y81.867 E15.1416
G1 X119.233 Y82.771 E15.25836
G1 X121.627 Y83.619 E15.37662
G1 X124.024 Y84.392 E15.4939
G1 X126.452 Y85.101 E15.61168
G1 X128.892 Y85.738 E15.7291
G1 X131.393 Y86.319 E15.84866
G1 X133.849 Y86.812 E15.9653
G1 X136.307 Y87.236 E16.08145
G1 X140.038 Y87.747 E16.2568
G1 X140.686 Y87.823 E16.28718
G1 X141.343 Y87.921 E16.31811
G1 X142.002 Y88.04 E16.3493
G1 X142.277 Y88.093 E16.36234
G1 X142.426 Y88.124 E16.36942
G1 X143.069 Y88.279 E16.40022
G1 X143.277 Y88.336 E16.41026
G1 X143.721 Y88.468 E16.43183
G1 X144.15 Y88.606 E16.45282
G1 X144.746 Y88.818 E16.48227
G1 X144.944 Y88.895 E16.49217
G1 X145.405 Y89.087 E16.51542
G1 X145.817 Y89.27 E16.53641
G1 X146.474 Y89.589 E16.57042
G1 X146.712 Y89.715 E16.58296
G1 X147.069 Y89.913 E16.60197
G1 X147.395 Y90.102 E16.61951
G1 X148.193 Y90.614 E16.66366
G1 X148.513 Y90.84 E16.6819
G1 X148.726 Y90.994 E16.69414
G1 X148.937 Y91.151 E16.70639
G1 X149.655 Y91.736 E16.74952
G1 X149.936 Y91.986 E16.76703
G1 X150.172 Y92.202 E16.78193
G1 X150.355 Y92.375 E16.79365
G1 X150.976 Y93.014 E16.83514
G1 X151.279 Y93.353 E16.85631
G1 X151.537 Y93.653 E16.87474
G1 X151.721 Y93.875 E16.88817
G1 X152.218 Y94.523 E16.92619
G1 X152.372 Y94.741 E16.93862
G1 X152.534 Y94.977 E16.95195
G1 X152.742 Y95.289 E16.96941
G1 X153.206 Y96.054 E17.01107
G1 X153.363 Y96.339 E17.02622
G1 X153.491 Y96.579 E17.03889
G1 X153.664 Y96.913 E17.0564
G1 X153.955 Y97.52 E17.08775
G1 X154.05 Y97.736 E17.09874
G1 X154.219 Y98.143 E17.11926
G1 X154.467 Y98.777 E17.15096
G1 X154.556 Y99.013 E17.1627
G1 X154.712 Y99.443 E17.184
G1 X158.815 Y111.177 E17.76282
G1 X159.393 Y112.907 E17.84776
G1 X159.693 Y113.788 E17.89109
G1 X161.064 Y117.534 E18.07684
G1 X161.221 Y117.938 E18.09702
G1 X161.516 Y118.81 E18.13989
G1 X161.735 Y119.705 E18.18279
G1 X161.875 Y120.614 E18.22562
G1 X161.935 Y121.533 E18.2685
G1 X161.916 Y122.454 E18.31139
G1 X161.817 Y123.369 E18.35425
G1 X161.638 Y124.272 E18.39711
G1 X161.382 Y125.156 E18.43997
G1 X161.051 Y126.015 E18.48283
G1 X160.646 Y126.842 E18.52571
G1 X160.171 Y127.631 E18.5686
G1 X159.629 Y128.375 E18.61146
G1 X159.024 Y129.069 E18.65433
G1 X158.362 Y129.709 E18.6972
G1 X157.647 Y130.288 E18.74004
G1 X156.884 Y130.804 E18.78293
G1 X156.079 Y131.251 E18.82581
G1 X155.238 Y131.626 E18.86869
G1 X154.368 Y131.928 E18.91157
G1 X153.475 Y132.152 E18.95444
G1 X152.739 Y132.277 E18.9892
G1 X152.081 Y132.365 E19.02011
G1 X149.494 Y132.748 E19.14189
G1 X146.987 Y133.191 E19.26043
G1 X144.51 Y133.703 E19.37821
G1 X142.094 Y134.272 E19.49379
G1 X139.634 Y134.927 E19.61233
G1 X137.17 Y135.658 E19.732
G1 X134.813 Y136.43 E19.84749
G1 X132.425 Y137.289 E19.96566
G1 X130.036 Y138.224 E20.08512
G1 X128.055 Y139.063 E20.1853
G1 X127.498 Y139.281 E20.21315
G1 X127.3 Y139.352 E20.22294
G1 X126.421 Y139.625 E20.2658
G1 X125.123 Y139.881 E20.32741
G1 X125.063 Y139.889 E20.33022
G1 X124.138 Y139.971 E20.37347
G1 X123.182 Y140.014 E20.41803
G1 X122.988 Y140.021 E20.42707
G1 X119.153 Y140.123 E20.6057
G1 X117.808 Y140.163 E20.66836
G1 X114.386 Y140.243 E20.82774
G1 X113.41 Y140.272 E20.87321
G1 X112.677 Y140.281 E20.90735
G1 X112.124 Y140.279 E20.9331
G1 X111.679 Y140.268 E20.95382
G1 X111.175 Y140.245 E20.97732
G1 X110.873 Y140.227 E20.9914
G1 X110.671 Y140.212 E21.00084
G1 X110.382 Y140.186 E21.01435
G1 X109.855 Y140.13 E21.03902
G1 X109.744 Y140.116 E21.04423
G1 X109.363 Y140.061 E21.06216
G1 X108.882 Y139.979 E21.08488
G1 X108.604 Y139.927 E21.09805
G1 X108.007 Y139.798 E21.12649
G1 X107.809 Y139.749 E21.13599
G1 X107.538 Y139.678 E21.14903
G1 X107.226 Y139.592 E21.1641
G1 X106.92 Y139.502 E21.17895
G1 X106.68 Y139.428 E21.19065
G1 X106.187 Y139.263 E21.21486
G1 X105.826 Y139.132 E21.23274
G1 X105.343 Y138.943 E21.25689
G1 X104.469 Y138.576 E21.30103
G1 X102.044 Y137.601 E21.42273
G1 X99.632 Y136.709 E21.54248
G1 X97.259 Y135.908 E21.6591
G1 X94.849 Y135.169 E21.77648
G1 X92.428 Y134.502 E21.89341
G1 X89.933 Y133.888 E22.01305
G1 X87.483 Y133.361 E22.12975
G1 X84.982 Y132.895 E22.24821
G1 X82.503 Y132.505 E22.36506
G1 X81.466 Y132.376 E22.41372
G1 X79.245 Y132.073 E22.5181
G1 X78.616 Y131.967 E22.5478
G1 X78.495 Y131.943 E22.55354
G1 X78.023 Y131.839 E22.57605
G1 X77.553 Y131.721 E22.59861
G1 X77.456 Y131.695 E22.60329
G1 X76.899 Y131.529 E22.63035
G1 X76.542 Y131.412 E22.64784
G1 X75.83 Y131.15 E22.68317
G1 X75.363 Y130.959 E22.70667
G1 X74.911 Y130.762 E22.72962
G1 X74.616 Y130.625 E22.74477
G1 X74.12 Y130.378 E22.77057
G1 X73.799 Y130.208 E22.78748
G1 X73.513 Y130.051 E22.80268
G1 X73.269 Y129.912 E22.81575
G1 X72.753 Y129.598 E22.84388
G1 X72.594 Y129.495 E22.8527
G1 X72.317 Y129.31 E22.86821
G1 X72.03 Y129.111 E22.88447
G1 X71.599 Y128.795 E22.90936
G1 X71.21 Y128.492 E22.93232
G1 X71.037 Y128.352 E22.94268
G1 X70.642 Y128.016 E22.96683
G1 X70.454 Y127.848 E22.97857
G1 X70.144 Y127.56 E22.99827
G1 X69.925 Y127.348 E23.01246
G1 X69.628 Y127.05 E23.03205
G1 X69.252 Y126.647 E23.05772
G1 X69.001 Y126.363 E23.07537
G1 X68.801 Y126.129 E23.0897
G1 X68.686 Y125.991 E23.09807
G1 X68.38 Y125.606 E23.12097
G1 X68.155 Y125.309 E23.13832
G1 X67.854 Y124.891 E23.1623
G1 X67.694 Y124.657 E23.1755
G1 X67.383 Y124.175 E23.20221
G1 X67.023 Y123.582 E23.23451
G1 X66.693 Y122.998 E23.26575
G1 X66.504 Y122.637 E23.28472
G1 X66.356 Y122.343 E23.30005
G1 X66.23 Y122.083 E23.3135
G1 X66.039 Y121.67 E23.33469
G1 X65.912 Y121.379 E23.34948
G1 X65.77 Y121.04 E23.36659
G1 X65.569 Y120.524 E23.39238
G1 X65.097 Y119.208 E23.45748
G1 X64.806 Y118.361 E23.49918
G1 X64.009 Y116.057 E23.6127
G1 X63.583 Y114.804 E23.67432
G1 X62.719 Y112.374 E23.79442
G1 X61.806 Y110.016 E23.91216
G1 X60.303 Y106.505 E24.08999
G1 X59.959 Y105.747 E24.12875
G1 X59.598 Y104.842 E24.17412
G1 X59.263 Y103.875 E24.22178
G1 X59.149 Y103.528 E24.23878
G1 X58.925 Y102.798 E24.27434
G1 X58.642 Y101.856 E24.32014
G1 X58.465 Y101.235 E24.35021
G1 X58.251 Y100.339 E24.3931
G1 X58.116 Y99.428 E24.43599
G1 X58.061 Y98.509 E24.47886
G1 X58.085 Y97.589 E24.52171
G1 X58.189 Y96.674 E24.56459
G1 X58.372 Y95.772 E24.60745
G1 X58.633 Y94.889 E24.65032
G1 X58.969 Y94.032 E24.69318
G1 X59.378 Y93.207 E24.73606
G1 X59.858 Y92.421 E24.77895
G1 X60.404 Y91.68 E24.8218
G1 X61.012 Y90.989 E24.86466
G1 X61.677 Y90.353 E24.90751
G1 X62.396 Y89.777 E24.95041
G1 X63.162 Y89.266 E24.99328
G0 F6000 X62.828 Y89.96
