;FLAVOR:Marlin
;TIME:6030
;Filament used: 4.40322m
;Layer height: 0.28
;MINX:33.729
;MINY:77.475
;MINZ:0.28
;MAXX:177.584
;MAXY:140.256
;MAXZ:5.04
;Generated with Cura_SteamEngine master
M140 S60
M105
M190 S60
M104 S205
M105
M109 S205
M82 ;absolute extrusion mode
; Ender 3 Custom Start G-code
G92 E0 ; Reset Extruder
G28 ; Home all axes
G1 Z2.0 F3000 ; Move Z Axis up little to prevent scratching of Heat Bed
G1 X0.1 Y20 Z0.3 F5000.0 ; Move to start position
G1 X0.1 Y200.0 Z0.3 F1500.0 E15 ; Draw the first line
G1 X0.4 Y200.0 Z0.3 F5000.0 ; Move to side a little
G1 X0.4 Y20 Z0.3 F1500.0 E30 ; Draw the second line
G92 E0 ; Reset Extruder
G1 Z2.0 F3000 ; Move Z Axis up little to prevent scratching of Heat Bed
G1 X5 Y20 Z0.3 F5000.0 ; Move over to prevent blob squish
G92 E0
G92 E0
G1 F3600 E-6
;LAYER_COUNT:18
;LAYER:0
M106 S255
G0 F6000 X50.875 Y79.626 Z0.28
;TYPE:SKIRT
G1 F3600 E0
G1 F3300 X51.665 Y79.12 E0.04368
G1 X52.495 Y78.683 E0.08736
G1 X53.359 Y78.319 E0.13102
G1 X54.251 Y78.029 E0.17469
G1 X55.164 Y77.817 E0.21834
G1 X56.092 Y77.683 E0.262
G1 X57.018 Y77.628 E0.30519
G1 X57.814 Y77.615 E0.34226
G1 X82.82 Y77.614 E1.50665
G1 X83.598 Y77.624 E1.54288
G1 X84.898 Y77.72 E1.60357
G1 X86.302 Y77.908 E1.66953
G1 X87.695 Y78.121 E1.73515
G1 X90.159 Y78.43 E1.85078
G1 X92.714 Y78.678 E1.97032
G1 X95.199 Y78.848 E2.0863
G1 X97.718 Y78.949 E2.20369
G1 X100.242 Y78.978 E2.32122
G1 X102.729 Y78.937 E2.43704
G1 X105.287 Y78.822 E2.55628
G1 X107.746 Y78.642 E2.67108
G1 X110.278 Y78.384 E2.78959
G1 X112.826 Y78.052 E2.90924
G1 X114.265 Y77.831 E2.97703
G1 X115.52 Y77.629 E3.03622
G1 X116.451 Y77.519 E3.07988
G1 X117.081 Y77.491 E3.10924
G1 X118.09 Y77.475 E3.15623
G1 X142.91 Y77.475 E4.31195
G1 X143.693 Y77.485 E4.34842
G1 X144.991 Y77.581 E4.40902
G1 X145.732 Y77.68 E4.44383
G1 X146.031 Y77.724 E4.45791
G1 X146.266 Y77.762 E4.46899
G1 X147 Y77.907 E4.50383
G1 X147.598 Y78.046 E4.53242
G1 X147.892 Y78.118 E4.54651
G1 X148.259 Y78.214 E4.56417
G1 X148.869 Y78.393 E4.59378
G1 X149.316 Y78.538 E4.61566
G1 X149.584 Y78.629 E4.62884
G1 X150.006 Y78.778 E4.64968
G1 X150.651 Y79.028 E4.68189
G1 X151.168 Y79.248 E4.70805
G1 X151.455 Y79.375 E4.72266
G1 X151.827 Y79.546 E4.74173
G1 X152.396 Y79.828 E4.7713
G1 X152.872 Y80.081 E4.7964
G1 X153.176 Y80.249 E4.81257
G1 X153.513 Y80.442 E4.83066
G1 X154.041 Y80.764 E4.85945
G1 X154.541 Y81.089 E4.88722
G1 X154.813 Y81.272 E4.90249
G1 X155.126 Y81.489 E4.92022
G1 X155.627 Y81.858 E4.94919
G1 X156.037 Y82.178 E4.97341
G1 X156.326 Y82.411 E4.9907
G1 X156.65 Y82.682 E5.01037
G1 X157.079 Y83.06 E5.03699
G1 X157.486 Y83.438 E5.06286
G1 X157.763 Y83.705 E5.08077
G1 X158.025 Y83.966 E5.09799
G1 X158.447 Y84.41 E5.12651
G1 X158.869 Y84.88 E5.15593
G1 X160.793 Y87.096 E5.29258
G1 X162.53 Y88.986 E5.41211
G1 X164.241 Y90.746 E5.5264
G1 X166.059 Y92.512 E5.64442
G1 X167.91 Y94.213 E5.76148
G1 X168.399 Y94.633 E5.79149
G1 X168.513 Y94.74 E5.79877
G1 X169.56 Y95.663 E5.86377
G1 X169.792 Y95.872 E5.87831
G1 X169.897 Y95.97 E5.88499
G1 X170.287 Y96.354 E5.91048
G1 X170.577 Y96.653 E5.92988
G1 X171.201 Y97.353 E5.97354
G1 X172.014 Y98.489 E6.03859
G1 X172.477 Y99.305 E6.08228
G1 X172.926 Y100.301 E6.13315
G1 X173.236 Y101.095 E6.17284
G1 X176.683 Y110.245 E6.62813
G1 X176.93 Y110.929 E6.66199
G1 X177.211 Y111.824 E6.70567
G1 X177.414 Y112.739 E6.74932
G1 X177.539 Y113.669 E6.79301
G1 X177.584 Y114.606 E6.83669
G1 X177.549 Y115.543 E6.88035
G1 X177.434 Y116.474 E6.92403
G1 X177.241 Y117.391 E6.96767
G1 X176.97 Y118.289 E7.01135
G1 X176.623 Y119.161 E7.05505
G1 X176.204 Y120 E7.09871
G1 X175.908 Y120.502 E7.12585
G1 X175.299 Y121.473 E7.17922
G1 X174.897 Y122.097 E7.21379
G1 X173.589 Y124.258 E7.33141
G1 X172.349 Y126.443 E7.44839
G1 X171.12 Y128.759 E7.57048
G1 X170.646 Y129.567 E7.6141
G1 X170.104 Y130.333 E7.65779
G1 X169.499 Y131.049 E7.70144
G1 X168.835 Y131.712 E7.74513
G1 X167.99 Y132.411 E7.7962
G1 X167.204 Y132.997 E7.84185
G1 X160.931 Y137.54 E8.2025
G1 X160.207 Y138.049 E8.24371
G1 X159.417 Y138.555 E8.2874
G1 X158.587 Y138.991 E8.33105
G1 X157.723 Y139.355 E8.37471
G1 X156.831 Y139.644 E8.41837
G1 X155.917 Y139.856 E8.46206
G1 X154.989 Y139.99 E8.50572
G1 X154.067 Y140.044 E8.54872
G1 X153.265 Y140.057 E8.58607
G1 X133.248 Y140.058 E9.51815
G1 X130.402 Y140.101 E9.65069
G1 X130.068 Y140.111 E9.66625
G1 X129.726 Y140.116 E9.68217
G1 X129.315 Y140.116 E9.70131
G1 X129.039 Y140.113 E9.71416
G1 X128.561 Y140.101 E9.73643
G1 X127.968 Y140.07 E9.76408
G1 X127.539 Y140.036 E9.78412
G1 X127.2 Y140.004 E9.79997
G1 X126.693 Y139.948 E9.82372
G1 X126.272 Y139.893 E9.84349
G1 X126.105 Y139.869 E9.85135
G1 X123.63 Y139.488 E9.96795
G1 X121.144 Y139.178 E10.08461
G1 X118.656 Y138.939 E10.20099
G1 X116.14 Y138.768 E10.31842
G1 X113.583 Y138.668 E10.43757
G1 X111.093 Y138.64 E10.55353
G1 X108.608 Y138.683 E10.66926
G1 X106.052 Y138.8 E10.7884
G1 X103.56 Y138.984 E10.90475
G1 X101.038 Y139.242 E11.0228
G1 X98.565 Y139.566 E11.13894
G1 X95.56 Y140.047 E11.28064
G1 X94.628 Y140.155 E11.32433
G1 X93.996 Y140.184 E11.35379
G1 X93.178 Y140.197 E11.39189
G1 X73.158 Y140.198 E12.3241
G1 X70.312 Y140.241 E12.45664
G1 X69.978 Y140.251 E12.4722
G1 X69.636 Y140.256 E12.48812
G1 X69.225 Y140.256 E12.50726
G1 X68.924 Y140.252 E12.52128
G1 X68.413 Y140.238 E12.54508
G1 X67.822 Y140.206 E12.57264
G1 X67.404 Y140.172 E12.59217
G1 X67.079 Y140.14 E12.60738
G1 X66.594 Y140.086 E12.6301
G1 X66.003 Y140.004 E12.65788
G1 X65.541 Y139.927 E12.67969
G1 X65.187 Y139.863 E12.69644
G1 X64.703 Y139.766 E12.71943
G1 X64.129 Y139.634 E12.74685
G1 X63.724 Y139.53 E12.76632
G1 X63.425 Y139.449 E12.78075
G1 X62.993 Y139.325 E12.80168
G1 X62.431 Y139.147 E12.82913
G1 X62.009 Y139.001 E12.84992
G1 X61.722 Y138.898 E12.86412
G1 X61.245 Y138.718 E12.88786
G1 X60.625 Y138.461 E12.91911
G1 X60.195 Y138.268 E12.94106
G1 X59.919 Y138.14 E12.95522
G1 X59.49 Y137.933 E12.9774
G1 X58.968 Y137.664 E13.00475
G1 X58.599 Y137.461 E13.02436
G1 X58.311 Y137.297 E13.03979
G1 X57.911 Y137.061 E13.06142
G1 X57.41 Y136.747 E13.08895
G1 X57.01 Y136.481 E13.11132
G1 X56.742 Y136.296 E13.12648
G1 X56.344 Y136.014 E13.14919
G1 X55.835 Y135.631 E13.17886
G1 X55.516 Y135.376 E13.19787
G1 X55.286 Y135.187 E13.21173
G1 X54.906 Y134.866 E13.2349
G1 X54.01 Y134.019 E13.29231
G1 X53.357 Y133.327 E13.33661
G1 X52.584 Y132.487 E13.38977
G1 X50.831 Y130.687 E13.50676
G1 X49.017 Y128.926 E13.62449
G1 X47.158 Y127.221 E13.74194
G1 X45.285 Y125.599 E13.85732
G1 X43.274 Y123.954 E13.97829
G1 X42.769 Y123.559 E14.00815
G1 X42.329 Y123.203 E14.0345
G1 X41.89 Y122.826 E14.06145
G1 X41.73 Y122.681 E14.0715
G1 X41.497 Y122.463 E14.08636
G1 X41.243 Y122.219 E14.10276
G1 X40.374 Y121.281 E14.1623
G1 X40.182 Y121.048 E14.17636
G1 X40.006 Y120.829 E14.18944
G1 X39.798 Y120.563 E14.20517
G1 X39.138 Y119.621 E14.25872
G1 X39.011 Y119.418 E14.26987
G1 X38.818 Y119.099 E14.28723
G1 X38.621 Y118.759 E14.30553
G1 X38.071 Y117.675 E14.36213
G1 X37.957 Y117.416 E14.37531
G1 X37.85 Y117.165 E14.38801
G1 X37.728 Y116.868 E14.40297
G1 X37.383 Y115.903 E14.45069
G1 X37.319 Y115.693 E14.46091
G1 X36.71 Y113.803 E14.55337
G1 X34.46 Y107.059 E14.88441
G1 X34.239 Y106.363 E14.91842
G1 X33.993 Y105.458 E14.96209
G1 X33.826 Y104.535 E15.00576
G1 X33.738 Y103.601 E15.04945
G1 X33.729 Y102.664 E15.09308
G1 X33.801 Y101.728 E15.13679
G1 X33.952 Y100.803 E15.18044
G1 X34.181 Y99.893 E15.22413
G1 X34.487 Y99.007 E15.26778
G1 X34.867 Y98.149 E15.31147
G1 X35.295 Y97.366 E15.35302
G1 X36.011 Y96.175 E15.41773
G1 X37.061 Y94.382 E15.51448
G1 X38.265 Y92.199 E15.63057
G1 X39.711 Y89.367 E15.77863
G1 X39.76 Y89.266 E15.78386
G1 X40.207 Y88.442 E15.82751
G1 X40.724 Y87.659 E15.8712
G1 X41.305 Y86.923 E15.91486
G1 X41.947 Y86.239 E15.95855
G1 X42.878 Y85.425 E16.01613
G1 X43.014 Y85.319 E16.02416
G1 X43.241 Y85.147 E16.03742
G1 X43.588 Y84.891 E16.0575
G1 X50.354 Y79.992 E16.44647
G1 X50.875 Y79.626 E16.47612
G0 F6000 X51.105 Y79.953
G1 F3300 X51.88 Y79.457 E16.51896
G1 X52.696 Y79.03 E16.56185
G1 X53.546 Y78.676 E16.60472
G1 X54.423 Y78.397 E16.64757
G1 X55.321 Y78.194 E16.69044
G1 X56.234 Y78.071 E16.73334
G1 X57.025 Y78.028 E16.77023
G1 X57.821 Y78.015 E16.8073
G1 X82.82 Y78.014 E17.97136
G1 X83.592 Y78.024 E18.00731
G1 X84.845 Y78.117 E18.06581
G1 X86.249 Y78.305 E18.13177
G1 X86.459 Y78.335 E18.14165
G1 X87.621 Y78.514 E18.1964
G1 X90.138 Y78.83 E18.31452
G1 X92.685 Y79.077 E18.43367
G1 X95.155 Y79.246 E18.54896
G1 X97.733 Y79.349 E18.66909
G1 X100.209 Y79.378 E18.78439
G1 X102.789 Y79.335 E18.90455
G1 X105.263 Y79.224 E19.01986
G1 X107.814 Y79.037 E19.13897
G1 X110.338 Y78.78 E19.2571
G1 X112.851 Y78.452 E19.37511
G1 X114.353 Y78.222 E19.44587
G1 X115.583 Y78.024 E19.50388
G1 X116.498 Y77.917 E19.54677
G1 X117.088 Y77.891 E19.57427
G1 X118.09 Y77.875 E19.62094
G1 X143.063 Y77.876 E20.78378
G1 X143.687 Y77.885 E20.81284
G1 X144.938 Y77.977 E20.87125
G1 X145.679 Y78.076 E20.90606
G1 X145.967 Y78.119 E20.91962
G1 X146.202 Y78.157 E20.93071
G1 X146.91 Y78.296 E20.9643
G1 X147.508 Y78.435 E20.99289
G1 X147.79 Y78.505 E21.00642
G1 X148.157 Y78.601 E21.02408
G1 X148.746 Y78.773 E21.05266
G1 X149.193 Y78.918 E21.07454
G1 X149.451 Y79.006 E21.08723
G1 X149.873 Y79.155 E21.10807
G1 X150.494 Y79.396 E21.13909
G1 X151.011 Y79.616 E21.16525
G1 X151.288 Y79.739 E21.17936
G1 X151.66 Y79.91 E21.19843
G1 X152.208 Y80.181 E21.22689
G1 X152.684 Y80.434 E21.252
G1 X152.977 Y80.596 E21.26758
G1 X153.314 Y80.789 E21.28567
G1 X153.823 Y81.099 E21.31342
G1 X154.323 Y81.424 E21.34119
G1 X154.585 Y81.601 E21.35591
G1 X154.898 Y81.818 E21.37364
G1 X155.381 Y82.173 E21.40156
G1 X155.791 Y82.493 E21.42577
G1 X156.07 Y82.718 E21.44246
G1 X156.394 Y82.989 E21.46213
G1 X156.807 Y83.353 E21.48777
G1 X157.214 Y83.731 E21.51363
G1 X157.481 Y83.988 E21.53089
G1 X157.743 Y84.249 E21.54811
G1 X158.149 Y84.677 E21.57558
G1 X158.692 Y85.284 E21.6135
G1 X160.512 Y87.383 E21.74286
G1 X162.197 Y89.217 E21.85883
G1 X163.994 Y91.064 E21.97883
G1 X165.792 Y92.811 E22.09556
G1 X167.629 Y94.498 E22.2117
G1 X168.138 Y94.936 E22.24297
G1 X168.242 Y95.034 E22.24962
G1 X169.296 Y95.963 E22.31504
G1 X169.519 Y96.165 E22.32905
G1 X169.624 Y96.263 E22.33574
G1 X170 Y96.632 E22.36027
G1 X170.29 Y96.931 E22.37967
G1 X170.902 Y97.619 E22.42254
G1 X171.675 Y98.701 E22.48446
G1 X172.128 Y99.502 E22.52731
G1 X172.554 Y100.447 E22.57558
G1 X172.862 Y101.236 E22.61502
G1 X176.307 Y110.381 E23.07006
G1 X176.554 Y111.065 E23.10392
G1 X176.829 Y111.943 E23.14676
G1 X177.026 Y112.843 E23.18966
G1 X177.145 Y113.756 E23.23254
G1 X177.184 Y114.675 E23.27537
G1 X177.143 Y115.595 E23.31825
G1 X177.023 Y116.508 E23.36113
G1 X176.823 Y117.407 E23.40401
G1 X176.547 Y118.285 E23.44687
G1 X176.195 Y119.136 E23.48975
G1 X175.569 Y120.29 E23.55088
G1 X174.963 Y121.256 E23.60398
G1 X174.562 Y121.878 E23.63844
G1 X173.242 Y124.06 E23.75719
G1 X171.998 Y126.253 E23.87459
G1 X170.767 Y128.571 E23.9968
G1 X170.3 Y129.365 E24.0397
G1 X169.767 Y130.115 E24.08254
G1 X169.17 Y130.816 E24.12541
G1 X168.514 Y131.462 E24.16829
G1 X167.75 Y132.091 E24.21437
G1 X166.969 Y132.673 E24.25972
G1 X160.568 Y137.308 E24.62771
G1 X159.978 Y137.722 E24.66127
G1 X159.202 Y138.218 E24.70416
G1 X158.386 Y138.644 E24.74702
G1 X157.536 Y138.998 E24.7899
G1 X156.658 Y139.277 E24.83279
G1 X155.76 Y139.479 E24.87565
G1 X154.848 Y139.602 E24.9185
G1 X154.061 Y139.644 E24.9552
G1 X153.259 Y139.657 E24.99255
G1 X133.242 Y139.658 E25.92463
G1 X130.385 Y139.701 E26.05768
G1 X130.056 Y139.711 E26.073
G1 X129.726 Y139.716 E26.08837
G1 X129.315 Y139.716 E26.10751
G1 X129.049 Y139.713 E26.1199
G1 X128.571 Y139.701 E26.14216
G1 X128 Y139.671 E26.16879
G1 X127.571 Y139.637 E26.18882
G1 X127.244 Y139.606 E26.20412
G1 X126.737 Y139.55 E26.22787
G1 X126.327 Y139.497 E26.24712
G1 X126.166 Y139.474 E26.25469
G1 X123.67 Y139.09 E26.37228
G1 X121.196 Y138.781 E26.48838
G1 X118.689 Y138.54 E26.60565
G1 X116.147 Y138.368 E26.72429
G1 X113.604 Y138.268 E26.8428
G1 X111.09 Y138.24 E26.95987
G1 X108.583 Y138.283 E27.07662
G1 X106.038 Y138.399 E27.19525
G1 X103.526 Y138.585 E27.31254
G1 X100.981 Y138.846 E27.43166
G1 X98.521 Y139.168 E27.54719
G1 X95.497 Y139.652 E27.68979
G1 X94.582 Y139.758 E27.73268
G1 X93.989 Y139.784 E27.76032
G1 X93.003 Y139.798 E27.80624
G1 X73.152 Y139.798 E28.73058
G1 X70.295 Y139.841 E28.86363
G1 X69.966 Y139.851 E28.87896
G1 X69.636 Y139.856 E28.89433
G1 X69.225 Y139.856 E28.91347
G1 X68.935 Y139.852 E28.92697
G1 X68.424 Y139.838 E28.95077
G1 X67.855 Y139.807 E28.97731
G1 X67.437 Y139.773 E28.99684
G1 X67.123 Y139.743 E29.01152
G1 X66.638 Y139.689 E29.03425
G1 X66.068 Y139.61 E29.06104
G1 X65.606 Y139.533 E29.08285
G1 X65.266 Y139.47 E29.09895
G1 X64.782 Y139.373 E29.12194
G1 X64.229 Y139.247 E29.14835
G1 X63.824 Y139.143 E29.16782
G1 X63.535 Y139.065 E29.18176
G1 X63.103 Y138.941 E29.20269
G1 X62.562 Y138.769 E29.22912
G1 X62.14 Y138.623 E29.24991
G1 X61.864 Y138.523 E29.26358
G1 X61.387 Y138.343 E29.28732
G1 X60.788 Y138.097 E29.31747
G1 X60.358 Y137.904 E29.33942
G1 X60.093 Y137.78 E29.35304
G1 X59.664 Y137.573 E29.37522
G1 X59.161 Y137.313 E29.40159
G1 X58.792 Y137.11 E29.4212
G1 X58.515 Y136.952 E29.43605
G1 X58.115 Y136.716 E29.45768
G1 X57.631 Y136.414 E29.48424
G1 X57.231 Y136.148 E29.50661
G1 X56.973 Y135.97 E29.5212
G1 X56.575 Y135.688 E29.54392
G1 X56.084 Y135.319 E29.57252
G1 X55.765 Y135.064 E29.59153
G1 X55.544 Y134.882 E29.60486
G1 X55.164 Y134.561 E29.62803
G1 X54.301 Y133.745 E29.68333
G1 X53.651 Y133.056 E29.72744
G1 X52.865 Y132.202 E29.78148
G1 X51.114 Y130.404 E29.89835
G1 X49.283 Y128.627 E30.01716
G1 X47.445 Y126.94 E30.13333
G1 X45.516 Y125.271 E30.2521
G1 X43.541 Y123.655 E30.37093
G1 X43.016 Y123.244 E30.40197
G1 X42.581 Y122.892 E30.42803
G1 X42.159 Y122.529 E30.45395
G1 X41.999 Y122.384 E30.46401
G1 X41.774 Y122.174 E30.47834
G1 X41.52 Y121.93 E30.49474
G1 X40.683 Y121.027 E30.55207
G1 X40.491 Y120.794 E30.56613
G1 X40.321 Y120.582 E30.57878
G1 X40.113 Y120.316 E30.5945
G1 X39.477 Y119.409 E30.64609
G1 X39.35 Y119.206 E30.65724
G1 X39.164 Y118.898 E30.67399
G1 X38.967 Y118.558 E30.69229
G1 X38.437 Y117.514 E30.74681
G1 X38.323 Y117.255 E30.75998
G1 X38.22 Y117.013 E30.77223
G1 X38.098 Y116.716 E30.78718
G1 X37.766 Y115.786 E30.83316
G1 X37.703 Y115.58 E30.84319
G1 X37.105 Y113.725 E30.93395
G1 X34.889 Y107.087 E31.25981
G1 X34.62 Y106.242 E31.3011
G1 X34.38 Y105.353 E31.34398
G1 X34.218 Y104.447 E31.38683
G1 X34.135 Y103.53 E31.42971
G1 X34.132 Y102.609 E31.47259
G1 X34.208 Y101.692 E31.51544
G1 X34.364 Y100.785 E31.55829
G1 X34.599 Y99.894 E31.6012
G1 X34.909 Y99.028 E31.64403
G1 X35.294 Y98.191 E31.68693
G1 X35.638 Y97.572 E31.71991
G1 X36.354 Y96.381 E31.78461
G1 X37.407 Y94.582 E31.88168
G1 X38.62 Y92.383 E31.99862
G1 X40.056 Y89.572 E32.1456
G1 X40.119 Y89.442 E32.15233
G1 X40.559 Y88.633 E32.19521
G1 X41.068 Y87.866 E32.23807
G1 X41.641 Y87.145 E32.28096
G1 X42.275 Y86.478 E32.32381
G1 X43.124 Y85.74 E32.37619
G1 X43.26 Y85.634 E32.38422
G1 X43.478 Y85.469 E32.39695
G1 X43.822 Y85.215 E32.41686
G1 X50.584 Y80.319 E32.80559
G1 X51.105 Y79.953 E32.83524
G0 F6000 X51.335 Y80.281
G1 F3300 X52.096 Y79.795 E32.87729
G1 X52.897 Y79.378 E32.91934
G1 X53.732 Y79.034 E32.96139
G1 X54.594 Y78.765 E33.00344
G1 X55.477 Y78.573 E33.04551
G1 X56.373 Y78.46 E33.08756
G1 X57.031 Y78.428 E33.11824
G1 X57.827 Y78.415 E33.15531
G1 X82.82 Y78.414 E34.31909
G1 X83.587 Y78.424 E34.35481
G1 X84.792 Y78.513 E34.41107
G1 X86.196 Y78.701 E34.47703
G1 X86.398 Y78.73 E34.48653
G1 X87.577 Y78.912 E34.54208
G1 X90.125 Y79.232 E34.66166
G1 X92.619 Y79.473 E34.77833
G1 X95.145 Y79.646 E34.89623
G1 X97.713 Y79.749 E35.0159
G1 X100.21 Y79.778 E35.13218
G1 X102.779 Y79.735 E35.25182
G1 X105.309 Y79.622 E35.36974
G1 X107.851 Y79.435 E35.48843
G1 X110.389 Y79.177 E35.60722
G1 X112.925 Y78.846 E35.72631
G1 X114.362 Y78.626 E35.794
G1 X115.647 Y78.419 E35.85461
G1 X116.544 Y78.315 E35.89665
G1 X117.095 Y78.29 E35.92234
G1 X117.916 Y78.276 E35.96057
G1 X142.91 Y78.275 E37.1244
G1 X143.681 Y78.285 E37.1603
G1 X144.885 Y78.374 E37.21652
G1 X145.626 Y78.473 E37.25133
G1 X145.903 Y78.514 E37.26437
