;FLAVOR:Marlin
;TIME:5478
;Filament used: 1.59303m
;Layer height: 0.2
;MINX:75.398
;MINY:35.401
;MINZ:0.2
;MAXX:144.61
;MAXY:184.595
;MAXZ:2.2
;Generated with Cura_SteamEngine master
M140 S80
M105
M190 S80
M104 S215
M105
M109 S215
M82 ;absolute extrusion mode
; Ender 3 Custom Start G-code
G92 E0 ; Reset Extruder
G28 ; Home all axes
G1 Z2.0 F3000 ; Move Z Axis up little to prevent scratching of Heat Bed
G1 X0.1 Y20 Z0.3 F5000.0 ; Move to start position
G1 X0.1 Y200.0 Z0.3 F1500.0 E15 ; Draw the first line
G1 X0.4 Y200.0 Z0.3 F5000.0 ; Move to side a little
G1 X0.4 Y20 Z0.3 F1500.0 E30 ; Draw the second line
G92 E0 ; Reset Extruder
G1 Z2.0 F3000 ; Move Z Axis up little to prevent scratching of Heat Bed
G1 X5 Y20 Z0.3 F5000.0 ; Move over to prevent blob squish
G92 E0
G92 E0
G1 F1500 E-6.5
;LAYER_COUNT:10
;LAYER:0
M107
G1 F300 Z0.4
G0 F6000 X80.73 Y52.609 Z0.4
;TYPE:SKIRT
G1 F300 Z0.2
G1 F1500 E0
G1 F1200 X81.11 Y52.028 E0.02309
G1 X81.24 Y51.834 E0.03086
G1 X81.805 Y51.009 E0.06412
G1 X82.552 Y49.901 E0.10856
G1 X83.134 Y49.025 E0.14354
G1 X83.522 Y48.435 E0.16703
G1 X83.723 Y48.135 E0.17904
G1 X83.97 Y47.756 E0.19408
G1 X84.122 Y47.528 E0.2032
G1 X85.161 Y46.017 E0.26419
G1 X85.235 Y45.89 E0.26908
G1 X86.362 Y44.223 E0.336
G1 X86.498 Y44.026 E0.34397
G1 X86.884 Y43.481 E0.36618
G1 X87.328 Y42.897 E0.39058
G1 X87.507 Y42.677 E0.40001
G1 X88.13 Y41.975 E0.43123
G1 X88.687 Y41.437 E0.45699
G1 X88.993 Y41.162 E0.47067
G1 X89.717 Y40.566 E0.50186
G1 X90.489 Y40.033 E0.53306
G1 X91.303 Y39.568 E0.56424
G1 X91.844 Y39.307 E0.58422
G1 X92.116 Y39.185 E0.59414
G1 X92.353 Y39.082 E0.60273
G1 X93.518 Y38.592 E0.64477
G1 X94.039 Y38.367 E0.66364
G1 X94.821 Y38.042 E0.69181
G1 X96.558 Y37.294 E0.75471
G1 X96.703 Y37.239 E0.75987
G1 X97.976 Y36.685 E0.80604
G1 X98.437 Y36.497 E0.8226
G1 X98.955 Y36.299 E0.84105
G1 X99.659 Y36.057 E0.86581
G1 X100.168 Y35.901 E0.88351
G1 X101.075 Y35.665 E0.91468
G1 X102 Y35.506 E0.9459
G1 X102.521 Y35.452 E0.96332
G1 X102.773 Y35.432 E0.97173
G1 X103.885 Y35.401 E1.00873
G1 X105.021 Y35.426 E1.04652
G1 X105.347 Y35.438 E1.05737
G1 X105.858 Y35.466 E1.07439
G1 X106.85 Y35.539 E1.10748
G1 X107.645 Y35.608 E1.13402
G1 X110.22 Y35.794 E1.21989
G1 X112.733 Y35.904 E1.30355
G1 X114.564 Y35.94 E1.36446
G1 X118.648 Y35.978 E1.5003
G1 X119.518 Y36 E1.52925
G1 X120.454 Y36.065 E1.56045
G1 X121.381 Y36.209 E1.59166
G1 X122.292 Y36.431 E1.62284
G1 X123.18 Y36.731 E1.65402
G1 X124.302 Y37.236 E1.69494
G1 X125.133 Y37.668 E1.72609
G1 X125.375 Y37.798 E1.73523
G1 X126.232 Y38.272 E1.7678
G1 X126.911 Y38.658 E1.79378
G1 X127.548 Y39.026 E1.81825
G1 X130.098 Y40.453 E1.91544
G1 X131.371 Y41.139 E1.96353
G1 X131.934 Y41.465 E1.98517
G1 X132.23 Y41.648 E1.99675
G1 X132.751 Y41.991 E2.01749
G1 X132.974 Y42.147 E2.02655
G1 X133.692 Y42.694 E2.05657
G1 X133.868 Y42.84 E2.06417
G1 X134.306 Y43.223 E2.08352
G1 X134.501 Y43.403 E2.09235
G1 X135.433 Y44.375 E2.13714
G1 X135.605 Y44.578 E2.14599
G1 X136.313 Y45.511 E2.18494
G1 X136.592 Y45.922 E2.20147
G1 X137.107 Y46.758 E2.23412
G1 X137.343 Y47.183 E2.25029
G1 X138.869 Y49.835 E2.35206
G1 X139.042 Y50.125 E2.36329
G1 X139.402 Y50.739 E2.38696
G1 X139.955 Y51.705 E2.42399
G1 X140.16 Y52.059 E2.43759
G1 X140.82 Y53.222 E2.48207
G1 X141.091 Y53.713 E2.50072
G1 X141.346 Y54.195 E2.51886
G1 X141.579 Y54.654 E2.53598
G1 X141.698 Y54.896 E2.54495
G1 X141.792 Y55.093 E2.55221
G1 X141.913 Y55.356 E2.56184
G1 X142.108 Y55.794 E2.57778
G1 X142.232 Y56.083 E2.58824
G1 X142.362 Y56.399 E2.59961
G1 X142.555 Y56.903 E2.61756
G1 X142.68 Y57.255 E2.62998
G1 X142.764 Y57.5 E2.6386
G1 X142.837 Y57.722 E2.64637
G1 X142.994 Y58.243 E2.66447
G1 X143.116 Y58.687 E2.67978
G1 X143.243 Y59.197 E2.69726
G1 X143.366 Y59.746 E2.71597
G1 X143.429 Y60.05 E2.7263
G1 X143.514 Y60.502 E2.7416
G1 X143.584 Y60.916 E2.75556
G1 X143.623 Y61.163 E2.76388
G1 X143.761 Y62.112 E2.79578
G1 X144.045 Y63.858 E2.85461
G1 X144.23 Y65.064 E2.89519
G1 X144.279 Y65.426 E2.90734
G1 X144.365 Y66.145 E2.93143
G1 X144.4 Y66.478 E2.94256
G1 X144.415 Y66.647 E2.94821
G1 X144.44 Y66.992 E2.95971
G1 X144.47 Y67.517 E2.9772
G1 X144.483 Y67.825 E2.98745
G1 X144.491 Y68.1 E2.9966
G1 X144.496 Y68.442 E3.00798
G1 X144.495 Y68.933 E3.02431
G1 X144.49 Y69.248 E3.03479
G1 X144.437 Y70.942 E3.09116
G1 X144.389 Y73.507 E3.17649
G1 X144.413 Y75.988 E3.25901
G1 X144.551 Y79.277 E3.3685
G1 X144.589 Y79.901 E3.38929
G1 X144.609 Y80.514 E3.40969
G1 X144.61 Y80.744 E3.41734
G1 X144.56 Y81.839 E3.4538
G1 X144.538 Y82.069 E3.46148
G1 X144.347 Y83.312 E3.50331
G1 X144.244 Y83.796 E3.51977
G1 X144.164 Y84.146 E3.53171
G1 X144.003 Y84.796 E3.55398
G1 X143.42 Y87.307 E3.63972
G1 X142.913 Y89.808 E3.7246
G1 X142.49 Y92.248 E3.80696
G1 X142.129 Y94.749 E3.89101
G1 X141.839 Y97.254 E3.97488
G1 X141.621 Y99.758 E4.05848
G1 X141.475 Y102.256 E4.1417
G1 X141.398 Y104.791 E4.22606
G1 X141.392 Y107.309 E4.30981
G1 X141.459 Y109.804 E4.39282
G1 X141.598 Y112.355 E4.47779
G1 X141.803 Y114.828 E4.56033
G1 X142.086 Y117.358 E4.645
G1 X142.433 Y119.834 E4.72816
G1 X142.902 Y122.582 E4.82088
G1 X143.103 Y123.659 E4.85732
G1 X143.248 Y124.722 E4.893
G1 X143.264 Y124.905 E4.89911
G1 X143.306 Y125.842 E4.93031
G1 X143.28 Y126.612 E4.95593
G1 X143.226 Y127.39 E4.98187
G1 X143.111 Y128.773 E5.02803
G1 X142.974 Y131.265 E5.11104
G1 X142.908 Y133.78 E5.19471
G1 X142.913 Y136.311 E5.2789
G1 X142.989 Y138.833 E5.36282
G1 X143.134 Y141.315 E5.44551
G1 X143.351 Y143.813 E5.5289
G1 X143.593 Y145.803 E5.59558
G1 X143.764 Y147.304 E5.64583
G1 X143.816 Y147.909 E5.66602
G1 X143.828 Y148.115 E5.67289
G1 X143.843 Y149.053 E5.70409
G1 X143.778 Y149.989 E5.73529
G1 X143.671 Y150.715 E5.7597
G1 X143.629 Y150.947 E5.76754
G1 X143.423 Y151.861 E5.79871
G1 X142.979 Y153.17 E5.84468
G1 X142.758 Y153.703 E5.86387
G1 X142.016 Y155.432 E5.92645
G1 X141.086 Y157.781 E6.01048
G1 X140.235 Y160.119 E6.09323
G1 X139.429 Y162.548 E6.17835
G1 X138.713 Y164.927 E6.26098
G1 X138.051 Y167.377 E6.34539
G1 X137.461 Y169.825 E6.42915
G1 X136.949 Y172.267 E6.51213
G1 X136.548 Y174.493 E6.58736
G1 X136.468 Y174.908 E6.60142
G1 X136.252 Y175.821 E6.63262
G1 X135.958 Y176.711 E6.6638
G1 X135.425 Y177.903 E6.70723
G1 X135.348 Y178.051 E6.71278
G1 X134.88 Y178.864 E6.74398
G1 X134.345 Y179.634 E6.77516
G1 X133.746 Y180.355 E6.80634
G1 X133.087 Y181.023 E6.83755
G1 X132.374 Y181.633 E6.86876
G1 X131.612 Y182.179 E6.89994
G1 X130.806 Y182.659 E6.93114
G1 X129.962 Y183.068 E6.96233
G1 X129.087 Y183.403 E6.99349
G1 X128.185 Y183.663 E7.02472
G1 X127.265 Y183.846 E7.05592
G1 X126.333 Y183.949 E7.0871
G1 X125.855 Y183.971 E7.10302
G1 X123.237 Y184.034 E7.19012
G1 X120.746 Y184.166 E7.27309
G1 X117.202 Y184.469 E7.39139
G1 X116.556 Y184.537 E7.41299
G1 X115.62 Y184.595 E7.44419
G1 X114.682 Y184.573 E7.47539
G1 X114.067 Y184.514 E7.49594
G1 X113.268 Y184.415 E7.52272
G1 X111.926 Y184.232 E7.56777
G1 X109.391 Y183.959 E7.65257
G1 X106.933 Y183.763 E7.73458
G1 X104.378 Y183.633 E7.81967
G1 X101.888 Y183.577 E7.90251
G1 X99.398 Y183.591 E7.98533
G1 X95.73 Y183.735 E8.10742
G1 X95.33 Y183.758 E8.12075
G1 X94.392 Y183.772 E8.15195
G1 X93.457 Y183.706 E8.18312
G1 X92.53 Y183.56 E8.21434
G1 X91.619 Y183.336 E8.24554
G1 X90.731 Y183.035 E8.27672
G1 X89.872 Y182.66 E8.3079
G1 X88.858 Y182.097 E8.34647
G1 X88.485 Y181.861 E8.36116
G1 X86.558 Y180.607 E8.43762
G1 X84.384 Y179.281 E8.52232
G1 X82.574 Y178.245 E8.59168
G1 X82.229 Y178.04 E8.60503
G1 X81.444 Y177.526 E8.63624
G1 X80.705 Y176.948 E8.66744
G1 X80.019 Y176.31 E8.6986
G1 X79.389 Y175.615 E8.7298
G1 X78.821 Y174.868 E8.76102
G1 X78.492 Y174.368 E8.78092
G1 X78.411 Y174.237 E8.78605
G1 X77.952 Y173.419 E8.81724
G1 X77.565 Y172.565 E8.84843
G1 X77.252 Y171.681 E8.87962
G1 X77.015 Y170.773 E8.91083
G1 X76.82 Y169.535 E8.95251
G1 X76.791 Y169.242 E8.96231
G1 X76.74 Y167.947 E9.00541
G1 X76.755 Y167.214 E9.0298
G1 X76.805 Y165.75 E9.07852
G1 X76.819 Y163.222 E9.1626
G1 X76.764 Y160.741 E9.24514
G1 X76.634 Y158.185 E9.33026
G1 X76.439 Y155.728 E9.41224
G1 X76.163 Y153.17 E9.49781
G1 X75.908 Y151.257 E9.562
G1 X75.771 Y150.294 E9.59435
G1 X75.679 Y149.36 E9.62557
G1 X75.667 Y148.422 E9.65677
G1 X75.73 Y147.525 E9.68668
G1 X75.783 Y147.061 E9.70221
G1 X76.053 Y144.933 E9.77356
G1 X76.299 Y142.414 E9.85774
G1 X76.472 Y139.938 E9.94029
G1 X76.576 Y137.394 E10.02497
G1 X76.608 Y134.904 E10.1078
G1 X76.568 Y132.346 E10.19289
G1 X76.46 Y129.885 E10.27482
G1 X76.276 Y127.326 E10.36015
G1 X76.005 Y124.664 E10.44915
G1 X75.882 Y123.605 E10.48461
G1 X75.814 Y122.67 E10.51579
G1 X75.826 Y121.732 E10.54699
G1 X75.988 Y120.362 E10.59287
G1 X76.48 Y117.667 E10.68399
G1 X76.858 Y115.197 E10.7671
G1 X77.172 Y112.671 E10.85176
G1 X77.411 Y110.168 E10.93539
G1 X77.577 Y107.691 E11.01796
G1 X77.677 Y105.123 E11.10344
G1 X77.702 Y102.638 E11.18609
G1 X77.658 Y100.11 E11.27019
G1 X77.542 Y97.604 E11.35363
G1 X77.355 Y95.103 E11.43704
G1 X77.096 Y92.586 E11.5212
G1 X76.767 Y90.087 E11.60503
G1 X76.373 Y87.629 E11.68783
G1 X75.896 Y85.182 E11.77075
G1 X75.87 Y85.013 E11.77644
G1 X75.635 Y83.812 E11.81714
G1 X75.498 Y82.927 E11.84693
G1 X75.482 Y82.785 E11.85168
G1 X75.438 Y82.299 E11.86791
G1 X75.424 Y82.093 E11.87478
G1 X75.399 Y81.383 E11.89841
G1 X75.398 Y81.074 E11.90868
G1 X75.42 Y80.344 E11.93297
G1 X75.447 Y79.917 E11.9472
G1 X75.539 Y79.034 E11.97673
G1 X75.642 Y78.324 E12.00059
G1 X75.988 Y75.671 E12.08958
G1 X76.242 Y73.182 E12.17279
G1 X76.424 Y70.699 E12.2556
G1 X76.537 Y68.179 E12.3395
G1 X76.582 Y65.154 E12.44012
G1 X76.582 Y64.896 E12.44871
G1 X76.622 Y63.959 E12.4799
G1 X76.742 Y63.029 E12.51109
G1 X76.94 Y62.112 E12.54229
G1 X77.113 Y61.521 E12.56277
G1 X77.221 Y61.186 E12.57448
G1 X77.316 Y60.904 E12.58437
G1 X78.115 Y58.636 E12.66435
G1 X78.756 Y56.851 E12.72743
G1 X78.984 Y56.241 E12.74909
G1 X79.078 Y55.999 E12.75773
G1 X79.369 Y55.273 E12.78374
G1 X79.501 Y54.957 E12.79513
G1 X79.655 Y54.605 E12.80791
G1 X80.008 Y53.873 E12.83494
G1 X80.211 Y53.489 E12.84939
G1 X80.73 Y52.609 E12.88337
G0 F6000 X81.065 Y52.828
G1 F1200 X81.445 Y52.247 E12.90646
G1 X81.57 Y52.06 E12.91394
G1 X82.091 Y51.299 E12.94461
G1 X82.883 Y50.124 E12.99174
G1 X83.467 Y49.246 E13.02682
G1 X83.855 Y48.658 E13.05025
G1 X84.013 Y48.422 E13.05969
G1 X84.305 Y47.974 E13.07748
G1 X84.452 Y47.754 E13.08628
G1 X85.477 Y46.263 E13.14646
G1 X85.567 Y46.114 E13.15225
G1 X86.694 Y44.447 E13.21918
G1 X86.825 Y44.257 E13.22685
G1 X87.211 Y43.712 E13.24906
G1 X87.639 Y43.149 E13.27259
G1 X87.818 Y42.929 E13.28202
G1 X88.429 Y42.241 E13.31262
G1 X88.955 Y41.735 E13.3369
G1 X89.261 Y41.46 E13.35058
G1 X89.972 Y40.875 E13.38121
G1 X90.73 Y40.354 E13.4118
G1 X91.532 Y39.9 E13.44245
G1 X92.008 Y39.672 E13.46001
G1 X92.28 Y39.55 E13.46992
G1 X92.508 Y39.451 E13.47819
G1 X93.673 Y38.961 E13.52022
G1 X94.193 Y38.737 E13.53906
G1 X94.882 Y38.451 E13.56387
G1 X96.716 Y37.661 E13.63028
G1 X96.873 Y37.601 E13.63587
G1 X98.136 Y37.052 E13.68168
G1 X98.579 Y36.871 E13.6976
G1 X99.097 Y36.673 E13.71604
G1 X99.776 Y36.439 E13.73993
G1 X100.285 Y36.283 E13.75763
G1 X101.176 Y36.052 E13.78825
G1 X102.084 Y35.899 E13.81887
G1 X102.552 Y35.851 E13.83452
G1 X102.804 Y35.831 E13.84293
G1 X103.876 Y35.801 E13.8786
G1 X105.012 Y35.826 E13.91639
G1 X105.327 Y35.837 E13.92687
G1 X105.83 Y35.865 E13.94363
G1 X106.816 Y35.937 E13.97651
G1 X107.651 Y36.009 E14.00439
G1 X110.176 Y36.192 E14.08859
G1 X112.748 Y36.305 E14.17422
G1 X114.552 Y36.34 E14.23423
G1 X118.644 Y36.378 E14.37034
G1 X119.508 Y36.4 E14.39908
G1 X120.426 Y36.464 E14.42969
G1 X121.335 Y36.608 E14.4603
G1 X122.229 Y36.83 E14.49094
G1 X123.1 Y37.128 E14.52156
G1 X124.117 Y37.591 E14.55872
G1 X124.948 Y38.023 E14.58987
G1 X125.181 Y38.148 E14.59867
G1 X126.034 Y38.62 E14.63109
G1 X126.71 Y39.004 E14.65695
G1 X127.357 Y39.378 E14.68181
G1 X129.891 Y40.795 E14.77837
G1 X131.181 Y41.491 E14.82712
G1 X131.724 Y41.805 E14.84798
G1 X132.02 Y41.988 E14.85956
G1 X132.522 Y42.318 E14.87954
G1 X132.745 Y42.474 E14.88859
G1 X133.437 Y43.002 E14.91754
G1 X133.613 Y43.148 E14.92515
G1 X134.035 Y43.517 E14.94379
G1 X134.23 Y43.697 E14.95262
G1 X135.127 Y44.634 E14.99576
G1 X135.299 Y44.837 E15.00461
G1 X135.982 Y45.736 E15.04216
G1 X136.261 Y46.147 E15.05868
G1 X136.757 Y46.952 E15.09013
G1 X136.989 Y47.37 E15.10603
G1 X138.511 Y50.014 E15.2075
G1 X138.997 Y50.838 E15.23932
G1 X139.812 Y52.257 E15.29375
G1 X140.47 Y53.416 E15.33808
G1 X140.738 Y53.902 E15.35654
G1 X140.989 Y54.376 E15.37437
G1 X141.222 Y54.835 E15.3915
G1 X141.337 Y55.068 E15.40014
G1 X141.431 Y55.265 E15.4074
G1 X141.548 Y55.519 E15.4167
G1 X141.743 Y55.957 E15.43264
G1 X141.862 Y56.235 E15.4427
G1 X141.992 Y56.551 E15.45407
G1 X142.178 Y57.037 E15.47138
G1 X142.303 Y57.389 E15.4838
G1 X142.457 Y57.847 E15.49987
G1 X142.608 Y58.349 E15.51731
G1 X142.73 Y58.793 E15.53262
G1 X142.853 Y59.285 E15.54949
G1 X142.976 Y59.834 E15.5682
G1 X143.037 Y60.126 E15.57812
G1 X143.12 Y60.569 E15.59311
G1 X143.19 Y60.983 E15.60708
G1 X143.227 Y61.221 E15.61509
G1 X143.36 Y62.13 E15.64564
G1 X143.649 Y63.919 E15.70592
G1 X143.834 Y65.125 E15.7465
G1 X143.882 Y65.473 E15.75818
G1 X143.968 Y66.192 E15.78227
G1 X144.001 Y66.514 E15.79303
G1 X144.016 Y66.683 E15.79868
G1 X144.041 Y67.015 E15.80975
G1 X144.071 Y67.54 E15.82724
G1 X144.084 Y67.837 E15.83713
G1 X144.092 Y68.112 E15.84628
G1 X144.096 Y68.442 E15.85726
G1 X144.095 Y68.933 E15.87359
G1 X144.09 Y69.236 E15.88367
G1 X144.037 Y70.924 E15.93984
G1 X143.989 Y73.504 E16.02566
G1 X144.013 Y75.978 E16.10795
G1 X144.153 Y79.317 E16.2191
G1 X144.19 Y79.925 E16.23936
G1 X144.209 Y80.516 E16.25903
G1 X144.21 Y80.746 E16.26668
G1 X144.162 Y81.801 E16.30181
G1 X144.14 Y82.031 E16.30949
G1 X143.956 Y83.228 E16.34977
G1 X143.853 Y83.712 E16.36623
G1 X143.775 Y84.05 E16.37777
G1 X143.621 Y84.674 E16.39914
G1 X143.03 Y87.217 E16.48598
G1 X142.521 Y89.725 E16.5711
G1 X142.094 Y92.194 E16.65443
G1 X141.734 Y94.683 E16.73808
G1 X141.442 Y97.209 E16.82265
G1 X141.222 Y99.733 E16.90692
G1 X141.074 Y102.258 E16.99105
G1 X140.998 Y104.777 E17.07487
G1 X140.992 Y107.319 E17.15942
G1 X141.059 Y109.836 E17.24316
G1 X141.196 Y112.339 E17.32654
G1 X141.409 Y114.907 E17.41224
G1 X141.686 Y117.387 E17.49524
G1 X142.036 Y119.886 E17.57917
G1 X142.519 Y122.717 E17.67469
G1 X142.709 Y123.732 E17.70903
G1 X142.85 Y124.757 E17.74345
G1 X142.866 Y124.94 E17.74956
G1 X142.906 Y125.86 E17.78018
G1 X142.881 Y126.585 E17.80431
G1 X142.827 Y127.357 E17.83005
G1 X142.714 Y128.719 E17.87551
G1 X142.574 Y131.268 E17.96041
G1 X142.508 Y133.77 E18.04366
G1 X142.513 Y136.324 E18.12861
G1 X142.588 Y138.832 E18.21206
G1 X142.737 Y141.375 E18.29679
G1 X142.951 Y143.84 E18.37908
G1 X143.196 Y145.848 E18.44636
G1 X143.367 Y147.349 E18.49661
G1 X143.417 Y147.933 E18.5161
G1 X143.429 Y148.139 E18.52297
G1 X143.443 Y149.059 E18.55357
G1 X143.376 Y149.977 E18.58418
G1 X143.277 Y150.643 E18.60658
G1 X143.235 Y150.875 E18.61442
G1 X143.032 Y151.773 E18.64504
G1 X142.609 Y153.018 E18.68878
G1 X142.391 Y153.545 E18.70774
G1 X141.641 Y155.293 E18.77101
G1 X140.709 Y157.646 E18.85519
G1 X139.855 Y159.993 E18.93825
G1 X139.053 Y162.412 E19.02302
G1 X138.327 Y164.821 E19.1067
G1 X137.662 Y167.282 E19.19149
G1 X137.073 Y169.729 E19.2752
G1 X136.551 Y172.22 E19.35985
G1 X136.155 Y174.417 E19.4341
G1 X136.075 Y174.832 E19.44816
G1 X135.862 Y175.728 E19.47879
G1 X135.572 Y176.602 E19.50942
G1 X135.07 Y177.718 E19.55012
G1 X134.993 Y177.866 E19.55567
G1 X134.533 Y178.664 E19.5863
G1 X134.006 Y179.418 E19.6169
G1 X133.415 Y180.124 E19.64752
G1 X132.765 Y180.776 E19.67814
G1 X132.061 Y181.37 E19.70878
G1 X131.308 Y181.899 E19.73939
G1 X130.512 Y182.362 E19.77002
G1 X129.679 Y182.754 E19.80064
G1 X128.815 Y183.072 E19.83126
G1 X127.927 Y183.313 E19.86186
G1 X127.021 Y183.477 E19.89248
G1 X125.845 Y183.571 E19.93172
G1 X123.207 Y183.635 E20.01949
G1 X120.722 Y183.766 E20.10225
G1 X117.231 Y184.065 E20.21879
G1 X116.514 Y184.14 E20.24277
G1 X115.595 Y184.195 E20.27339
G1 X114.675 Y184.171 E20.304
G1 X114.116 Y184.117 E20.32268
G1 X113.323 Y184.019 E20.34925
G1 X111.96 Y183.833 E20.39501
G1 X109.464 Y183.564 E20.47851
