;FLAVOR:Marlin
;TIME:4655
;Filament used: 1.40885m
;Layer height: 0.2
;MINX:71.846
;MINY:54.206
;MINZ:0.2
;MAXX:147.622
;MAXY:165.782
;MAXZ:3.4
;Generated with Cura_SteamEngine master
M140 S60
M105
M190 S60
M104 S205
M105
M109 S205
M82 ;absolute extrusion mode
; Ender 3 Custom Start G-code
G92 E0 ; Reset Extruder
G28 ; Home all axes
G1 Z2.0 F3000 ; Move Z Axis up little to prevent scratching of Heat Bed
G1 X0.1 Y20 Z0.3 F5000.0 ; Move to start position
G1 X0.1 Y200.0 Z0.3 F1500.0 E15 ; Draw the first line
G1 X0.4 Y200.0 Z0.3 F5000.0 ; Move to side a little
G1 X0.4 Y20 Z0.3 F1500.0 E30 ; Draw the second line
G92 E0 ; Reset Extruder
G1 Z2.0 F3000 ; Move Z Axis up little to prevent scratching of Heat Bed
G1 X5 Y20 Z0.3 F5000.0 ; Move over to prevent blob squish
G92 E0
G92 E0
G1 F3600 E-6
;LAYER_COUNT:17
;LAYER:0
M106 S255
G0 F6000 X75.904 Y60.203 Z0.2
;TYPE:SKIRT
G1 F3600 E0
G1 F3300 X76.511 Y59.46 E0.03191
G1 X76.694 Y59.255 E0.04105
G1 X77.348 Y58.582 E0.07226
G1 X78.057 Y57.968 E0.10346
G1 X78.478 Y57.65 E0.12101
G1 X78.713 Y57.481 E0.13063
G1 X79.497 Y56.966 E0.16183
G1 X80.322 Y56.52 E0.19302
G1 X81.182 Y56.146 E0.22422
G1 X82.071 Y55.846 E0.25542
G1 X82.982 Y55.624 E0.28661
G1 X83.685 Y55.507 E0.31031
G1 X83.858 Y55.484 E0.31612
G1 X84.339 Y55.431 E0.33221
G1 X84.78 Y55.392 E0.34694
G1 X85.09 Y55.369 E0.35728
G1 X86.19 Y55.303 E0.39393
G1 X88.791 Y55.11 E0.48068
G1 X91.896 Y54.782 E0.58452
G1 X92.448 Y54.714 E0.60302
G1 X92.792 Y54.677 E0.61453
G1 X93.167 Y54.643 E0.62705
G1 X95.449 Y54.46 E0.7032
G1 X96.887 Y54.312 E0.75128
G1 X97.72 Y54.258 E0.77904
G1 X98.472 Y54.238 E0.80406
G1 X101.406 Y54.207 E0.90165
G1 X102.44 Y54.206 E0.93604
G1 X105.102 Y54.23 E1.02458
G1 X106.765 Y54.268 E1.07991
G1 X109.404 Y54.293 E1.16769
G1 X110.873 Y54.265 E1.21656
G1 X111.026 Y54.269 E1.22165
G1 X112.856 Y54.232 E1.28253
G1 X115.817 Y54.207 E1.38101
G1 X116.862 Y54.209 E1.41577
G1 X119.653 Y54.239 E1.5086
G1 X120.284 Y54.255 E1.5296
G1 X120.904 Y54.288 E1.55025
G1 X121.237 Y54.316 E1.56136
G1 X123.585 Y54.54 E1.63981
G1 X125.125 Y54.664 E1.6912
G1 X125.434 Y54.693 E1.70152
G1 X126.431 Y54.803 E1.73488
G1 X127.411 Y54.923 E1.76772
G1 X129.941 Y55.161 E1.85224
G1 X131.934 Y55.294 E1.91868
G1 X133.276 Y55.377 E1.9634
G1 X133.834 Y55.426 E1.98203
G1 X134.126 Y55.459 E1.9918
G1 X135.224 Y55.639 E2.02881
G1 X136.132 Y55.875 E2.06001
G1 X137.016 Y56.187 E2.09119
G1 X137.637 Y56.458 E2.11373
G1 X138.778 Y57.001 E2.15575
G1 X140.032 Y57.614 E2.20218
G1 X141.241 Y58.18 E2.24658
G1 X142.072 Y58.614 E2.27776
G1 X142.864 Y59.117 E2.30897
G1 X143.609 Y59.686 E2.34014
G1 X144.304 Y60.316 E2.37134
G1 X144.943 Y61.003 E2.40255
G1 X145.52 Y61.742 E2.43373
G1 X146.033 Y62.527 E2.46492
G1 X146.477 Y63.354 E2.49614
G1 X146.848 Y64.215 E2.52733
G1 X147.175 Y65.207 E2.56207
G1 X147.219 Y65.366 E2.56755
G1 X147.43 Y66.28 E2.59875
G1 X147.563 Y67.208 E2.62993
G1 X147.616 Y68.16 E2.66165
G1 X147.622 Y68.633 E2.67738
G1 X147.594 Y69.571 E2.70859
G1 X147.452 Y70.707 E2.74667
G1 X147.09 Y72.734 E2.81515
G1 X146.721 Y75.192 E2.89782
G1 X146.415 Y77.722 E2.98259
G1 X146.183 Y80.229 E3.06632
G1 X146.131 Y80.998 E3.09196
G1 X146.061 Y81.893 E3.12182
G1 X145.959 Y82.989 E3.15843
G1 X145.925 Y83.31 E3.16917
G1 X145.793 Y84.375 E3.20486
G1 X145.656 Y85.362 E3.238
G1 X145.617 Y85.618 E3.24661
G1 X145.507 Y86.295 E3.26943
G1 X145.181 Y88.371 E3.33932
G1 X144.857 Y90.856 E3.42267
G1 X144.604 Y93.353 E3.50615
G1 X144.419 Y95.889 E3.59072
G1 X144.31 Y98.36 E3.67298
G1 X144.268 Y100.925 E3.75831
G1 X144.299 Y103.417 E3.8412
G1 X144.401 Y105.937 E3.92508
G1 X144.572 Y108.434 E4.00833
G1 X144.816 Y110.944 E4.0922
G1 X145.131 Y113.446 E4.17608
G1 X145.229 Y114.083 E4.19751
G1 X145.247 Y114.25 E4.2031
G1 X145.439 Y115.547 E4.24671
G1 X145.507 Y116.108 E4.26551
G1 X145.524 Y116.286 E4.27145
G1 X145.562 Y116.82 E4.28926
G1 X145.575 Y117.099 E4.29855
G1 X145.563 Y118.333 E4.33959
G1 X145.432 Y120.788 E4.42136
G1 X145.406 Y121.157 E4.43367
G1 X145.377 Y121.492 E4.44485
G1 X145.256 Y122.422 E4.47604
G1 X145.12 Y123.085 E4.49855
G1 X145.034 Y123.447 E4.51093
G1 X144.884 Y124.014 E4.53044
G1 X144.851 Y124.126 E4.53432
G1 X144.532 Y125.053 E4.56693
G1 X144.206 Y125.876 E4.59637
G1 X143.784 Y126.904 E4.63333
G1 X142.898 Y129.247 E4.71664
G1 X142.065 Y131.653 E4.80133
G1 X141.323 Y134.01 E4.88351
G1 X140.626 Y136.464 E4.96836
G1 X140.004 Y138.912 E5.05237
G1 X139.46 Y141.341 E5.13516
G1 X139.405 Y141.619 E5.14459
G1 X139.153 Y142.818 E5.18534
G1 X138.841 Y143.98 E5.22535
G1 X138.765 Y144.212 E5.23347
G1 X138.575 Y144.747 E5.25236
G1 X138.391 Y145.224 E5.26936
G1 X138.016 Y146.084 E5.30057
G1 X137.721 Y146.648 E5.32174
G1 X137.418 Y147.188 E5.34233
G1 X137.234 Y147.504 E5.35449
G1 X137.128 Y147.679 E5.3613
G1 X136.608 Y148.46 E5.3925
G1 X136.032 Y149.184 E5.42328
G1 X135.59 Y149.694 E5.44572
G1 X135.125 Y150.214 E5.46892
G1 X134.678 Y150.701 E5.49091
G1 X134.465 Y150.927 E5.50124
G1 X133.886 Y151.522 E5.52885
G1 X133.259 Y152.148 E5.55832
G1 X132.879 Y152.518 E5.57596
G1 X132.626 Y152.757 E5.58754
G1 X131.813 Y153.5 E5.62417
G1 X131.322 Y153.933 E5.64594
G1 X130.665 Y154.495 E5.6747
G1 X130.452 Y154.673 E5.68393
G1 X129.887 Y155.131 E5.70812
G1 X129.279 Y155.609 E5.73385
G1 X128.624 Y156.111 E5.76129
G1 X128.425 Y156.26 E5.76956
G1 X127.874 Y156.661 E5.79223
G1 X127.077 Y157.222 E5.82464
G1 X126.191 Y157.829 E5.86037
G1 X125.926 Y158.005 E5.87095
G1 X124.741 Y158.766 E5.91779
G1 X124.243 Y159.077 E5.93732
G1 X123.937 Y159.261 E5.94919
G1 X123.277 Y159.644 E5.97457
G1 X123.017 Y159.79 E5.98449
G1 X122.558 Y160.04 E6.00187
G1 X121.674 Y160.472 E6.0346
G1 X121.342 Y160.616 E6.04663
G1 X120.93 Y160.785 E6.06145
G1 X120.327 Y161.018 E6.08295
G1 X119.119 Y161.406 E6.12515
G1 X118.714 Y161.507 E6.13903
G1 X118.392 Y161.581 E6.15002
G1 X117.993 Y161.666 E6.16359
G1 X115.4 Y162.236 E6.25189
G1 X113.007 Y162.834 E6.33393
G1 X110.558 Y163.517 E6.41849
G1 X108.154 Y164.264 E6.50222
G1 X107.881 Y164.357 E6.51181
G1 X105.48 Y165.139 E6.5958
G1 X105.146 Y165.242 E6.60742
G1 X104.926 Y165.306 E6.61504
G1 X104.015 Y165.529 E6.64624
G1 X102.761 Y165.706 E6.68836
G1 X102.447 Y165.732 E6.69884
G1 X102.149 Y165.753 E6.70878
G1 X101.843 Y165.77 E6.71897
G1 X100.905 Y165.782 E6.75017
G1 X99.992 Y165.717 E6.78061
G1 X99.631 Y165.676 E6.7927
G1 X99.309 Y165.634 E6.8035
G1 X99.1 Y165.604 E6.81052
G1 X98.178 Y165.432 E6.84172
G1 X97.274 Y165.181 E6.87292
G1 X96.327 Y164.825 E6.90657
G1 X95.877 Y164.632 E6.92285
G1 X95.032 Y164.226 E6.95404
G1 X93.891 Y163.525 E6.99858
G1 X93.629 Y163.341 E7.00922
G1 X93.387 Y163.166 E7.01916
G1 X92.848 Y162.765 E7.0415
G1 X91.087 Y161.487 E7.11387
G1 X90.634 Y161.167 E7.13232
G1 X89.632 Y160.367 E7.17496
G1 X89.544 Y160.288 E7.1789
G1 X89.187 Y159.954 E7.19516
G1 X89.025 Y159.795 E7.20271
G1 X88.384 Y159.11 E7.23391
G1 X88.004 Y158.641 E7.25399
G1 X87.938 Y158.555 E7.25759
G1 X87.604 Y158.097 E7.27644
G1 X87.489 Y157.93 E7.28319
G1 X86.991 Y157.135 E7.31439
G1 X86.662 Y156.512 E7.33782
G1 X86.485 Y156.149 E7.35126
G1 X86.217 Y155.555 E7.37293
G1 X85.542 Y153.933 E7.43136
G1 X84.509 Y151.575 E7.51699
G1 X83.449 Y149.329 E7.59959
G1 X82.302 Y147.066 E7.68397
G1 X81.536 Y145.658 E7.73729
G1 X80.755 Y144.163 E7.79339
G1 X80.588 Y143.831 E7.80575
G1 X80.38 Y143.397 E7.82175
G1 X80.14 Y142.859 E7.84135
G1 X79.935 Y142.365 E7.85914
G1 X79.81 Y142.05 E7.87041
G1 X79.62 Y141.549 E7.88823
G1 X79.464 Y141.109 E7.90376
G1 X79.346 Y140.753 E7.91623
G1 X79.236 Y140.403 E7.92843
G1 X79.057 Y139.796 E7.94948
G1 X78.976 Y139.505 E7.95953
G1 X78.928 Y139.324 E7.96576
G1 X78.851 Y139.017 E7.97628
G1 X78.758 Y138.612 E7.9901
G1 X78.628 Y138.005 E8.01075
G1 X78.561 Y137.665 E8.02228
G1 X78.484 Y137.229 E8.037
G1 X78.419 Y136.808 E8.05117
G1 X78.333 Y136.169 E8.07262
G1 X78.283 Y135.732 E8.08725
G1 X78.248 Y135.36 E8.09967
G1 X78.217 Y134.946 E8.11348
G1 X78.18 Y134.286 E8.13547
G1 X78.163 Y133.67 E8.15596
G1 X78.163 Y133.296 E8.1684
G1 X78.167 Y133.014 E8.17778
G1 X78.19 Y132.156 E8.20633
G1 X78.283 Y129.831 E8.28372
G1 X78.312 Y127.306 E8.36771
G1 X78.271 Y124.817 E8.4505
G1 X78.156 Y122.261 E8.5356
G1 X77.976 Y119.801 E8.61764
G1 X77.715 Y117.238 E8.70333
G1 X77.395 Y114.788 E8.78551
G1 X76.994 Y112.268 E8.87038
G1 X76.8 Y111.202 E8.90642
G1 X76.647 Y109.96 E8.94804
G1 X76.554 Y108.549 E8.99507
G1 X76.341 Y105.906 E9.08326
G1 X76.07 Y103.429 E9.16614
G1 X75.728 Y100.941 E9.24967
G1 X75.312 Y98.455 E9.3335
G1 X74.822 Y95.955 E9.41823
G1 X74.287 Y93.581 E9.49917
G1 X73.511 Y90.567 E9.60269
G1 X73.368 Y90.049 E9.62056
G1 X73.286 Y89.735 E9.63136
G1 X73.057 Y88.791 E9.66366
G1 X72.958 Y88.35 E9.6787
G1 X72.796 Y87.589 E9.70458
G1 X72.738 Y87.297 E9.71448
G1 X72.606 Y86.582 E9.73866
G1 X72.533 Y86.162 E9.75284
G1 X72.359 Y85.062 E9.78988
G1 X72.322 Y84.807 E9.79845
G1 X72.263 Y84.362 E9.81338
G1 X72.157 Y83.481 E9.84289
G1 X72.059 Y82.567 E9.87347
G1 X72.029 Y82.243 E9.88429
G1 X71.94 Y81.075 E9.92325
G1 X71.907 Y80.539 E9.94111
G1 X71.89 Y80.171 E9.95336
G1 X71.859 Y79.063 E9.99023
G1 X71.847 Y77.969 E10.02662
G1 X71.846 Y77.771 E10.03321
G1 X71.861 Y75.895 E10.0956
G1 X71.892 Y74.688 E10.13576
G1 X71.924 Y73.905 E10.16183
G1 X71.94 Y73.606 E10.17178
G1 X71.975 Y73.146 E10.18713
G1 X72.032 Y72.559 E10.20674
G1 X72.155 Y71.421 E10.24481
G1 X72.231 Y70.797 E10.26572
G1 X72.274 Y70.481 E10.27633
G1 X72.418 Y69.533 E10.30822
G1 X72.524 Y68.904 E10.32944
G1 X72.651 Y68.205 E10.35307
G1 X72.779 Y67.6 E10.37363
G1 X72.981 Y66.765 E10.40221
G1 X73.053 Y66.484 E10.41186
G1 X73.227 Y65.837 E10.43414
G1 X73.522 Y64.908 E10.46656
G1 X73.801 Y64.147 E10.49352
G1 X73.93 Y63.813 E10.50543
G1 X74.132 Y63.313 E10.52336
G1 X74.52 Y62.459 E10.55456
G1 X74.825 Y61.899 E10.57577
G1 X75.073 Y61.473 E10.59216
G1 X75.237 Y61.2 E10.60276
G1 X75.375 Y60.978 E10.61145
G1 X75.904 Y60.203 E10.64266
G0 F6000 X76.234 Y60.429
G1 F3300 X76.809 Y59.726 E10.67287
G1 X76.992 Y59.521 E10.68201
G1 X77.635 Y58.861 E10.71265
G1 X78.332 Y58.26 E10.74326
G1 X78.711 Y57.974 E10.75906
G1 X78.946 Y57.805 E10.76868
G1 X79.716 Y57.301 E10.79929
G1 X80.527 Y56.865 E10.82992
G1 X81.373 Y56.501 E10.86055
G1 X82.247 Y56.212 E10.89117
G1 X83.143 Y56 E10.92179
G1 X83.738 Y55.903 E10.94184
G1 X83.911 Y55.88 E10.94765
G1 X84.374 Y55.829 E10.96314
G1 X84.815 Y55.79 E10.97786
G1 X85.114 Y55.768 E10.98784
G1 X86.246 Y55.7 E11.02555
G1 X88.829 Y55.509 E11.1117
G1 X91.93 Y55.181 E11.21541
G1 X92.497 Y55.111 E11.23442
G1 X92.829 Y55.075 E11.24552
G1 X93.199 Y55.042 E11.25788
G1 X95.478 Y54.859 E11.33392
G1 X96.928 Y54.71 E11.3824
G1 X97.73 Y54.658 E11.40913
G1 X98.656 Y54.635 E11.43994
G1 X101.407 Y54.607 E11.53145
G1 X102.437 Y54.606 E11.5657
G1 X105.099 Y54.63 E11.65425
G1 X106.752 Y54.668 E11.70924
G1 X109.408 Y54.693 E11.79758
G1 X110.881 Y54.665 E11.84658
G1 X111.032 Y54.669 E11.85161
G1 X112.859 Y54.632 E11.91239
G1 X115.816 Y54.607 E12.01074
G1 X116.858 Y54.609 E12.0454
G1 X119.643 Y54.638 E12.13803
G1 X120.274 Y54.654 E12.15902
G1 X120.871 Y54.686 E12.17891
G1 X121.199 Y54.714 E12.18986
G1 X123.558 Y54.939 E12.26868
G1 X125.093 Y55.062 E12.31989
G1 X125.391 Y55.091 E12.32985
G1 X126.382 Y55.2 E12.36301
G1 X127.395 Y55.324 E12.39696
G1 X129.876 Y55.558 E12.47984
G1 X131.907 Y55.693 E12.54754
G1 X133.251 Y55.776 E12.59233
G1 X133.789 Y55.823 E12.61029
G1 X134.081 Y55.856 E12.62006
G1 X135.14 Y56.03 E12.65576
G1 X136.031 Y56.262 E12.68638
G1 X136.899 Y56.57 E12.71701
G1 X137.465 Y56.82 E12.73759
G1 X138.603 Y57.36 E12.77949
G1 X139.941 Y58.013 E12.82901
G1 X141.071 Y58.543 E12.87052
G1 X141.887 Y58.969 E12.90114
G1 X142.663 Y59.465 E12.93177
G1 X143.392 Y60.026 E12.96236
G1 X144.071 Y60.648 E12.99299
G1 X144.693 Y61.327 E13.02362
G1 X145.253 Y62.057 E13.05422
G1 X145.749 Y62.834 E13.08488
G1 X146.174 Y63.65 E13.11548
G1 X146.528 Y64.5 E13.1461
G1 X146.789 Y65.314 E13.17454
G1 X146.833 Y65.473 E13.18002
G1 X147.04 Y66.37 E13.21064
G1 X147.168 Y67.282 E13.24127
G1 X147.216 Y68.166 E13.27072
G1 X147.222 Y68.639 E13.28645
G1 X147.194 Y69.559 E13.31706
G1 X147.058 Y70.637 E13.3532
G1 X146.7 Y72.641 E13.42091
G1 X146.323 Y75.156 E13.50549
G1 X146.019 Y77.673 E13.58982
G1 X145.784 Y80.205 E13.6744
G1 X145.732 Y80.967 E13.6998
G1 X145.662 Y81.862 E13.72966
G1 X145.561 Y82.952 E13.76607
G1 X145.528 Y83.261 E13.7764
G1 X145.418 Y84.156 E13.80639
G1 X145.259 Y85.307 E13.84504
G1 X145.222 Y85.553 E13.85331
G1 X145.102 Y86.29 E13.87815
G1 X144.791 Y88.267 E13.94471
G1 X144.461 Y90.801 E14.02971
G1 X144.207 Y93.308 E14.11352
G1 X144.022 Y95.841 E14.19799
G1 X143.91 Y98.373 E14.28229
G1 X143.868 Y100.923 E14.36711
G1 X143.899 Y103.438 E14.45077
G1 X144 Y105.945 E14.53422
G1 X144.175 Y108.485 E14.6189
G1 X144.42 Y110.996 E14.70281
G1 X144.737 Y113.521 E14.78745
G1 X144.833 Y114.144 E14.80842
G1 X144.85 Y114.298 E14.81357
G1 X145.043 Y115.605 E14.85751
G1 X145.109 Y116.146 E14.87564
G1 X145.126 Y116.324 E14.88159
G1 X145.163 Y116.839 E14.89876
G1 X145.176 Y117.118 E14.90805
G1 X145.164 Y118.307 E14.9476
G1 X145.153 Y118.476 E14.95323
G1 X145.032 Y120.767 E15.02954
G1 X145.008 Y121.122 E15.04137
G1 X144.979 Y121.457 E15.05255
G1 X144.859 Y122.37 E15.08318
G1 X144.731 Y122.993 E15.10434
G1 X144.645 Y123.355 E15.11671
G1 X144.5 Y123.901 E15.1355
G1 X144.467 Y124.013 E15.13938
G1 X144.16 Y124.906 E15.17079
G1 X143.836 Y125.724 E15.20005
G1 X143.416 Y126.747 E15.23684
G1 X142.518 Y129.123 E15.32132
G1 X141.692 Y131.507 E15.40523
G1 X140.933 Y133.918 E15.4893
G1 X140.239 Y136.362 E15.57381
G1 X139.62 Y138.798 E15.6574
G1 X139.066 Y141.269 E15.74163
G1 X139.013 Y141.537 E15.75071
G1 X138.761 Y142.736 E15.79146
G1 X138.461 Y143.856 E15.83003
G1 X138.385 Y144.088 E15.83815
G1 X138.202 Y144.603 E15.85633
G1 X138.018 Y145.08 E15.87333
G1 X137.649 Y145.924 E15.90397
G1 X137.372 Y146.452 E15.9238
G1 X137.069 Y146.992 E15.9444
G1 X136.891 Y147.297 E15.95614
G1 X136.785 Y147.472 E15.96295
G1 X136.275 Y148.238 E15.99355
G1 X135.729 Y148.922 E16.02266
G1 X135.175 Y149.56 E16.05077
G1 X134.83 Y149.944 E16.06794
G1 X134.383 Y150.431 E16.08992
G1 X134.178 Y150.648 E16.09985
G1 X133.603 Y151.239 E16.12728
G1 X132.98 Y151.862 E16.15658
G1 X132.6 Y152.232 E16.17422
G1 X132.356 Y152.462 E16.18537
G1 X131.543 Y153.205 E16.222
G1 X131.183 Y153.524 E16.238
G1 X130.405 Y154.191 E16.27209
G1 X130.2 Y154.362 E16.28097
G1 X129.639 Y154.817 E16.30499
G1 X129.036 Y155.291 E16.3305
G1 X128.381 Y155.793 E16.35795
G1 X128.189 Y155.937 E16.36593
G1 X127.644 Y156.334 E16.38836
G1 X126.851 Y156.892 E16.42061
G1 X125.965 Y157.499 E16.45633
G1 X125.709 Y157.668 E16.46653
G1 X124.529 Y158.427 E16.5132
G1 X124.031 Y158.738 E16.53272
G1 X123.736 Y158.915 E16.54417
G1 X123.076 Y159.298 E16.56955
G1 X122.826 Y159.439 E16.57909
G1 X122.367 Y159.689 E16.59648
G1 X121.515 Y160.105 E16.62801
G1 X121.183 Y160.249 E16.64005
G1 X120.786 Y160.412 E16.65432
G1 X120.183 Y160.645 E16.67582
G1 X119.019 Y161.019 E16.71649
G1 X118.624 Y161.117 E16.73002
G1 X118.302 Y161.191 E16.74101
G1 X117.903 Y161.276 E16.75458
G1 X115.322 Y161.843 E16.84247
G1 X112.917 Y162.444 E16.92492
G1 X110.428 Y163.139 E17.01087
G1 X108.047 Y163.878 E17.09379
G1 X107.757 Y163.977 E17.10399
G1 X105.356 Y164.759 E17.18797
G1 X105.034 Y164.858 E17.19918
G1 X104.814 Y164.922 E17.2068
G1 X103.92 Y165.141 E17.23741
G1 X102.728 Y165.308 E17.27744
G1 X102.414 Y165.334 E17.28792
G1 X102.127 Y165.354 E17.29749
G1 X101.821 Y165.371 E17.30769
G1 X100.9 Y165.382 E17.33832
G1 X100.037 Y165.319 E17.3671
G1 X99.676 Y165.278 E17.37918
G1 X99.366 Y165.238 E17.38958
G1 X99.157 Y165.208 E17.3966
G1 X98.252 Y165.038 E17.42723
G1 X97.366 Y164.79 E17.45783
G1 X96.485 Y164.458 E17.48914
G1 X96.035 Y164.265 E17.50543
G1 X95.205 Y163.866 E17.53606
G1 X94.121 Y163.198 E17.57841
G1 X93.859 Y163.014 E17.58906
G1 X93.625 Y162.845 E17.59866
G1 X93.032 Y162.404 E17.62324
G1 X91.313 Y161.156 E17.69389
G1 X90.865 Y160.84 E17.71213
G1 X89.899 Y160.07 E17.75321
G1 X89.811 Y159.991 E17.75715
G1 X89.467 Y159.668 E17.77284
G1 X89.305 Y159.509 E17.78039
G1 X88.677 Y158.836 E17.81101
G1 X88.321 Y158.397 E17.82981
G1 X88.255 Y158.311 E17.83341
