;FLAVOR:Marlin
;TIME:20954
;Filament used: 15.3929m
;Layer height: 0.2
;MINX:41.5
;MINY:79.6
;MINZ:0.2
;MAXX:178.5
;MAXY:140.4
;MAXZ:50.8
;Generated with Cura_SteamEngine master
M140 S100
M105
M190 S100
M104 S230
M105
M109 S230
M82 ;absolute extrusion mode
; Ender 3 Custom Start G-code
G92 E0 ; Reset Extruder
G28 ; Home all axes
G1 Z2.0 F3000 ; Move Z Axis up little to prevent scratching of Heat Bed
G1 X0.1 Y20 Z0.3 F5000.0 ; Move to start position
G1 X0.1 Y200.0 Z0.3 F1500.0 E15 ; Draw the first line
G1 X0.4 Y200.0 Z0.3 F5000.0 ; Move to side a little
G1 X0.4 Y20 Z0.3 F1500.0 E30 ; Draw the second line
G92 E0 ; Reset Extruder
G1 Z2.0 F3000 ; Move Z Axis up little to prevent scratching of Heat Bed
G1 X5 Y20 Z0.3 F5000.0 ; Move over to prevent blob squish
G92 E0
G92 E0
G1 F1500 E-6.5
;LAYER_COUNT:254
;LAYER:0
M107
G0 F6000 X44.079 Y80.292 Z0.2
;TYPE:SKIRT
G1 F1500 E0
G1 F1200 X44.643 Y80.006 E0.02103
G1 X45.238 Y79.794 E0.04204
G1 X45.856 Y79.658 E0.06309
G1 X46.617 Y79.6 E0.08847
G1 X173.383 Y79.6 E4.30473
G1 X174.014 Y79.64 E4.32576
G1 X174.635 Y79.759 E4.34679
G1 X175.235 Y79.956 E4.36779
G1 X175.807 Y80.227 E4.38884
G1 X176.339 Y80.567 E4.40984
G1 X176.919 Y81.064 E4.43525
G1 X177.036 Y81.181 E4.44075
G1 X177.453 Y81.656 E4.46177
G1 X177.808 Y82.179 E4.4828
G1 X178.094 Y82.743 E4.50383
G1 X178.306 Y83.338 E4.52484
G1 X178.442 Y83.956 E4.54588
G1 X178.5 Y84.717 E4.57127
G1 X178.5 Y135.283 E6.2531
G1 X178.46 Y135.914 E6.27413
G1 X178.341 Y136.535 E6.29516
G1 X178.144 Y137.135 E6.31616
G1 X177.873 Y137.707 E6.33722
G1 X177.533 Y138.239 E6.35822
G1 X177.036 Y138.819 E6.38362
G1 X176.919 Y138.936 E6.38912
G1 X176.444 Y139.353 E6.41015
G1 X175.921 Y139.708 E6.43117
G1 X175.357 Y139.994 E6.4522
G1 X174.762 Y140.206 E6.47321
G1 X174.144 Y140.342 E6.49426
G1 X173.383 Y140.4 E6.51964
G1 X46.617 Y140.4 E10.7359
G1 X45.986 Y140.36 E10.75693
G1 X45.365 Y140.241 E10.77796
G1 X44.765 Y140.044 E10.79896
G1 X44.193 Y139.773 E10.82001
G1 X43.661 Y139.433 E10.84101
G1 X43.081 Y138.936 E10.86642
G1 X42.964 Y138.819 E10.87192
G1 X42.547 Y138.344 E10.89294
G1 X42.192 Y137.821 E10.91397
G1 X41.906 Y137.257 E10.935
G1 X41.694 Y136.662 E10.95601
G1 X41.558 Y136.044 E10.97705
G1 X41.5 Y135.283 E11.00244
G1 X41.5 Y84.717 E12.68427
G1 X41.54 Y84.086 E12.7053
G1 X41.659 Y83.465 E12.72633
G1 X41.856 Y82.865 E12.74733
G1 X42.127 Y82.293 E12.76839
G1 X42.467 Y81.761 E12.78938
G1 X42.964 Y81.181 E12.81479
G1 X43.081 Y81.064 E12.82029
G1 X43.556 Y80.647 E12.84132
G1 X44.079 Y80.292 E12.86234
G0 F6000 X44.325 Y80.612
G1 F1200 X44.869 Y80.345 E12.88249
G1 X45.444 Y80.152 E12.90267
G1 X46.039 Y80.036 E12.92283
G1 X46.617 Y80 E12.94209
G1 X173.383 Y80 E17.15835
G1 X173.988 Y80.04 E17.17851
G1 X174.582 Y80.159 E17.19866
G1 X175.156 Y80.355 E17.21884
G1 X175.699 Y80.626 E17.23902
G1 X176.202 Y80.965 E17.25919
G1 X176.636 Y81.347 E17.27842
G1 X176.753 Y81.464 E17.28393
G1 X177.152 Y81.92 E17.30408
G1 X177.488 Y82.425 E17.32425
G1 X177.755 Y82.969 E17.34441
G1 X177.948 Y83.544 E17.36458
G1 X178.064 Y84.139 E17.38475
G1 X178.1 Y84.717 E17.40401
G1 X178.1 Y135.283 E19.08584
G1 X178.06 Y135.888 E19.10601
G1 X177.941 Y136.482 E19.12615
G1 X177.745 Y137.056 E19.14633
G1 X177.474 Y137.599 E19.16651
G1 X177.135 Y138.102 E19.18669
G1 X176.753 Y138.536 E19.20592
G1 X176.636 Y138.653 E19.21142
G1 X176.18 Y139.052 E19.23157
G1 X175.675 Y139.388 E19.25175
G1 X175.131 Y139.655 E19.2719
G1 X174.556 Y139.848 E19.29208
G1 X173.961 Y139.964 E19.31224
G1 X173.383 Y140 E19.3315
G1 X46.617 Y140 E23.54776
G1 X46.012 Y139.96 E23.56792
G1 X45.418 Y139.841 E23.58807
G1 X44.844 Y139.645 E23.60824
G1 X44.301 Y139.374 E23.62843
G1 X43.798 Y139.035 E23.6486
G1 X43.364 Y138.653 E23.66783
G1 X43.247 Y138.536 E23.67334
G1 X42.848 Y138.08 E23.69349
G1 X42.512 Y137.575 E23.71366
G1 X42.245 Y137.031 E23.73382
G1 X42.052 Y136.456 E23.75399
G1 X41.936 Y135.861 E23.77415
G1 X41.9 Y135.283 E23.79342
G1 X41.9 Y84.717 E25.47525
G1 X41.94 Y84.112 E25.49541
G1 X42.059 Y83.518 E25.51556
G1 X42.255 Y82.944 E25.53574
G1 X42.526 Y82.401 E25.55592
G1 X42.865 Y81.898 E25.5761
G1 X43.247 Y81.464 E25.59533
G1 X43.364 Y81.347 E25.60083
G1 X43.82 Y80.948 E25.62098
G1 X44.325 Y80.612 E25.64116
G0 F6000 X44.569 Y80.933
G1 F1200 X45.093 Y80.686 E25.66042
G1 X45.646 Y80.514 E25.67969
G1 X46.218 Y80.419 E25.69897
G1 X46.617 Y80.4 E25.71226
G1 X173.383 Y80.4 E29.92851
G1 X173.961 Y80.44 E29.94778
G1 X174.528 Y80.559 E29.96705
G1 X175.073 Y80.755 E29.98632
G1 X175.586 Y81.024 E30.00558
G1 X176.057 Y81.361 E30.02484
G1 X176.353 Y81.63 E30.03815
G1 X176.47 Y81.747 E30.04365
G1 X176.85 Y82.184 E30.06291
G1 X177.167 Y82.669 E30.08218
G1 X177.414 Y83.193 E30.10145
G1 X177.586 Y83.746 E30.12071
G1 X177.681 Y84.318 E30.14
G1 X177.7 Y84.717 E30.15328
G1 X177.7 Y135.283 E31.83512
G1 X177.66 Y135.861 E31.85439
G1 X177.541 Y136.428 E31.87366
G1 X177.345 Y136.973 E31.89292
G1 X177.076 Y137.486 E31.91218
G1 X176.739 Y137.957 E31.93145
G1 X176.47 Y138.253 E31.94475
G1 X176.353 Y138.37 E31.95025
G1 X175.916 Y138.75 E31.96951
G1 X175.431 Y139.067 E31.98879
G1 X174.907 Y139.314 E32.00805
G1 X174.354 Y139.486 E32.02732
G1 X173.782 Y139.581 E32.0466
G1 X173.383 Y139.6 E32.05989
G1 X46.617 Y139.6 E36.27614
G1 X46.039 Y139.56 E36.29541
G1 X45.472 Y139.441 E36.31468
G1 X44.927 Y139.245 E36.33394
G1 X44.414 Y138.976 E36.35321
G1 X43.943 Y138.639 E36.37247
G1 X43.647 Y138.37 E36.38578
G1 X43.53 Y138.253 E36.39128
G1 X43.15 Y137.816 E36.41054
G1 X42.833 Y137.331 E36.42981
G1 X42.586 Y136.807 E36.44908
G1 X42.414 Y136.254 E36.46834
G1 X42.319 Y135.682 E36.48763
G1 X42.3 Y135.283 E36.50091
G1 X42.3 Y84.717 E38.18274
G1 X42.34 Y84.139 E38.20201
G1 X42.459 Y83.572 E38.22128
G1 X42.655 Y83.027 E38.24055
G1 X42.924 Y82.514 E38.25981
G1 X43.261 Y82.043 E38.27908
G1 X43.53 Y81.747 E38.29238
G1 X43.647 Y81.63 E38.29788
G1 X44.084 Y81.25 E38.31714
G1 X44.569 Y80.933 E38.33641
G0 F6000 X44.811 Y81.256
G1 F1200 X45.314 Y81.03 E38.35476
G1 X45.844 Y80.879 E38.37308
G1 X46.617 Y80.8 E38.39893
G1 X173.383 Y80.8 E42.61518
G1 X173.933 Y80.84 E42.63352
G1 X174.471 Y80.959 E42.65185
G1 X174.986 Y81.155 E42.67018
G1 X175.467 Y81.423 E42.68849
G1 X176.07 Y81.913 E42.71433
G1 X176.187 Y82.03 E42.71984
G1 X176.547 Y82.447 E42.73816
G1 X176.844 Y82.911 E42.75648
G1 X177.07 Y83.414 E42.77483
G1 X177.221 Y83.944 E42.79315
G1 X177.3 Y84.717 E42.819
G1 X177.3 Y135.283 E44.50083
G1 X177.26 Y135.833 E44.51917
G1 X177.141 Y136.371 E44.5375
G1 X176.945 Y136.886 E44.55583
G1 X176.677 Y137.367 E44.57414
G1 X176.187 Y137.97 E44.59998
G1 X176.07 Y138.087 E44.60549
G1 X175.653 Y138.447 E44.62381
G1 X175.189 Y138.744 E44.64213
G1 X174.686 Y138.97 E44.66047
G1 X174.156 Y139.121 E44.6788
G1 X173.383 Y139.2 E44.70465
G1 X46.617 Y139.2 E48.9209
G1 X46.067 Y139.16 E48.93924
G1 X45.529 Y139.041 E48.95757
G1 X45.014 Y138.845 E48.9759
G1 X44.533 Y138.577 E48.99421
G1 X43.93 Y138.087 E49.02005
G1 X43.813 Y137.97 E49.02556
G1 X43.453 Y137.553 E49.04388
G1 X43.156 Y137.089 E49.0622
G1 X42.93 Y136.586 E49.08054
G1 X42.779 Y136.056 E49.09887
G1 X42.7 Y135.283 E49.12472
G1 X42.7 Y84.717 E50.80655
G1 X42.74 Y84.167 E50.82489
G1 X42.859 Y83.629 E50.84322
G1 X43.055 Y83.114 E50.86154
G1 X43.323 Y82.633 E50.87986
G1 X43.813 Y82.03 E50.9057
G1 X43.93 Y81.913 E50.9112
G1 X44.347 Y81.553 E50.92953
G1 X44.811 Y81.256 E50.94785
G0 F6000 X45.051 Y81.582
G1 F1200 X45.531 Y81.378 E50.9652
G1 X46.036 Y81.25 E50.98252
G1 X46.617 Y81.2 E51.00192
G1 X173.383 Y81.2 E55.21817
G1 X173.903 Y81.24 E55.23552
G1 X174.41 Y81.359 E55.25284
G1 X174.893 Y81.554 E55.27017
G1 X175.341 Y81.82 E55.2875
G1 X175.787 Y82.196 E55.3069
G1 X175.904 Y82.313 E55.3124
G1 X176.243 Y82.709 E55.32974
G1 X176.518 Y83.151 E55.34705
G1 X176.722 Y83.631 E55.3644
G1 X176.85 Y84.136 E55.38173
G1 X176.9 Y84.717 E55.40112
G1 X176.9 Y135.283 E57.08296
G1 X176.86 Y135.803 E57.1003
G1 X176.741 Y136.31 E57.11762
G1 X176.546 Y136.793 E57.13495
G1 X176.28 Y137.241 E57.15228
G1 X175.904 Y137.687 E57.17168
G1 X175.787 Y137.804 E57.17718
G1 X175.391 Y138.143 E57.19452
G1 X174.949 Y138.418 E57.21183
G1 X174.469 Y138.622 E57.22918
G1 X173.964 Y138.75 E57.24651
G1 X173.383 Y138.8 E57.2659
G1 X46.617 Y138.8 E61.48216
G1 X46.097 Y138.76 E61.4995
G1 X45.59 Y138.641 E61.51683
G1 X45.107 Y138.446 E61.53415
G1 X44.659 Y138.18 E61.55148
G1 X44.213 Y137.804 E61.57088
G1 X44.096 Y137.687 E61.57638
G1 X43.757 Y137.291 E61.59372
G1 X43.482 Y136.849 E61.61104
G1 X43.278 Y136.369 E61.62838
G1 X43.15 Y135.864 E61.64571
G1 X43.1 Y135.283 E61.66511
G1 X43.1 Y84.717 E63.34694
G1 X43.14 Y84.197 E63.36428
G1 X43.259 Y83.69 E63.38161
G1 X43.454 Y83.207 E63.39893
G1 X43.72 Y82.759 E63.41626
G1 X44.096 Y82.313 E63.43566
G1 X44.213 Y82.196 E63.44117
G1 X44.609 Y81.857 E63.4585
G1 X45.051 Y81.582 E63.47582
G0 F6000 X45.289 Y81.91
G1 F1200 X45.744 Y81.73 E63.49209
G1 X46.222 Y81.626 E63.50836
G1 X46.617 Y81.6 E63.52153
G1 X173.383 Y81.6 E67.73778
G1 X173.871 Y81.64 E67.75407
G1 X174.346 Y81.759 E67.77035
G1 X174.795 Y81.953 E67.78662
G1 X175.207 Y82.218 E67.80292
G1 X175.504 Y82.479 E67.81607
G1 X175.621 Y82.596 E67.82157
G1 X175.938 Y82.969 E67.83785
G1 X176.19 Y83.389 E67.85414
G1 X176.37 Y83.844 E67.87042
G1 X176.474 Y84.322 E67.88669
G1 X176.5 Y84.717 E67.89985
G1 X176.5 Y135.283 E69.58168
G1 X176.46 Y135.771 E69.59797
G1 X176.341 Y136.246 E69.61426
G1 X176.147 Y136.695 E69.63053
G1 X175.882 Y137.107 E69.64682
G1 X175.621 Y137.404 E69.65997
G1 X175.504 Y137.521 E69.66547
G1 X175.131 Y137.838 E69.68175
G1 X174.711 Y138.09 E69.69804
G1 X174.256 Y138.27 E69.71432
G1 X173.778 Y138.374 E69.73059
G1 X173.383 Y138.4 E69.74375
G1 X46.617 Y138.4 E73.96001
G1 X46.129 Y138.36 E73.97629
G1 X45.654 Y138.241 E73.99258
G1 X45.205 Y138.047 E74.00885
G1 X44.793 Y137.782 E74.02514
G1 X44.496 Y137.521 E74.03829
G1 X44.379 Y137.404 E74.0438
G1 X44.062 Y137.031 E74.06008
G1 X43.81 Y136.611 E74.07637
G1 X43.63 Y136.156 E74.09264
G1 X43.526 Y135.678 E74.10891
G1 X43.5 Y135.283 E74.12208
G1 X43.5 Y84.717 E75.80391
G1 X43.54 Y84.229 E75.8202
G1 X43.659 Y83.754 E75.83648
G1 X43.853 Y83.305 E75.85275
G1 X44.118 Y82.893 E75.86904
G1 X44.379 Y82.596 E75.8822
G1 X44.496 Y82.479 E75.8877
G1 X44.869 Y82.162 E75.90398
G1 X45.289 Y81.91 E75.92027
G0 F6000 X45.128 Y82.469
G1 F1200 X45.523 Y82.242 E75.93542
G1 X45.951 Y82.087 E75.95056
G1 X46.617 Y82 E75.9729
G1 X173.383 Y82 E80.18916
G1 X173.837 Y82.04 E80.20432
G1 X174.277 Y82.158 E80.21947
G1 X174.689 Y82.352 E80.23461
G1 X175.221 Y82.762 E80.25695
G1 X175.338 Y82.879 E80.26246
G1 X175.631 Y83.228 E80.27761
G1 X175.858 Y83.623 E80.29277
G1 X176.013 Y84.051 E80.30791
G1 X176.1 Y84.717 E80.33024
G1 X176.1 Y135.283 E82.01208
G1 X176.06 Y135.737 E82.02724
G1 X175.942 Y136.177 E82.04239
G1 X175.748 Y136.589 E82.05753
G1 X175.338 Y137.121 E82.07987
G1 X175.221 Y137.238 E82.08538
G1 X174.872 Y137.531 E82.10053
G1 X174.477 Y137.758 E82.11568
G1 X174.049 Y137.913 E82.13082
G1 X173.383 Y138 E82.15316
G1 X46.617 Y138 E86.36942
G1 X46.163 Y137.96 E86.38458
G1 X45.723 Y137.842 E86.39973
G1 X45.311 Y137.648 E86.41488
G1 X44.779 Y137.238 E86.43721
G1 X44.662 Y137.121 E86.44272
G1 X44.369 Y136.772 E86.45787
G1 X44.142 Y136.377 E86.47303
G1 X43.987 Y135.949 E86.48817
G1 X43.9 Y135.283 E86.51051
G1 X43.9 Y84.717 E88.19234
G1 X43.94 Y84.263 E88.2075
G1 X44.058 Y83.823 E88.22265
G1 X44.252 Y83.411 E88.23779
G1 X44.662 Y82.879 E88.26013
G1 X44.779 Y82.762 E88.26564
G1 X45.128 Y82.469 E88.28079
G0 F6000 X45.385 Y82.778
G1 F1200 X45.752 Y82.577 E88.29471
G1 X46.152 Y82.45 E88.30867
G1 X46.617 Y82.4 E88.32422
G1 X173.383 Y82.4 E92.54048
G1 X173.8 Y82.44 E92.55441
G1 X174.202 Y82.558 E92.56835
G1 X174.574 Y82.751 E92.58229
G1 X174.939 Y83.044 E92.59785
G1 X175.056 Y83.161 E92.60336
G1 X175.322 Y83.485 E92.6173
G1 X175.523 Y83.852 E92.63122
G1 X175.65 Y84.252 E92.64518
G1 X175.7 Y84.717 E92.66073
G1 X175.7 Y135.283 E94.34256
G1 X175.66 Y135.7 E94.3565
G1 X175.542 Y136.102 E94.37043
G1 X175.349 Y136.474 E94.38437
G1 X175.056 Y136.839 E94.39994
G1 X174.939 Y136.956 E94.40544
G1 X174.615 Y137.222 E94.41938
G1 X174.248 Y137.423 E94.4333
G1 X173.848 Y137.55 E94.44726
G1 X173.383 Y137.6 E94.46281
G1 X46.617 Y137.6 E98.67907
G1 X46.2 Y137.56 E98.693
G1 X45.798 Y137.442 E98.70694
G1 X45.426 Y137.249 E98.72087
G1 X45.061 Y136.956 E98.73644
G1 X44.944 Y136.839 E98.74195
G1 X44.678 Y136.515 E98.75589
G1 X44.477 Y136.148 E98.76981
G1 X44.35 Y135.748 E98.78376
G1 X44.3 Y135.283 E98.79932
G1 X44.3 Y84.717 E100.48115
G1 X44.34 Y84.3 E100.49508
G1 X44.458 Y83.898 E100.50902
G1 X44.651 Y83.526 E100.52296
G1 X44.944 Y83.161 E100.53853
G1 X45.061 Y83.044 E100.54403
G1 X45.385 Y82.778 E100.55797
G0 F6000 X45.639 Y83.089
G1 F1200 X45.977 Y82.918 E100.57057
G1 X46.343 Y82.821 E100.58316
G1 X46.617 Y82.8 E100.5923
G1 X173.383 Y82.8 E104.80856
G1 X173.76 Y82.84 E104.82117
G1 X174.12 Y82.958 E104.83377
G1 X174.447 Y83.148 E104.84635
G1 X174.656 Y83.327 E104.8555
G1 X174.773 Y83.444 E104.861
G1 X175.011 Y83.739 E104.87361
G1 X175.182 Y84.077 E104.88621
G1 X175.279 Y84.443 E104.8988
G1 X175.3 Y84.717 E104.90794
G1 X175.3 Y135.283 E106.58977
G1 X175.26 Y135.66 E106.60238
G1 X175.142 Y136.02 E106.61498
G1 X174.952 Y136.347 E106.62756
G1 X174.773 Y136.556 E106.63671
G1 X174.656 Y136.673 E106.64222
G1 X174.361 Y136.911 E106.65482
G1 X174.023 Y137.082 E106.66742
G1 X173.657 Y137.179 E106.68002
G1 X173.383 Y137.2 E106.68916
G1 X46.617 Y137.2 E110.90541
G1 X46.24 Y137.16 E110.91802
G1 X45.88 Y137.042 E110.93062
G1 X45.553 Y136.852 E110.9432
G1 X45.344 Y136.673 E110.95235
G1 X45.227 Y136.556 E110.95786
G1 X44.989 Y136.261 E110.97046
G1 X44.818 Y135.923 E110.98306
G1 X44.721 Y135.557 E110.99565
G1 X44.7 Y135.283 E111.00479
G1 X44.7 Y84.717 E112.68663
G1 X44.74 Y84.34 E112.69924
G1 X44.858 Y83.98 E112.71184
G1 X45.048 Y83.653 E112.72441
G1 X45.227 Y83.444 E112.73357
G1 X45.344 Y83.327 E112.73907
G1 X45.639 Y83.089 E112.75168
G0 F6000 X45.89 Y83.404
G1 F1200 X46.194 Y83.265 E112.7628
G1 X46.617 Y83.2 E112.77703
G1 X173.383 Y83.2 E116.99328
G1 X173.715 Y83.24 E117.00441
G1 X174.027 Y83.357 E117.01549
G1 X174.373 Y83.61 E117.02974
G1 X174.49 Y83.727 E117.03525
G1 X174.696 Y83.99 E117.04636
G1 X174.835 Y84.294 E117.05748
G1 X174.9 Y84.717 E117.07171
G1 X174.9 Y135.283 E118.75354
G1 X174.86 Y135.615 E118.76467
G1 X174.743 Y135.927 E118.77575
G1 X174.49 Y136.273 E118.79001
G1 X174.373 Y136.39 E118.79551
G1 X174.11 Y136.596 E118.80662
G1 X173.806 Y136.735 E118.81774
G1 X173.383 Y136.8 E118.83197
G1 X46.617 Y136.8 E123.04823
G1 X46.285 Y136.76 E123.05935
G1 X45.973 Y136.643 E123.07043
G1 X45.627 Y136.39 E123.08469
G1 X45.51 Y136.273 E123.09019
G1 X45.304 Y136.01 E123.1013
G1 X45.165 Y135.706 E123.11242
G1 X45.1 Y135.283 E123.12665
G1 X45.1 Y84.717 E124.80849
G1 X45.14 Y84.385 E124.81961
G1 X45.257 Y84.073 E124.83069
G1 X45.51 Y83.727 E124.84495
G1 X45.627 Y83.61 E124.85045
G1 X45.89 Y83.404 E124.86156
G0 F6000 X46.136 Y83.724
G1 F1200 X46.4 Y83.624 E124.87095
G1 X46.617 Y83.6 E124.87821
G1 X173.383 Y83.6 E129.09447
G1 X173.662 Y83.64 E129.10384
G1 X173.919 Y83.756 E129.11322
G1 X174.207 Y84.01 E129.12599
G1 X174.376 Y84.236 E129.13538
G1 X174.476 Y84.5 E129.14477
G1 X174.5 Y84.717 E129.15203
G1 X174.5 Y135.283 E130.83386
G1 X174.46 Y135.562 E130.84324
G1 X174.344 Y135.819 E130.85261
G1 X174.09 Y136.107 E130.86539
G1 X173.864 Y136.276 E130.87477
G1 X173.6 Y136.376 E130.88416
G1 X173.383 Y136.4 E130.89142
G1 X46.617 Y136.4 E135.10768
G1 X46.338 Y136.36 E135.11705
G1 X46.081 Y136.244 E135.12643
G1 X45.793 Y135.99 E135.1392
G1 X45.624 Y135.764 E135.14859
G1 X45.524 Y135.5 E135.15798
G1 X45.5 Y135.283 E135.16524
G1 X45.5 Y84.717 E136.84707
G1 X45.54 Y84.438 E136.85645
G1 X45.656 Y84.181 E136.86582
G1 X45.91 Y83.893 E136.8786
G1 X46.136 Y83.724 E136.88798
G0 F6000 X46.372 Y84.052
G1 F1200 X46.617 Y84 E136.89631
G1 X173.383 Y84 E141.11257
G1 X173.598 Y84.04 E141.11984
G1 X173.924 Y84.293 E141.13356
G1 X174.048 Y84.472 E141.14081
G1 X174.1 Y84.717 E141.14914
G1 X174.1 Y135.283 E142.83097
G1 X174.06 Y135.498 E142.83824
G1 X173.807 Y135.824 E142.85197
G1 X173.628 Y135.948 E142.85921
