;FLAVOR:Marlin
;TIME:3763
;Filament used: 3.16948m
;Layer height: 0.3
;MINX:50.501
;MINY:84.481
;MINZ:0.2
;MAXX:169.5
;MAXY:137.75
;MAXZ:35
;Generated with Cura_SteamEngine master
M140 S60
M105
M190 S60
M104 S200
M105
M109 S200
M82 ;absolute extrusion mode
; Ender 3 Custom Start G-code
G92 E0 ; Reset Extruder
G28 ; Home all axes
G1 Z2.0 F3000 ; Move Z Axis up little to prevent scratching of Heat Bed
G1 X0.1 Y20 Z0.3 F5000.0 ; Move to start position
G1 X0.1 Y200.0 Z0.3 F1500.0 E15 ; Draw the first line
G1 X0.4 Y200.0 Z0.3 F5000.0 ; Move to side a little
G1 X0.4 Y20 Z0.3 F1500.0 E30 ; Draw the second line
G92 E0 ; Reset Extruder
G1 Z2.0 F3000 ; Move Z Axis up little to prevent scratching of Heat Bed
G1 X5 Y20 Z0.3 F5000.0 ; Move over to prevent blob squish
G92 E0
G92 E0
G1 F1500 E-6.5
;LAYER_COUNT:117
;LAYER:0
M107
G0 F6000 X55.924 Y92.28 Z0.2
;TYPE:SKIRT
G1 F1500 E0
G1 F1200 X56.752 Y91.839 E0.0312
G1 X57.614 Y91.469 E0.0624
G1 X58.874 Y91.077 E0.10629
G1 X61.319 Y90.473 E0.19006
G1 X63.754 Y89.8 E0.27408
G1 X66.183 Y89.053 E0.3586
G1 X68.554 Y88.251 E0.44185
G1 X70.901 Y87.381 E0.52511
G1 X73.254 Y86.432 E0.60949
G1 X75.594 Y85.414 E0.69437
G1 X76.618 Y85.028 E0.73076
G1 X77.55 Y84.77 E0.76293
G1 X78.472 Y84.599 E0.79412
G1 X79.698 Y84.495 E0.83504
G1 X80.013 Y84.486 E0.84552
G1 X80.303 Y84.482 E0.85517
G1 X80.947 Y84.482 E0.87659
G1 X81.664 Y84.492 E0.90044
G1 X81.971 Y84.501 E0.91065
G1 X82.691 Y84.531 E0.93462
G1 X85.33 Y84.604 E1.02243
G1 X87.854 Y84.602 E1.10638
G1 X90.362 Y84.529 E1.18983
G1 X90.683 Y84.513 E1.20052
G1 X90.923 Y84.504 E1.20851
G1 X91.507 Y84.487 E1.22794
G1 X91.803 Y84.482 E1.23778
G1 X92.463 Y84.482 E1.25974
G1 X93.178 Y84.493 E1.28352
G1 X94.115 Y84.548 E1.31474
G1 X94.705 Y84.624 E1.33452
G1 X96.18 Y84.855 E1.38418
G1 X96.473 Y84.905 E1.39407
G1 X98.951 Y85.25 E1.47728
G1 X101.468 Y85.53 E1.56151
G1 X103.984 Y85.737 E1.64548
G1 X106.501 Y85.872 E1.72931
G1 X108.991 Y85.936 E1.81216
G1 X111.513 Y85.929 E1.89604
G1 X114.043 Y85.851 E1.98023
G1 X116.547 Y85.703 E2.06366
G1 X119.056 Y85.482 E2.14743
G1 X121.549 Y85.192 E2.23091
G1 X125.366 Y84.615 E2.3593
G1 X126.708 Y84.495 E2.40412
G1 X127.035 Y84.486 E2.415
G1 X127.314 Y84.482 E2.42428
G1 X127.948 Y84.482 E2.44537
G1 X128.664 Y84.492 E2.46918
G1 X128.969 Y84.501 E2.47933
G1 X129.687 Y84.531 E2.50323
G1 X132.33 Y84.604 E2.59117
G1 X134.853 Y84.602 E2.67509
G1 X137.363 Y84.529 E2.75861
G1 X137.929 Y84.503 E2.77745
G1 X138.524 Y84.486 E2.79725
G1 X138.814 Y84.482 E2.80689
G1 X139.27 Y84.481 E2.82206
G1 X140.153 Y84.492 E2.85143
G1 X141.09 Y84.545 E2.88265
G1 X142.018 Y84.678 E2.91383
G1 X142.932 Y84.89 E2.94503
G1 X143.824 Y85.178 E2.97621
G1 X144.375 Y85.4 E2.99597
G1 X145.758 Y86.001 E3.04612
G1 X145.855 Y86.044 E3.04965
G1 X148.203 Y87.021 E3.13424
G1 X150.556 Y87.925 E3.21808
G1 X152.925 Y88.754 E3.30155
G1 X155.309 Y89.515 E3.38479
G1 X157.74 Y90.217 E3.46895
G1 X160.279 Y90.873 E3.55617
G1 X161.099 Y91.073 E3.58424
G1 X162 Y91.334 E3.61544
G1 X162.875 Y91.671 E3.64663
G1 X163.719 Y92.081 E3.67783
G1 X164.524 Y92.562 E3.70902
G1 X165.286 Y93.109 E3.74022
G1 X165.998 Y93.719 E3.77141
G1 X166.655 Y94.388 E3.80259
G1 X167.253 Y95.111 E3.8338
G1 X167.788 Y95.881 E3.86499
G1 X168.255 Y96.695 E3.8962
G1 X168.651 Y97.545 E3.92739
G1 X168.973 Y98.426 E3.95859
G1 X169.219 Y99.331 E3.98978
G1 X169.386 Y100.253 E4.02094
G1 X169.486 Y101.454 E4.06103
G1 X169.496 Y101.814 E4.073
G1 X169.5 Y102.119 E4.08315
G1 X169.5 Y120.736 E4.70235
G1 X169.498 Y120.967 E4.71004
G1 X169.468 Y122.396 E4.75758
G1 X169.4 Y123.406 E4.79125
G1 X169.363 Y123.732 E4.80216
G1 X169.301 Y124.193 E4.81763
G1 X169.203 Y124.758 E4.8367
G1 X169.151 Y125.017 E4.84549
G1 X169.048 Y125.477 E4.86117
G1 X169.019 Y125.595 E4.86521
G1 X168.879 Y126.111 E4.88299
G1 X168.764 Y126.497 E4.89639
G1 X168.534 Y127.186 E4.92055
G1 X168.43 Y127.466 E4.93048
G1 X168.232 Y127.961 E4.94821
G1 X168.167 Y128.113 E4.95371
G1 X167.897 Y128.697 E4.97511
G1 X167.706 Y129.08 E4.98934
G1 X167.459 Y129.546 E5.00689
G1 X167.196 Y129.999 E5.02431
G1 X167.086 Y130.178 E5.0313
G1 X166.911 Y130.454 E5.04217
G1 X166.806 Y130.614 E5.04853
G1 X166.439 Y131.139 E5.06984
G1 X166.125 Y131.558 E5.08725
G1 X166.029 Y131.682 E5.09247
G1 X165.518 Y132.294 E5.11898
G1 X165.167 Y132.681 E5.13636
G1 X165.084 Y132.769 E5.14039
G1 X164.651 Y133.203 E5.16078
G1 X164.342 Y133.496 E5.17494
G1 X163.764 Y134.006 E5.20058
G1 X163.549 Y134.183 E5.20984
G1 X163.142 Y134.503 E5.22706
G1 X162.964 Y134.636 E5.23445
G1 X162.422 Y135.016 E5.25647
G1 X162.171 Y135.181 E5.26646
G1 X161.787 Y135.423 E5.28155
G1 X161.253 Y135.732 E5.30207
G1 X161.035 Y135.85 E5.31032
G1 X160.654 Y136.048 E5.3246
G1 X160.009 Y136.351 E5.3483
G1 X159.682 Y136.492 E5.36015
G1 X159.066 Y136.736 E5.38218
G1 X158.781 Y136.839 E5.39226
G1 X158.192 Y137.033 E5.41289
G1 X158.008 Y137.088 E5.41927
G1 X157.425 Y137.245 E5.43936
G1 X157.05 Y137.335 E5.45218
G1 X156.615 Y137.431 E5.467
G1 X155.978 Y137.544 E5.48852
G1 X155.755 Y137.577 E5.49601
G1 X155.427 Y137.621 E5.50702
G1 X155.248 Y137.642 E5.51302
G1 X154.587 Y137.699 E5.53508
G1 X154.304 Y137.715 E5.54451
G1 X153.984 Y137.729 E5.55516
G1 X153.399 Y137.745 E5.57463
G1 X153.098 Y137.749 E5.58464
G1 X67.514 Y137.75 E8.43118
G1 X67.283 Y137.748 E8.43886
G1 X65.854 Y137.718 E8.4864
G1 X64.842 Y137.65 E8.52013
G1 X64.499 Y137.611 E8.53161
G1 X64.012 Y137.544 E8.54796
G1 X63.483 Y137.451 E8.56583
G1 X63.225 Y137.399 E8.57458
G1 X62.73 Y137.288 E8.59146
G1 X62.61 Y137.258 E8.59557
G1 X62.155 Y137.133 E8.61126
G1 X61.77 Y137.019 E8.62462
G1 X61.031 Y136.772 E8.65053
G1 X60.751 Y136.667 E8.66048
G1 X60.312 Y136.491 E8.67621
G1 X60.159 Y136.426 E8.68174
G1 X59.551 Y136.146 E8.704
G1 X59.17 Y135.956 E8.71816
G1 X58.704 Y135.71 E8.73569
G1 X58.629 Y135.668 E8.73855
G1 X58.257 Y135.449 E8.75291
G1 X58.084 Y135.343 E8.75966
G1 X57.796 Y135.161 E8.77099
G1 X57.636 Y135.056 E8.77735
G1 X57.111 Y134.689 E8.79866
G1 X56.866 Y134.507 E8.80881
G1 X56.547 Y134.262 E8.82219
G1 X55.976 Y133.786 E8.84691
G1 X55.79 Y133.62 E8.8552
G1 X55.525 Y133.376 E8.86718
G1 X55.44 Y133.295 E8.87109
G1 X55.047 Y132.901 E8.8896
G1 X54.754 Y132.592 E8.90376
G1 X54.24 Y132.01 E8.92959
G1 X54.064 Y131.796 E8.9388
G1 X53.76 Y131.409 E8.95517
G1 X53.625 Y131.229 E8.96265
G1 X53.233 Y130.671 E8.98534
G1 X53.068 Y130.42 E8.99533
G1 X52.826 Y130.036 E9.01042
G1 X52.503 Y129.476 E9.03192
G1 X52.382 Y129.251 E9.04042
G1 X52.205 Y128.909 E9.05323
G1 X51.899 Y128.259 E9.07712
G1 X51.758 Y127.932 E9.08897
G1 X51.513 Y127.313 E9.11111
G1 X51.409 Y127.025 E9.12129
G1 X51.214 Y126.434 E9.14199
G1 X51.16 Y126.253 E9.14828
G1 X51.005 Y125.675 E9.16818
G1 X50.915 Y125.3 E9.18101
G1 X50.839 Y124.962 E9.19253
G1 X50.815 Y124.846 E9.19647
G1 X50.707 Y124.234 E9.21714
G1 X50.674 Y124.012 E9.2246
G1 X50.629 Y123.677 E9.23585
G1 X50.608 Y123.498 E9.24184
G1 X50.551 Y122.837 E9.26391
G1 X50.535 Y122.554 E9.27333
G1 X50.522 Y122.269 E9.28282
G1 X50.506 Y121.745 E9.30026
G1 X50.501 Y121.41 E9.3114
G1 X50.501 Y102.274 E9.94787
G1 X50.511 Y101.594 E9.97049
G1 X50.565 Y100.658 E10.00167
G1 X50.698 Y99.73 E10.03285
G1 X50.91 Y98.816 E10.06406
G1 X51.199 Y97.924 E10.09525
G1 X51.563 Y97.059 E10.12646
G1 X51.999 Y96.229 E10.15764
G1 X52.505 Y95.439 E10.18885
G1 X53.076 Y94.695 E10.22004
G1 X53.708 Y94.002 E10.25123
G1 X54.397 Y93.366 E10.28242
G1 X55.137 Y92.79 E10.31361
G1 X55.924 Y92.28 E10.3448
G0 F6000 X56.303 Y92.523
G1 F1200 X57.124 Y92.106 E10.37543
G1 X57.977 Y91.762 E10.40602
G1 X58.97 Y91.465 E10.44049
G1 X61.441 Y90.855 E10.52515
G1 X63.872 Y90.183 E10.60903
G1 X66.291 Y89.439 E10.69321
G1 X68.684 Y88.629 E10.77724
G1 X71.04 Y87.756 E10.8608
G1 X73.414 Y86.799 E10.94594
G1 X75.753 Y85.781 E11.03078
G1 X76.74 Y85.408 E11.06588
G1 X77.656 Y85.156 E11.09747
G1 X78.562 Y84.991 E11.1281
G1 X79.709 Y84.895 E11.16639
G1 X80.024 Y84.886 E11.17687
G1 X80.304 Y84.882 E11.18618
G1 X80.942 Y84.882 E11.2074
G1 X81.659 Y84.892 E11.23125
G1 X81.954 Y84.9 E11.24107
G1 X82.732 Y84.933 E11.26697
G1 X85.319 Y85.004 E11.35304
G1 X87.831 Y85.002 E11.43659
G1 X90.439 Y84.926 E11.52337
G1 X90.935 Y84.903 E11.53989
G1 X91.519 Y84.886 E11.55932
G1 X91.804 Y84.882 E11.5688
G1 X92.457 Y84.882 E11.59052
G1 X93.172 Y84.893 E11.6143
G1 X94.091 Y84.947 E11.64492
G1 X94.644 Y85.019 E11.66347
G1 X96.113 Y85.249 E11.71292
G1 X96.422 Y85.301 E11.72334
G1 X98.919 Y85.65 E11.8072
G1 X101.427 Y85.928 E11.89113
G1 X103.929 Y86.134 E11.97463
G1 X106.47 Y86.271 E12.05926
G1 X109.017 Y86.336 E12.14401
G1 X111.526 Y86.329 E12.22746
G1 X114.081 Y86.25 E12.31248
G1 X116.57 Y86.103 E12.3954
G1 X119.105 Y85.88 E12.48004
G1 X121.567 Y85.594 E12.56248
G1 X125.426 Y85.01 E12.69229
G1 X126.719 Y84.895 E12.73547
G1 X127.046 Y84.886 E12.74635
G1 X127.315 Y84.882 E12.7553
G1 X127.942 Y84.882 E12.77615
G1 X128.658 Y84.892 E12.79997
G1 X128.952 Y84.9 E12.80975
G1 X129.729 Y84.932 E12.83561
G1 X132.319 Y85.004 E12.92179
G1 X134.83 Y85.002 E13.00531
G1 X137.439 Y84.926 E13.09212
G1 X137.94 Y84.903 E13.1088
G1 X138.535 Y84.886 E13.1286
G1 X138.815 Y84.882 E13.13791
G1 X139.271 Y84.881 E13.15308
G1 X140.148 Y84.892 E13.18225
G1 X141.067 Y84.945 E13.21287
G1 X141.978 Y85.078 E13.24349
G1 X142.874 Y85.289 E13.27411
G1 X143.748 Y85.577 E13.30471
G1 X144.216 Y85.767 E13.32151
G1 X145.595 Y86.366 E13.37152
G1 X145.7 Y86.413 E13.37534
G1 X148.054 Y87.392 E13.46014
G1 X150.435 Y88.307 E13.54498
G1 X152.787 Y89.129 E13.62785
G1 X155.214 Y89.905 E13.71259
G1 X157.601 Y90.595 E13.79524
G1 X160.235 Y91.274 E13.88571
G1 X161.004 Y91.462 E13.91204
G1 X161.888 Y91.719 E13.94266
G1 X162.747 Y92.051 E13.97329
G1 X163.573 Y92.457 E14.0039
G1 X164.361 Y92.933 E14.03452
G1 X165.105 Y93.476 E14.06515
G1 X165.799 Y94.081 E14.09578
G1 X166.437 Y94.745 E14.1264
G1 X167.016 Y95.461 E14.15703
G1 X167.53 Y96.224 E14.18763
G1 X167.976 Y97.029 E14.21824
G1 X168.351 Y97.87 E14.24886
G1 X168.651 Y98.741 E14.2795
G1 X168.875 Y99.634 E14.31013
G1 X169.02 Y100.543 E14.34074
G1 X169.086 Y101.465 E14.37149
G1 X169.096 Y101.825 E14.38346
G1 X169.1 Y102.119 E14.39324
G1 X169.1 Y120.736 E15.01245
G1 X169.098 Y120.958 E15.01983
G1 X169.068 Y122.387 E15.06737
G1 X169.002 Y123.36 E15.09981
G1 X168.965 Y123.686 E15.11072
G1 X168.905 Y124.135 E15.12579
G1 X168.811 Y124.68 E15.14418
G1 X168.759 Y124.939 E15.15297
G1 X168.66 Y125.382 E15.16806
G1 X168.631 Y125.5 E15.17211
G1 X168.496 Y125.997 E15.18924
G1 X168.381 Y126.383 E15.20263
G1 X168.159 Y127.047 E15.22592
G1 X168.055 Y127.327 E15.23585
G1 X167.864 Y127.804 E15.25294
G1 X167.799 Y127.956 E15.25844
G1 X167.539 Y128.519 E15.27907
G1 X167.348 Y128.902 E15.2933
G1 X167.109 Y129.354 E15.31031
G1 X166.855 Y129.79 E15.32709
G1 X166.745 Y129.969 E15.33408
G1 X166.576 Y130.235 E15.34456
G1 X166.471 Y130.395 E15.35092
G1 X166.118 Y130.9 E15.37142
G1 X165.809 Y131.313 E15.38857
G1 X165.713 Y131.437 E15.39379
G1 X165.221 Y132.027 E15.41934
G1 X165.055 Y132.212 E15.42761
G1 X164.793 Y132.494 E15.44041
G1 X164.376 Y132.913 E15.46007
G1 X164.067 Y133.206 E15.47423
G1 X163.51 Y133.698 E15.49895
G1 X163.295 Y133.875 E15.50821
G1 X162.903 Y134.182 E15.52478
G1 X162.725 Y134.315 E15.53217
G1 X162.203 Y134.682 E15.55339
G1 X161.952 Y134.847 E15.56338
G1 X161.577 Y135.083 E15.57812
G1 X161.063 Y135.38 E15.59786
G1 X160.845 Y135.498 E15.60611
G1 X160.472 Y135.692 E15.62009
G1 X159.851 Y135.984 E15.64291
G1 X159.524 Y136.125 E15.65476
G1 X158.93 Y136.36 E15.676
G1 X158.645 Y136.463 E15.68608
G1 X158.078 Y136.65 E15.70594
G1 X157.894 Y136.705 E15.71233
G1 X157.332 Y136.856 E15.73168
G1 X156.957 Y136.946 E15.74451
G1 X156.534 Y137.039 E15.75892
G1 X155.92 Y137.149 E15.77966
G1 X155.697 Y137.182 E15.78716
G1 X155.38 Y137.224 E15.7978
G1 X155.201 Y137.245 E15.80379
G1 X154.564 Y137.3 E15.82506
G1 X154.281 Y137.316 E15.83448
G1 X153.973 Y137.329 E15.84474
G1 X153.388 Y137.345 E15.8642
G1 X153.098 Y137.349 E15.87385
G1 X67.514 Y137.35 E18.72038
G1 X67.292 Y137.348 E18.72777
G1 X65.863 Y137.318 E18.77531
G1 X64.887 Y137.252 E18.80784
G1 X64.544 Y137.213 E18.81932
G1 X64.072 Y137.149 E18.83517
G1 X63.562 Y137.059 E18.85239
G1 X63.304 Y137.007 E18.86114
G1 X62.827 Y136.9 E18.8774
G1 X62.707 Y136.87 E18.88152
G1 X62.268 Y136.75 E18.89665
G1 X61.883 Y136.636 E18.91001
G1 X61.171 Y136.397 E18.93499
G1 X60.891 Y136.292 E18.94494
G1 X60.468 Y136.123 E18.96009
G1 X60.315 Y136.058 E18.96561
G1 X59.729 Y135.788 E18.98707
G1 X59.348 Y135.598 E19.00123
G1 X58.9 Y135.361 E19.01809
G1 X58.825 Y135.319 E19.02095
G1 X58.466 Y135.108 E19.0348
G1 X58.293 Y135.002 E19.04155
G1 X58.015 Y134.826 E19.05249
G1 X57.855 Y134.721 E19.05886
G1 X57.35 Y134.368 E19.07935
G1 X56.918 Y134.044 E19.09731
G1 X56.792 Y133.946 E19.10262
G1 X56.242 Y133.487 E19.12645
G1 X56.056 Y133.321 E19.13474
G1 X55.801 Y133.087 E19.14625
G1 X55.716 Y133.006 E19.15016
G1 X55.337 Y132.626 E19.16801
G1 X55.044 Y132.317 E19.18217
G1 X54.549 Y131.756 E19.20705
G1 X54.373 Y131.542 E19.21627
G1 X54.08 Y131.169 E19.23204
G1 X53.945 Y130.989 E19.23953
G1 X53.567 Y130.452 E19.26137
G1 X53.402 Y130.201 E19.27136
G1 X53.166 Y129.826 E19.2861
G1 X52.855 Y129.287 E19.30679
G1 X52.734 Y129.062 E19.31529
G1 X52.561 Y128.727 E19.32783
G1 X52.266 Y128.101 E19.35085
G1 X52.125 Y127.774 E19.36269
G1 X51.889 Y127.177 E19.38404
G1 X51.785 Y126.889 E19.39423
G1 X51.597 Y126.319 E19.41419
G1 X51.543 Y126.138 E19.42047
G1 X51.394 Y125.582 E19.43962
G1 X51.304 Y125.207 E19.45245
G1 X51.231 Y124.881 E19.46356
G1 X51.207 Y124.765 E19.4675
G1 X51.102 Y124.176 E19.4874
G1 X51.069 Y123.954 E19.49486
G1 X51.026 Y123.63 E19.50573
G1 X51.005 Y123.451 E19.51173
G1 X50.95 Y122.814 E19.53299
G1 X50.934 Y122.531 E19.54242
G1 X50.922 Y122.257 E19.55154
G1 X50.906 Y121.733 E19.56898
G1 X50.901 Y121.41 E19.57972
G1 X50.901 Y102.28 E20.21599
G1 X50.911 Y101.6 E20.23861
G1 X50.965 Y100.681 E20.26923
G1 X51.098 Y99.77 E20.29985
G1 X51.309 Y98.874 E20.33046
G1 X51.598 Y98 E20.36108
G1 X51.961 Y97.154 E20.3917
G1 X52.397 Y96.343 E20.42232
G1 X52.901 Y95.572 E20.45296
G1 X53.47 Y94.849 E20.48356
G1 X54.099 Y94.177 E20.51418
G1 X54.785 Y93.562 E20.54482
G1 X55.521 Y93.01 E20.57542
G1 X56.303 Y92.523 E20.60606
G0 F6000 X56.68 Y92.772
G1 F1200 X57.494 Y92.38 E20.63611
G1 X58.339 Y92.061 E20.66615
G1 X59.066 Y91.853 E20.6913
G1 X61.538 Y91.243 E20.77599
G1 X63.992 Y90.564 E20.86067
G1 X66.422 Y89.817 E20.94523
G1 X68.815 Y89.007 E21.02926
G1 X71.193 Y88.126 E21.1136
G1 X73.575 Y87.166 E21.19902
G1 X75.913 Y86.148 E21.28383
G1 X76.863 Y85.789 E21.31761
G1 X77.762 Y85.542 E21.34862
G1 X78.651 Y85.382 E21.37866
G1 X79.721 Y85.295 E21.41437
G1 X80.036 Y85.286 E21.42485
G1 X80.305 Y85.282 E21.4338
G1 X80.936 Y85.282 E21.45479
G1 X81.653 Y85.292 E21.47863
G1 X81.937 Y85.3 E21.48808
G1 X82.704 Y85.332 E21.51362
G1 X85.308 Y85.404 E21.60026
G1 X87.842 Y85.402 E21.68454
G1 X90.427 Y85.327 E21.77055
G1 X90.946 Y85.303 E21.78784
G1 X91.53 Y85.286 E21.80727
G1 X91.805 Y85.282 E21.81641
G1 X92.451 Y85.282 E21.8379
G1 X93.166 Y85.293 E21.86168
G1 X94.067 Y85.347 E21.89171
G1 X94.582 Y85.414 E21.90898
G1 X96.047 Y85.643 E21.9583
G1 X96.372 Y85.698 E21.96926
G1 X98.856 Y86.045 E22.05268
G1 X101.386 Y86.325 E22.13734
G1 X103.945 Y86.536 E22.22274
G1 X106.437 Y86.67 E22.30575
G1 X109.008 Y86.736 E22.39129
G1 X111.54 Y86.729 E22.4755
G1 X114.079 Y86.65 E22.55999
G1 X116.595 Y86.501 E22.64382
G1 X119.15 Y86.277 E22.72913
G1 X121.64 Y85.988 E22.8125
G1 X125.485 Y85.406 E22.94184
G1 X126.73 Y85.295 E22.98341
G1 X127.057 Y85.286 E22.99429
G1 X127.316 Y85.282 E23.00291
G1 X127.936 Y85.282 E23.02353
G1 X128.652 Y85.292 E23.04735
G1 X128.936 Y85.3 E23.0568
G1 X129.703 Y85.332 E23.08233
G1 X132.308 Y85.404 E23.16901
G1 X134.841 Y85.402 E23.25325
G1 X137.427 Y85.327 E23.3393
G1 X137.724 Y85.312 E23.34919
G1 X137.952 Y85.303 E23.35678
G1 X138.547 Y85.286 E23.37658
G1 X138.816 Y85.282 E23.38553
G1 X139.272 Y85.281 E23.40069
G1 X140.142 Y85.292 E23.42963
G1 X141.044 Y85.345 E23.45968
G1 X141.937 Y85.477 E23.48971
G1 X142.815 Y85.688 E23.51974
G1 X144.057 Y86.134 E23.56363
G1 X145.431 Y86.731 E23.61346
G1 X145.549 Y86.784 E23.61776
