;FLAVOR:Marlin
;TIME:5432
;Filament used: 1.54885m
;Layer height: 0.2
;MINX:81.198
;MINY:41.199
;MINZ:0.2
;MAXX:138.81
;MAXY:178.796
;MAXZ:2.2
;Generated with Cura_SteamEngine master
M140 S80
M105
M190 S80
M104 S215
M105
M109 S215
M82 ;absolute extrusion mode
; Ender 3 Custom Start G-code
G92 E0 ; Reset Extruder
G28 ; Home all axes
G1 Z2.0 F3000 ; Move Z Axis up little to prevent scratching of Heat Bed
G1 X0.1 Y20 Z0.3 F5000.0 ; Move to start position
G1 X0.1 Y200.0 Z0.3 F1500.0 E15 ; Draw the first line
G1 X0.4 Y200.0 Z0.3 F5000.0 ; Move to side a little
G1 X0.4 Y20 Z0.3 F1500.0 E30 ; Draw the second line
G92 E0 ; Reset Extruder
G1 Z2.0 F3000 ; Move Z Axis up little to prevent scratching of Heat Bed
G1 X5 Y20 Z0.3 F5000.0 ; Move over to prevent blob squish
G92 E0
G92 E0
G1 F1500 E-6.5
;LAYER_COUNT:10
;LAYER:0
M107
G1 F300 Z0.4
G0 F6000 X85.584 Y55.784 Z0.4
;TYPE:SKIRT
G1 F300 Z0.2
G1 F1500 E0
G1 F1200 X86.026 Y55.111 E0.02678
G1 X86.591 Y54.286 E0.06004
G1 X87.361 Y53.143 E0.10588
G1 X87.95 Y52.256 E0.14129
G1 X88.339 Y51.666 E0.16479
G1 X88.522 Y51.393 E0.17573
G1 X88.83 Y50.92 E0.1945
G1 X89.934 Y49.311 E0.2594
G1 X90.04 Y49.139 E0.26612
G1 X91.167 Y47.472 E0.33305
G1 X91.618 Y46.834 E0.35903
G1 X91.827 Y46.557 E0.37057
G1 X92.006 Y46.337 E0.38001
G1 X92.564 Y45.751 E0.40692
G1 X92.87 Y45.476 E0.4206
G1 X93.375 Y45.076 E0.44203
G1 X93.926 Y44.741 E0.46348
G1 X94.218 Y44.599 E0.47428
G1 X94.49 Y44.477 E0.48419
G1 X95.717 Y43.96 E0.52848
G1 X96.265 Y43.723 E0.54834
G1 X97.047 Y43.398 E0.5765
G1 X98.852 Y42.621 E0.64186
G1 X98.965 Y42.58 E0.64586
G1 X100.29 Y42.004 E0.69392
G1 X100.507 Y41.915 E0.70172
G1 X101.025 Y41.717 E0.72016
G1 X101.358 Y41.602 E0.73188
G1 X101.867 Y41.446 E0.74959
G1 X102.494 Y41.296 E0.77103
G1 X102.98 Y41.234 E0.78732
G1 X103.232 Y41.214 E0.79573
G1 X103.757 Y41.199 E0.8132
G1 X104.893 Y41.224 E0.85099
G1 X105.338 Y41.245 E0.86581
G1 X106.276 Y41.311 E0.89708
G1 X107.207 Y41.391 E0.92816
G1 X109.865 Y41.584 E1.0168
G1 X112.572 Y41.702 E1.10692
G1 X114.49 Y41.74 E1.17073
G1 X118.683 Y41.78 E1.31019
G1 X119.365 Y41.798 E1.33289
G1 X120.007 Y41.855 E1.35432
G1 X120.638 Y41.991 E1.37579
G1 X121.246 Y42.204 E1.39722
G1 X121.627 Y42.382 E1.41121
G1 X122.572 Y42.875 E1.44666
G1 X123.368 Y43.315 E1.47691
G1 X124.007 Y43.678 E1.50135
G1 X124.716 Y44.088 E1.52859
G1 X127.279 Y45.522 E1.62627
G1 X128.618 Y46.244 E1.67687
G1 X128.884 Y46.398 E1.68709
G1 X129.18 Y46.581 E1.69867
G1 X129.427 Y46.743 E1.70849
G1 X129.65 Y46.899 E1.71754
G1 X129.989 Y47.158 E1.73173
G1 X130.165 Y47.304 E1.73934
G1 X130.372 Y47.485 E1.74848
G1 X130.567 Y47.665 E1.75731
G1 X131.007 Y48.124 E1.77846
G1 X131.179 Y48.327 E1.78731
G1 X131.514 Y48.768 E1.80573
G1 X131.793 Y49.179 E1.82225
G1 X132.037 Y49.575 E1.83772
G1 X132.277 Y50.008 E1.85419
G1 X133.868 Y52.771 E1.96023
G1 X134.369 Y53.621 E1.99305
G1 X134.94 Y54.619 E2.03129
G1 X135.118 Y54.926 E2.04309
G1 X135.747 Y56.032 E2.08541
G1 X135.975 Y56.445 E2.1011
G1 X136.174 Y56.82 E2.11522
G1 X136.407 Y57.279 E2.13234
G1 X136.557 Y57.591 E2.14386
G1 X136.809 Y58.153 E2.16434
G1 X136.868 Y58.29 E2.1693
G1 X136.998 Y58.606 E2.18067
G1 X137.089 Y58.844 E2.18914
G1 X137.254 Y59.312 E2.20565
G1 X137.327 Y59.534 E2.21342
G1 X137.401 Y59.78 E2.22196
G1 X137.523 Y60.224 E2.23728
G1 X137.583 Y60.465 E2.24554
G1 X137.706 Y61.014 E2.26425
G1 X137.772 Y61.343 E2.27541
G1 X137.865 Y61.883 E2.29364
G1 X137.884 Y62 E2.29758
G1 X138.028 Y62.987 E2.33076
G1 X138.312 Y64.738 E2.38975
G1 X138.497 Y65.944 E2.43034
G1 X138.52 Y66.114 E2.43604
G1 X138.606 Y66.833 E2.46013
G1 X138.638 Y67.16 E2.47105
G1 X138.65 Y67.323 E2.47649
G1 X138.68 Y67.848 E2.49398
G1 X138.694 Y68.269 E2.50799
G1 X138.696 Y68.431 E2.51338
G1 X138.693 Y69.07 E2.53463
G1 X138.643 Y70.68 E2.58821
G1 X138.637 Y70.803 E2.5923
G1 X138.589 Y73.449 E2.68032
G1 X138.615 Y76.165 E2.77066
G1 X138.757 Y79.535 E2.88285
G1 X138.8 Y80.249 E2.90664
G1 X138.809 Y80.539 E2.91629
G1 X138.81 Y80.769 E2.92394
G1 X138.786 Y81.287 E2.94119
G1 X138.764 Y81.517 E2.94887
G1 X138.674 Y82.104 E2.96862
G1 X138.571 Y82.588 E2.98508
G1 X138.533 Y82.754 E2.99075
G1 X138.365 Y83.432 E3.01398
G1 X137.748 Y86.089 E3.1047
G1 X137.223 Y88.68 E3.19263
G1 X136.76 Y91.349 E3.28273
G1 X136.378 Y94 E3.37181
G1 X136.067 Y96.689 E3.46184
G1 X135.836 Y99.334 E3.55015
G1 X135.68 Y101.994 E3.63877
G1 X135.598 Y104.707 E3.72905
G1 X135.592 Y107.381 E3.81799
G1 X135.663 Y110.059 E3.90709
G1 X135.809 Y112.728 E3.99599
G1 X136.03 Y115.393 E4.08494
G1 X136.328 Y118.058 E4.17413
G1 X136.703 Y120.733 E4.26397
G1 X137.204 Y123.668 E4.363
G1 X137.401 Y124.724 E4.39873
G1 X137.47 Y125.227 E4.41561
G1 X137.486 Y125.41 E4.42172
G1 X137.494 Y126.217 E4.44857
G1 X137.446 Y126.909 E4.47164
G1 X137.325 Y128.365 E4.52023
G1 X137.178 Y131.04 E4.60934
G1 X137.108 Y133.71 E4.69817
G1 X137.113 Y136.39 E4.78731
G1 X137.194 Y139.098 E4.87742
G1 X137.351 Y141.771 E4.96648
G1 X137.578 Y144.389 E5.05388
G1 X137.831 Y146.459 E5.12324
G1 X138.002 Y147.96 E5.17348
G1 X138.026 Y148.247 E5.18306
G1 X138.038 Y148.453 E5.18993
G1 X138.036 Y149.097 E5.21135
G1 X137.964 Y149.681 E5.23092
G1 X137.922 Y149.913 E5.23876
G1 X137.768 Y150.539 E5.2602
G1 X137.614 Y150.964 E5.27524
G1 X137.428 Y151.415 E5.29146
G1 X136.66 Y153.205 E5.35625
G1 X135.663 Y155.723 E5.44632
G1 X134.756 Y158.215 E5.53452
G1 X133.899 Y160.798 E5.62504
G1 X133.137 Y163.331 E5.71302
G1 X132.426 Y165.961 E5.80363
G1 X131.799 Y168.564 E5.89268
G1 X131.261 Y171.134 E5.98002
G1 X130.853 Y173.395 E6.05643
G1 X130.773 Y173.81 E6.07049
G1 X130.612 Y174.435 E6.09195
G1 X130.28 Y175.226 E6.12049
G1 X130.203 Y175.374 E6.12604
G1 X129.871 Y175.926 E6.14746
G1 X129.472 Y176.433 E6.16892
G1 X129.014 Y176.887 E6.19037
G1 X128.504 Y177.281 E6.2118
G1 X127.949 Y177.608 E6.23323
G1 X127.357 Y177.865 E6.25469
G1 X126.738 Y178.046 E6.27614
G1 X126.102 Y178.149 E6.29757
G1 X125.715 Y178.172 E6.31047
G1 X123.036 Y178.237 E6.3996
G1 X120.34 Y178.379 E6.48939
G1 X116.697 Y178.691 E6.611
G1 X115.953 Y178.769 E6.63588
G1 X115.309 Y178.796 E6.65732
G1 X114.777 Y178.758 E6.67506
G1 X114.053 Y178.668 E6.69933
G1 X112.63 Y178.474 E6.74709
G1 X109.973 Y178.187 E6.83598
G1 X107.264 Y177.972 E6.92636
G1 X104.627 Y177.838 E7.01418
G1 X101.916 Y177.776 E7.10438
G1 X99.257 Y177.792 E7.19282
G1 X95.449 Y177.941 E7.31957
G1 X94.998 Y177.967 E7.33459
G1 X94.353 Y177.964 E7.35605
G1 X93.714 Y177.882 E7.37747
G1 X93.09 Y177.72 E7.39892
G1 X92.49 Y177.483 E7.42037
G1 X91.939 Y177.182 E7.44125
G1 X91.648 Y176.999 E7.45269
G1 X89.662 Y175.707 E7.53149
G1 X87.359 Y174.302 E7.62122
G1 X85.537 Y173.258 E7.69106
G1 X85.192 Y173.053 E7.70441
G1 X84.659 Y172.69 E7.72586
G1 X84.175 Y172.264 E7.7473
G1 X83.748 Y171.781 E7.76874
G1 X83.425 Y171.318 E7.78752
G1 X83.344 Y171.187 E7.79264
G1 X83.04 Y170.618 E7.8141
G1 X82.808 Y170.017 E7.83553
G1 X82.653 Y169.391 E7.85698
G1 X82.592 Y168.964 E7.87132
G1 X82.563 Y168.671 E7.88112
G1 X82.539 Y168.059 E7.90149
G1 X82.552 Y167.412 E7.92301
G1 X82.604 Y165.875 E7.97416
G1 X82.62 Y163.198 E8.0632
G1 X82.559 Y160.492 E8.15322
G1 X82.425 Y157.854 E8.24108
G1 X82.21 Y155.143 E8.33153
G1 X81.925 Y152.506 E8.41975
G1 X81.658 Y150.491 E8.48735
G1 X81.514 Y149.479 E8.52135
G1 X81.463 Y148.836 E8.5428
G1 X81.494 Y148.17 E8.56498
G1 X81.537 Y147.79 E8.5777
G1 X81.819 Y145.563 E8.65236
G1 X82.078 Y142.913 E8.74092
G1 X82.263 Y140.266 E8.82917
G1 X82.374 Y137.564 E8.91912
G1 X82.408 Y134.853 E9.00929
G1 X82.367 Y132.214 E9.09708
G1 X82.25 Y129.534 E9.1863
G1 X82.055 Y126.828 E9.27654
G1 X81.759 Y123.922 E9.37369
G1 X81.644 Y122.936 E9.40671
G1 X81.609 Y122.292 E9.42816
G1 X81.693 Y121.403 E9.45786
G1 X82.203 Y118.609 E9.55232
G1 X82.607 Y115.97 E9.64112
G1 X82.938 Y113.306 E9.7304
G1 X83.192 Y110.649 E9.81918
G1 X83.37 Y107.983 E9.90805
G1 X83.475 Y105.304 E9.99722
G1 X83.502 Y102.592 E10.08743
G1 X83.456 Y99.954 E10.17518
G1 X83.331 Y97.252 E10.26514
G1 X83.131 Y94.575 E10.35443
G1 X82.857 Y91.91 E10.44354
G1 X82.504 Y89.227 E10.53354
G1 X82.086 Y86.623 E10.62126
G1 X81.589 Y84.073 E10.70767
G1 X81.575 Y83.964 E10.71132
G1 X81.326 Y82.696 E10.7543
G1 X81.262 Y82.277 E10.7684
G1 X81.225 Y81.906 E10.7808
G1 X81.211 Y81.7 E10.78767
G1 X81.199 Y81.364 E10.79885
G1 X81.198 Y81.055 E10.80913
G1 X81.208 Y80.71 E10.82061
G1 X81.235 Y80.283 E10.83484
G1 X81.279 Y79.865 E10.84882
G1 X81.401 Y79.023 E10.87712
G1 X81.747 Y76.365 E10.96627
G1 X82.019 Y73.702 E11.0553
G1 X82.215 Y71.031 E11.14438
G1 X82.336 Y68.327 E11.2344
G1 X82.382 Y65.248 E11.33682
G1 X82.382 Y64.896 E11.34853
G1 X82.422 Y64.253 E11.36996
G1 X82.541 Y63.619 E11.39141
G1 X82.633 Y63.3 E11.40245
G1 X82.741 Y62.965 E11.41416
G1 X82.786 Y62.832 E11.41883
G1 X83.575 Y60.593 E11.49779
G1 X84.189 Y58.881 E11.55828
G1 X84.461 Y58.157 E11.58401
G1 X84.752 Y57.431 E11.61002
G1 X84.969 Y56.93 E11.62818
G1 X85.136 Y56.584 E11.64096
G1 X85.339 Y56.2 E11.6554
G1 X85.584 Y55.784 E11.67146
G1 F1500 E5.17146
G1 F300 Z0.4
;MESH:83.Pineapple.stl
G0 F6000 X116.879 Y151.981 Z0.4
;TYPE:WALL-INNER
G1 F300 Z0.2
G1 F1500 E11.67146
G1 F1200 X116.782 Y151.891 E11.67586
G1 X116.654 Y151.853 E11.6803
G1 X116.618 Y151.843 E11.68155
G1 X116.017 Y151.663 E11.70241
G1 X115.909 Y151.853 E11.70968
G1 X115.793 Y152.056 E11.71746
G1 X115.684 Y151.816 E11.72095
G1 X115.627 Y151.693 E11.724
G1 X115.388 Y151.154 E11.74361
G1 X115.141 Y150.576 E11.76452
G1 X114.886 Y149.989 E11.7858
G1 X114.524 Y149.175 E11.81543
G1 X114.305 Y148.693 E11.83304
G1 X114.11 Y148.274 E11.84841
G1 X113.944 Y147.931 E11.86109
G1 X113.802 Y147.649 E11.87159
G1 X113.512 Y147.232 E11.88848
G1 X112.972 Y147.086 E11.90709
G1 X112.998 Y146.938 E11.91208
G1 X113.03 Y146.432 E11.92895
G1 X112.966 Y145.948 E11.94519
G1 X112.953 Y145.893 E11.94707
G1 X112.943 Y145.856 E11.94834
G1 X112.975 Y145.887 E11.94839
G1 X113.706 Y145.545 E11.97523
G1 X113.85 Y144.895 E11.99738
G1 X113.832 Y144.433 E12.01275
G1 X113.775 Y144.092 E12.02425
G1 X113.771 Y144.074 E12.02487
G1 X113.785 Y144.09
G1 X114.539 Y143.878 E12.05092
G1 X114.564 Y143.801 E12.05361
G1 X114.573 Y143.772 E12.05462
G1 X114.665 Y143.491 E12.06445
G1 X114.74 Y143.264 E12.07241
G1 X114.771 Y143.049 E12.07963
G1 X114.802 Y142.841 E12.08663
G1 X114.814 Y142.745 E12.08984
G1 X114.824 Y142.591 E12.09498
G1 X114.835 Y142.446 E12.09981
G1 X114.84 Y142.202 E12.10793
G1 X114.841 Y142.136 E12.11013
G1 X114.831 Y141.784 E12.12184
G1 X114.821 Y141.648 E12.12637
G1 X114.894 Y141.717 E12.12644
G1 X115.075 Y141.889 E12.13199
G1 X115.122 Y141.934 E12.134
G1 X115.536 Y142.327 E12.15299
G1 X115.788 Y142.567 E12.16456
G1 X115.286 Y142.591 E12.17416
G1 X115.172 Y142.78 E12.18151
G1 X115.093 Y142.912 E12.18596
G1 X115.047 Y142.988 E12.18757
G1 X114.991 Y143.081 E12.18928
G1 X114.974 Y143.284 E12.19305
G1 X114.948 Y143.583 E12.20005
G1 X114.944 Y143.892 E12.20894
G1 X114.944 Y143.923 E12.20996
G1 X114.947 Y144.221 E12.21987
G1 X114.958 Y144.59 E12.23215
G1 X114.978 Y144.987 E12.24537
G1 X115.003 Y145.404 E12.25926
G1 X115.053 Y146.102 E12.28254
G1 X115.082 Y146.431 E12.29352
G1 X115.114 Y146.726 E12.30339
G1 X115.198 Y147.264 E12.3215
G1 X115.32 Y147.786 E12.33933
G1 X115.401 Y148.065 E12.34899
G1 X115.496 Y148.351 E12.35902
G1 X115.606 Y148.656 E12.3698
G1 X115.734 Y148.986 E12.38157
G1 X115.879 Y149.349 E12.39458
G1 X116.137 Y149.976 E12.41713
G1 X116.449 Y150.717 E12.44387
G1 X116.616 Y151.13 E12.45868
G1 X116.744 Y151.472 E12.47083
G1 X116.757 Y151.507 E12.47192
G1 X116.837 Y151.75 E12.47835
G1 X116.86 Y151.876 E12.47982
G1 X116.879 Y151.981 E12.47996
G1 F1500 E5.97996
G1 F300 Z0.4
G0 F6000 X111.988 Y153.292 Z0.4
G1 F300 Z0.2
G1 F1500 E12.47996
G1 F1200 X111.952 Y153.274 E12.4813
G1 X111.891 Y153.244 E12.48356
G1 X111.805 Y153.254 E12.48644
G1 X111.555 Y153.284 E12.49481
G1 X111.581 Y153.168 E12.49511
G1 X111.622 Y152.99 E12.4985
G1 X111.657 Y152.838 E12.50369
G1 X111.777 Y153.025 E12.50642
G1 X111.816 Y153.074 E12.50665
G1 X111.928 Y153.213 E12.50978
G1 X111.961 Y153.254
G1 X111.988 Y153.292 E12.50995
G1 F1500 E6.00995
G1 F300 Z0.4
G0 F6000 X114.914 Y157.599 Z0.4
G1 F300 Z0.2
G1 F1500 E12.50995
G1 F1200 X115.355 Y158.244 E12.53594
G1 X115.504 Y158.467 E12.54486
G1 X115.394 Y158.484
G1 X114.949 Y158.556 E12.55985
G1 X114.914 Y157.599 E12.5917
G1 F1500 E6.0917
G1 F300 Z0.4
G0 F6000 X122.954 Y163.519 Z0.4
G1 F300 Z0.2
G1 F1500 E12.5917
G1 F1200 X123.057 Y163.892 E12.60457
G1 X123.118 Y164.121 E12.61246
G1 X123.259 Y164.646 E12.63054
G1 X123.332 Y164.955 E12.6411
G1 X123.378 Y165.2 E12.64939
G1 X123.417 Y165.541 E12.6608
G1 X123.477 Y165.824 E12.67043
G1 X123.557 Y166.135 E12.68111
G1 X123.582 Y166.221 E12.68409
G1 X123.65 Y166.457 E12.69225
G1 X123.67 Y166.523 E12.69455
G1 X123.821 Y167.006 E12.71138
G1 X123.827 Y167.028 E12.71214
G1 X123.947 Y167.429 E12.72606
G1 X123.971 Y167.508 E12.72881
G1 X124.09 Y167.929 E12.74336
G1 X124.1 Y167.965 E12.7446
G1 X124.212 Y168.387 E12.75912
G1 X124.233 Y168.473 E12.76207
G1 X124.251 Y168.549 E12.76466
G1 X124.307 Y168.776 E12.77244
G1 X124.389 Y169.144 E12.78498
G1 X124.451 Y169.461 E12.79572
G1 X124.55 Y170.089 E12.81687
G1 X124.562 Y170.168 E12.81953
G1 X124.604 Y170.435 E12.82852
G1 X124.624 Y170.551 E12.83243
G1 X124.692 Y170.93 E12.84524
G1 X124.455 Y170.582 E12.84894
G1 X124.435 Y170.553
G1 X124.206 Y170.224 E12.85911
G1 X124.159 Y170.16 E12.86162
G1 X123.887 Y169.788 E12.87695
G1 X123.562 Y169.361 E12.8948
G1 X123.379 Y169.127 E12.90468
G1 X123.291 Y169.014 E12.90944
G1 X123.214 Y168.916 E12.91359
G1 X123.389 Y168.936 E12.91554
G1 X123.506 Y168.854 E12.91911
G1 X123.887 Y168.587 E12.93458
G1 X123.951 Y168.542 E12.93689
G1 X123.953 Y168.384 E12.94088
G1 X123.959 Y167.967 E12.94774
G1 X123.8 Y167.578 E12.95318
G1 X123.762 Y167.485 E12.95492
G1 X123.579 Y167.133 E12.96243
G1 X123.565 Y167.107 E12.96341
G1 X123.332 Y166.629 E12.97745
G1 X123.324 Y166.61 E12.97798
G1 X123.22 Y166.388 E12.98573
G1 X123.079 Y166.088 E12.99676
G1 X122.823 Y165.524 E13.01736
G1 X122.59 Y164.993 E13.03664
G1 X122.394 Y164.528 E13.05343
G1 X122.346 Y164.406 E13.05779
G1 X122.281 Y164.239 E13.06375
G1 X122.218 Y163.98 E13.07261
G1 X122.382 Y164.104 E13.07359
G1 X122.593 Y164.263 E13.07931
G1 X122.633 Y164.293 E13.08014
G1 X122.747 Y164.02 E13.08998
G1 X122.837 Y163.801 E13.0958
G1 X122.954 Y163.519 E13.0983
G1 F1500 E6.5983
G1 F300 Z0.4
G0 F6000 X123.284 Y168.521 Z0.4
;TYPE:WALL-OUTER
G1 F300 Z0.2
G1 F1500 E13.0983
G1 F1200 X123.554 Y168.332 E13.10927
G1 X123.558 Y168.043 E13.11888
G1 X123.399 Y167.654 E13.13286
G1 X123.21 Y167.292 E13.14644
G1 X122.972 Y166.804 E13.1645
G1 X122.717 Y166.257 E13.18457
G1 X122.459 Y165.689 E13.20532
G1 X122.221 Y165.148 E13.22498
G1 X122.025 Y164.683 E13.24176
G1 X121.897 Y164.356 E13.25344
G1 X121.829 Y164.074 E13.26309
G1 X121.692 Y163.764 E13.27436
G1 X121.507 Y163.487 E13.28544
G1 X121.405 Y163.274 E13.29329
G1 X121.346 Y163.021 E13.30194
G1 X121.246 Y162.735 E13.31201
G1 X121.095 Y162.372 E13.32509
G1 X120.886 Y161.925 E13.3415
G1 X120.73 Y161.572 E13.35434
G1 X120.581 Y161.213 E13.36727
G1 X120.487 Y160.958 E13.3763
G1 X120.434 Y160.712 E13.38467
G1 X120.384 Y160.539 E13.39066
G1 X120.235 Y160.177 E13.40368
G1 X120.129 Y159.967 E13.41151
G1 X120.009 Y159.715 E13.42079
G1 X119.89 Y159.455 E13.4303
G1 X119.734 Y159.096 E13.44332
G1 X119.318 Y158.125 E13.47846
G1 X119.194 Y157.849 E13.48852
G1 X119.041 Y157.491 E13.50147
G1 X118.879 Y157.102 E13.51548
G1 X118.574 Y156.348 E13.54254
G1 X118.383 Y155.897 E13.55883
G1 X118.195 Y155.463 E13.57456
G1 X118.025 Y155.088 E13.58825
G1 X117.674 Y154.28 E13.61755
G1 X117.295 Y153.375 E13.65018
G1 X117.144 Y153.037 E13.6625
G1 X116.972 Y152.716 E13.67461
G1 X116.788 Y152.441 E13.68561
G1 X116.579 Y152.248 E13.69508
G1 X116.207 Y152.137 E13.70799
G1 X116.036 Y152.437 E13.71947
G1 X116.013 Y152.745 E13.72975
G1 X116.006 Y153.148 E13.74315
G1 X115.99 Y153.335 E13.74939
G1 X115.867 Y153.115 E13.75778
G1 X115.692 Y152.773 E13.77056
G1 X115.486 Y152.344 E13.78638
G1 X115.261 Y151.855 E13.80429
G1 X115.022 Y151.316 E13.8239
G1 X114.774 Y150.734 E13.84494
G1 X114.52 Y150.15 E13.86612
G1 X114.159 Y149.339 E13.89565
