;FLAVOR:Marlin
;TIME:2633
;Filament used: 1.9415m
;Layer height: 0.28
;MINX:75.398
;MINY:35.399
;MINZ:0.28
;MAXX:144.61
;MAXY:184.594
;MAXZ:2.24
;Generated with Cura_SteamEngine master
M140 S60
M105
M190 S60
M104 S230
M105
M109 S230
M82 ;absolute extrusion mode
; Ender 3 Custom Start G-code
G92 E0 ; Reset Extruder
G28 ; Home all axes
G1 Z2.0 F3000 ; Move Z Axis up little to prevent scratching of Heat Bed
G1 X0.1 Y20 Z0.3 F5000.0 ; Move to start position
G1 X0.1 Y200.0 Z0.3 F1500.0 E15 ; Draw the first line
G1 X0.4 Y200.0 Z0.3 F5000.0 ; Move to side a little
G1 X0.4 Y20 Z0.3 F1500.0 E30 ; Draw the second line
G92 E0 ; Reset Extruder
G1 Z2.0 F3000 ; Move Z Axis up little to prevent scratching of Heat Bed
G1 X5 Y20 Z0.3 F5000.0 ; Move over to prevent blob squish
G92 E0
G92 E0
;LAYER_COUNT:8
;LAYER:0
M107
G0 F6000 X80.723 Y52.621 Z0.28
;TYPE:SKIRT
G1 F1200 X81.221 Y51.861 E0.04654
G1 X81.365 Y51.648 E0.05971
G1 X81.741 Y51.102 E0.09367
G1 X82.553 Y49.898 E0.16805
G1 X83.142 Y49.014 E0.22246
G1 X83.956 Y47.775 E0.29839
G1 X84.11 Y47.545 E0.31257
G1 X85.013 Y46.234 E0.39411
G1 X85.647 Y45.307 E0.45163
G1 X86.408 Y44.158 E0.52222
G1 X86.585 Y43.898 E0.53833
G1 X86.921 Y43.421 E0.56822
G1 X87.568 Y42.591 E0.62212
G1 X87.659 Y42.485 E0.62928
G1 X88.634 Y41.485 E0.70081
G1 X88.973 Y41.179 E0.72421
G1 X89.696 Y40.58 E0.7723
G1 X90.466 Y40.046 E0.82029
G1 X91.28 Y39.579 E0.86836
G1 X91.883 Y39.289 E0.90263
G1 X92.348 Y39.085 E0.92864
G1 X93.299 Y38.685 E0.98149
G1 X94.011 Y38.379 E1.02118
G1 X94.794 Y38.053 E1.06462
G1 X96.561 Y37.293 E1.16315
G1 X96.708 Y37.237 E1.1712
G1 X97.963 Y36.691 E1.24131
G1 X98.431 Y36.5 E1.2672
G1 X99 Y36.283 E1.29839
G1 X99.685 Y36.047 E1.3355
G1 X100.14 Y35.907 E1.35988
G1 X101.047 Y35.67 E1.4079
G1 X102.431 Y35.462 E1.47958
G1 X102.698 Y35.439 E1.49331
G1 X103.306 Y35.403 E1.52451
G1 X103.902 Y35.399 E1.55504
G1 X104.859 Y35.419 E1.60406
G1 X105.198 Y35.432 E1.62144
G1 X105.739 Y35.46 E1.64919
G1 X105.95 Y35.473 E1.66002
G1 X106.779 Y35.533 E1.70259
G1 X107.626 Y35.606 E1.74613
G1 X110.245 Y35.795 E1.88063
G1 X112.797 Y35.906 E2.01147
G1 X114.558 Y35.94 E2.10168
G1 X118.648 Y35.978 E2.31119
G1 X119.518 Y36 E2.35576
G1 X120.454 Y36.065 E2.40382
G1 X121.381 Y36.209 E2.45187
G1 X122.292 Y36.431 E2.4999
G1 X123.18 Y36.731 E2.54791
G1 X124.312 Y37.241 E2.6115
G1 X125.162 Y37.684 E2.6606
G1 X125.388 Y37.805 E2.67373
G1 X126.223 Y38.267 E2.72261
G1 X126.941 Y38.675 E2.76491
G1 X127.546 Y39.025 E2.80071
G1 X130.105 Y40.455 E2.95086
G1 X131.371 Y41.138 E3.02454
G1 X131.926 Y41.459 E3.05738
G1 X132.208 Y41.633 E3.07435
G1 X132.727 Y41.973 E3.10613
G1 X132.962 Y42.137 E3.12081
G1 X133.704 Y42.704 E3.16864
G1 X133.877 Y42.848 E3.18017
G1 X134.299 Y43.218 E3.20892
G1 X134.493 Y43.397 E3.22244
G1 X135.391 Y44.329 E3.28873
G1 X135.569 Y44.537 E3.30275
G1 X136.317 Y45.517 E3.3659
G1 X136.601 Y45.936 E3.39182
G1 X137.113 Y46.768 E3.44186
G1 X137.335 Y47.167 E3.46525
G1 X138.893 Y49.876 E3.62532
G1 X139.008 Y50.068 E3.63678
G1 X139.559 Y51.012 E3.69277
G1 X140.615 Y52.856 E3.80161
G1 X140.864 Y53.3 E3.82768
G1 X141.091 Y53.713 E3.85182
G1 X141.346 Y54.195 E3.87975
G1 X141.579 Y54.654 E3.90612
G1 X141.698 Y54.896 E3.91993
G1 X141.792 Y55.093 E3.93111
G1 X141.913 Y55.356 E3.94594
G1 X142.108 Y55.794 E3.9705
G1 X142.232 Y56.083 E3.98661
G1 X142.362 Y56.399 E4.00411
G1 X142.555 Y56.903 E4.03175
G1 X142.68 Y57.255 E4.05088
G1 X142.764 Y57.5 E4.06415
G1 X142.837 Y57.722 E4.07612
G1 X142.994 Y58.243 E4.10399
G1 X143.116 Y58.687 E4.12758
G1 X143.243 Y59.197 E4.1545
G1 X143.366 Y59.746 E4.18331
G1 X143.429 Y60.05 E4.19922
G1 X143.516 Y60.511 E4.22325
G1 X143.586 Y60.927 E4.24485
G1 X143.622 Y61.161 E4.25698
G1 X143.761 Y62.112 E4.30621
G1 X144.049 Y63.879 E4.39791
G1 X144.232 Y65.084 E4.46034
G1 X144.276 Y65.402 E4.47678
G1 X144.362 Y66.11 E4.51331
G1 X144.401 Y66.483 E4.53252
G1 X144.417 Y66.667 E4.54198
G1 X144.44 Y66.992 E4.55867
G1 X144.47 Y67.517 E4.5856
G1 X144.483 Y67.825 E4.60139
G1 X144.491 Y68.1 E4.61549
G1 X144.496 Y68.442 E4.633
G1 X144.495 Y68.933 E4.65815
G1 X144.49 Y69.248 E4.67429
G1 X144.437 Y70.942 E4.7611
G1 X144.389 Y73.507 E4.8925
G1 X144.413 Y75.988 E5.01959
G1 X144.551 Y79.277 E5.1882
G1 X144.589 Y79.901 E5.22022
G1 X144.609 Y80.514 E5.25164
G1 X144.61 Y80.744 E5.26342
G1 X144.56 Y81.839 E5.31956
G1 X144.538 Y82.069 E5.3314
G1 X144.348 Y83.307 E5.39555
G1 X144.252 Y83.759 E5.41922
G1 X144.17 Y84.114 E5.43788
G1 X144.009 Y84.765 E5.47223
G1 X143.425 Y87.28 E5.60448
G1 X142.921 Y89.758 E5.734
G1 X142.49 Y92.239 E5.86298
G1 X142.127 Y94.754 E5.99314
G1 X141.839 Y97.237 E6.12117
G1 X141.621 Y99.735 E6.24961
G1 X141.474 Y102.248 E6.37854
G1 X141.396 Y104.779 E6.50824
G1 X141.39 Y107.298 E6.63727
G1 X141.456 Y109.794 E6.76516
G1 X141.593 Y112.332 E6.89535
G1 X141.8 Y114.829 E7.02368
G1 X142.077 Y117.314 E7.15176
G1 X142.428 Y119.822 E7.28147
G1 X142.954 Y122.877 E7.44025
G1 X143.096 Y123.626 E7.4793
G1 X143.238 Y124.631 E7.53129
G1 X143.256 Y124.82 E7.54101
G1 X143.305 Y125.757 E7.58907
G1 X143.281 Y126.611 E7.63283
G1 X143.233 Y127.315 E7.66897
G1 X143.11 Y128.8 E7.7453
G1 X142.973 Y131.34 E7.87559
G1 X142.908 Y133.827 E8.00301
G1 X142.915 Y136.353 E8.1324
G1 X142.992 Y138.884 E8.2621
G1 X143.14 Y141.388 E8.39058
G1 X143.356 Y143.856 E8.51747
G1 X143.587 Y145.736 E8.61449
G1 X143.601 Y145.906 E8.62323
G1 X143.76 Y147.275 E8.69382
G1 X143.815 Y147.901 E8.72601
G1 X143.827 Y148.105 E8.73648
G1 X143.842 Y149.043 E8.78453
G1 X143.777 Y149.978 E8.83253
G1 X143.683 Y150.638 E8.86668
G1 X143.644 Y150.862 E8.87833
G1 X143.444 Y151.778 E8.92635
G1 X143.102 Y152.849 E8.98394
G1 X143.064 Y152.95 E8.98946
G1 X142.889 Y153.388 E9.01362
G1 X141.916 Y155.672 E9.14078
G1 X140.995 Y158.013 E9.26964
G1 X140.149 Y160.359 E9.39738
G1 X139.354 Y162.772 E9.52751
G1 X138.631 Y165.199 E9.65722
G1 X137.988 Y167.602 E9.78463
G1 X137.397 Y170.084 E9.91532
G1 X136.886 Y172.555 E10.04456
G1 X136.63 Y173.935 E10.11645
G1 X136.464 Y174.867 E10.16494
G1 X136.261 Y175.783 E10.21299
G1 X135.981 Y176.678 E10.26103
G1 X135.625 Y177.546 E10.30908
G1 X135.196 Y178.38 E10.35712
G1 X134.698 Y179.175 E10.40517
G1 X134.135 Y179.924 E10.45316
G1 X133.509 Y180.623 E10.50123
G1 X132.826 Y181.266 E10.54927
G1 X132.091 Y181.848 E10.59729
G1 X131.309 Y182.366 E10.64534
G1 X130.486 Y182.815 E10.69336
G1 X129.995 Y183.042 E10.72107
G1 X129.907 Y183.08 E10.72598
G1 X129.031 Y183.414 E10.774
G1 X128.129 Y183.673 E10.82206
G1 X127.209 Y183.855 E10.8701
G1 X125.909 Y183.975 E10.93697
G1 X125.543 Y183.986 E10.95572
G1 X123.367 Y184.033 E11.06721
G1 X120.872 Y184.159 E11.19517
G1 X117.048 Y184.484 E11.39174
G1 X116.563 Y184.535 E11.41672
G1 X115.627 Y184.594 E11.46476
G1 X114.69 Y184.572 E11.51276
G1 X114.094 Y184.517 E11.54342
G1 X113.416 Y184.434 E11.57841
G1 X111.832 Y184.219 E11.66028
G1 X109.336 Y183.951 E11.78887
G1 X106.826 Y183.753 E11.91783
G1 X104.307 Y183.626 E12.04702
G1 X101.818 Y183.572 E12.17454
G1 X99.29 Y183.588 E12.30402
G1 X96.109 Y183.709 E12.46707
G1 X95.459 Y183.745 E12.50042
G1 X94.139 Y183.739 E12.56803
G1 X93.921 Y183.725 E12.57922
G1 X92.989 Y183.625 E12.62723
G1 X92.068 Y183.446 E12.67529
G1 X91.166 Y183.19 E12.72331
G1 X90.289 Y182.857 E12.77136
G1 X89.444 Y182.451 E12.81938
G1 X88.605 Y181.954 E12.86933
G1 X87.331 Y181.12 E12.94732
G1 X85.113 Y179.72 E13.08167
G1 X82.991 Y178.462 E13.20802
G1 X82.522 Y178.193 E13.23572
G1 X82.234 Y178.021 E13.2529
G1 X82.029 Y177.895 E13.26522
G1 X81.252 Y177.371 E13.31323
G1 X80.522 Y176.782 E13.36127
G1 X79.845 Y176.133 E13.40931
G1 X79.226 Y175.428 E13.45736
G1 X78.669 Y174.674 E13.50538
G1 X78.178 Y173.874 E13.55346
G1 X77.757 Y173.036 E13.60149
G1 X77.409 Y172.165 E13.64953
G1 X77.137 Y171.268 E13.69754
G1 X76.994 Y170.639 E13.73058
G1 X76.946 Y170.394 E13.74337
G1 X76.805 Y169.467 E13.7914
G1 X76.742 Y168.114 E13.86078
G1 X76.748 Y167.817 E13.87599
G1 X76.819 Y165.435 E13.99805
G1 X76.823 Y162.914 E14.12718
G1 X76.755 Y160.391 E14.25646
G1 X76.617 Y157.894 E14.38455
G1 X76.408 Y155.388 E14.51335
G1 X76.123 Y152.842 E14.64458
G1 X75.919 Y151.337 E14.72237
G1 X75.774 Y150.324 E14.77478
G1 X75.68 Y149.39 E14.82287
G1 X75.666 Y148.453 E14.87086
G1 X75.724 Y147.594 E14.91496
G1 X75.781 Y147.08 E14.94145
G1 X76.05 Y144.957 E15.05106
G1 X76.297 Y142.436 E15.18081
G1 X76.472 Y139.921 E15.30994
G1 X76.575 Y137.4 E15.43917
G1 X76.607 Y134.91 E15.56672
G1 X76.567 Y132.352 E15.69776
G1 X76.459 Y129.891 E15.82394
G1 X76.274 Y127.322 E15.95586
G1 X76.025 Y124.848 E16.08322
G1 X75.958 Y124.305 E16.11125
G1 X75.873 Y123.52 E16.15169
G1 X75.812 Y122.584 E16.19974
G1 X75.831 Y121.647 E16.24774
G1 X75.977 Y120.418 E16.31113
G1 X76.126 Y119.584 E16.35453
G1 X76.346 Y118.43 E16.4147
G1 X76.749 Y115.948 E16.54349
G1 X77.083 Y113.439 E16.67314
G1 X77.343 Y110.95 E16.80132
G1 X77.531 Y108.471 E16.92866
G1 X77.652 Y105.917 E17.05963
G1 X77.701 Y103.422 E17.18745
G1 X77.677 Y100.861 E17.31863
G1 X77.585 Y98.386 E17.44549
G1 X77.42 Y95.883 E17.57397
G1 X77.182 Y93.353 E17.70413
G1 X76.876 Y90.861 E17.83273
G1 X76.495 Y88.348 E17.96292
G1 X76.049 Y85.879 E18.09143
G1 X75.824 Y84.776 E18.14909
G1 X75.635 Y83.813 E18.19936
G1 X75.47 Y82.648 E18.25962
G1 X75.44 Y82.303 E18.27736
G1 X75.399 Y81.384 E18.32448
G1 X75.398 Y81.063 E18.34092
G1 X75.42 Y80.335 E18.37823
G1 X75.446 Y79.924 E18.39932
G1 X75.538 Y79.041 E18.44479
G1 X75.642 Y78.324 E18.4819
G1 X75.988 Y75.671 E18.61894
G1 X76.242 Y73.182 E18.74709
G1 X76.424 Y70.699 E18.87461
G1 X76.537 Y68.179 E19.00382
G1 X76.582 Y65.154 E19.15878
G1 X76.582 Y64.896 E19.17199
G1 X76.622 Y63.959 E19.22003
G1 X76.742 Y63.029 E19.26806
G1 X76.94 Y62.112 E19.31611
G1 X77.113 Y61.521 E19.34766
G1 X77.221 Y61.186 E19.36568
G1 X77.316 Y60.904 E19.38093
G1 X78.11 Y58.649 E19.50338
G1 X78.539 Y57.449 E19.56865
G1 X78.926 Y56.393 E19.62626
G1 X79.064 Y56.035 E19.64591
G1 X79.368 Y55.275 E19.68784
G1 X79.504 Y54.949 E19.70593
G1 X79.655 Y54.604 E19.72522
G1 X79.997 Y53.894 E19.76559
G1 X80.189 Y53.529 E19.78671
G1 X80.723 Y52.621 E19.84067
G0 F6000 X81.058 Y52.84
G1 F1200 X81.556 Y52.08 E19.88721
G1 X81.694 Y51.875 E19.89986
G1 X82.103 Y51.282 E19.93676
G1 X82.878 Y50.132 E20.00779
G1 X83.475 Y49.236 E20.06294
G1 X84.439 Y47.772 E20.15272
G1 X85.342 Y46.461 E20.23426
G1 X85.989 Y45.515 E20.29297
G1 X86.741 Y44.379 E20.36275
G1 X86.912 Y44.129 E20.37826
G1 X87.248 Y43.652 E20.40815
G1 X87.871 Y42.851 E20.46012
G1 X87.962 Y42.745 E20.46728
G1 X88.902 Y41.781 E20.53624
G1 X89.241 Y41.475 E20.55963
G1 X89.951 Y40.889 E20.60679
G1 X90.709 Y40.366 E20.65396
G1 X91.509 Y39.911 E20.7011
G1 X92.046 Y39.655 E20.73157
G1 X92.503 Y39.454 E20.75714
G1 X93.479 Y39.044 E20.81136
G1 X94.165 Y38.749 E20.84961
G1 X94.86 Y38.46 E20.88817
G1 X96.719 Y37.66 E20.99183
G1 X96.878 Y37.6 E21.00053
G1 X98.123 Y37.058 E21.07008
G1 X98.574 Y36.874 E21.09503
G1 X99.143 Y36.657 E21.12622
G1 X99.803 Y36.43 E21.16197
G1 X100.258 Y36.29 E21.18636
G1 X101.149 Y36.057 E21.23353
G1 X102.465 Y35.86 E21.30169
G1 X102.732 Y35.837 E21.31541
G1 X103.319 Y35.803 E21.34553
G1 X103.893 Y35.799 E21.37493
G1 X104.85 Y35.819 E21.42396
G1 X105.177 Y35.831 E21.44072
G1 X105.718 Y35.859 E21.46847
G1 X106.583 Y35.919 E21.51288
G1 X106.745 Y35.931 E21.5212
G1 X107.636 Y36.008 E21.56701
G1 X110.233 Y36.195 E21.70037
G1 X112.772 Y36.305 E21.83054
G1 X114.546 Y36.34 E21.92143
G1 X118.644 Y36.378 E22.13134
G1 X119.508 Y36.4 E22.17561
G1 X120.426 Y36.464 E22.22274
G1 X121.335 Y36.608 E22.26988
G1 X122.229 Y36.83 E22.31706
G1 X123.1 Y37.128 E22.36422
G1 X124.127 Y37.596 E22.42202
G1 X124.977 Y38.039 E22.47112
G1 X125.195 Y38.156 E22.48379
G1 X126.026 Y38.615 E22.53242
G1 X126.741 Y39.021 E22.57453
G1 X127.357 Y39.377 E22.61098
G1 X129.925 Y40.813 E22.76168
G1 X131.181 Y41.49 E22.83476
G1 X131.716 Y41.799 E22.86641
G1 X131.998 Y41.973 E22.88338
G1 X132.498 Y42.301 E22.91401
G1 X132.733 Y42.465 E22.92869
G1 X133.448 Y43.011 E22.97477
G1 X133.621 Y43.155 E22.9863
G1 X134.028 Y43.512 E23.01403
G1 X134.222 Y43.691 E23.02755
G1 X135.088 Y44.589 E23.09145
G1 X135.266 Y44.797 E23.10547
G1 X135.986 Y45.742 E23.16632
G1 X136.27 Y46.161 E23.19225
G1 X136.763 Y46.962 E23.24042
G1 X136.997 Y47.384 E23.26514
G1 X138.522 Y50.035 E23.42179
G1 X138.662 Y50.27 E23.4358
G1 X139.212 Y51.21 E23.49158
G1 X140.266 Y53.052 E23.60029
G1 X140.514 Y53.493 E23.6262
G1 X140.738 Y53.902 E23.65009
G1 X140.989 Y54.376 E23.67756
G1 X141.222 Y54.835 E23.70392
G1 X141.337 Y55.068 E23.71723
G1 X141.431 Y55.265 E23.72841
G1 X141.548 Y55.519 E23.74274
G1 X141.743 Y55.957 E23.76729
G1 X141.862 Y56.235 E23.78278
G1 X141.992 Y56.551 E23.80029
G1 X142.178 Y57.037 E23.82694
G1 X142.303 Y57.389 E23.84607
G1 X142.457 Y57.847 E23.87082
G1 X142.608 Y58.349 E23.89767
G1 X142.73 Y58.793 E23.92126
G1 X142.853 Y59.285 E23.94723
G1 X142.976 Y59.834 E23.97605
G1 X143.037 Y60.126 E23.99133
G1 X143.073 Y60.311 E24.00098
G1 X143.121 Y60.577 E24.01483
G1 X143.227 Y61.219 E24.04816
G1 X143.365 Y62.164 E24.09707
G1 X143.654 Y63.94 E24.18924
G1 X143.837 Y65.144 E24.25162
G1 X143.879 Y65.45 E24.26744
G1 X143.965 Y66.158 E24.30397
G1 X144.002 Y66.518 E24.3225
G1 X144.018 Y66.702 E24.33196
G1 X144.041 Y67.015 E24.34804
G1 X144.071 Y67.54 E24.37497
G1 X144.084 Y67.837 E24.3902
G1 X144.092 Y68.112 E24.40429
G1 X144.096 Y68.442 E24.4212
G1 X144.095 Y68.933 E24.44635
G1 X144.09 Y69.236 E24.46187
G1 X144.037 Y70.924 E24.54837
G1 X143.989 Y73.504 E24.68054
G1 X144.013 Y75.978 E24.80727
G1 X144.153 Y79.317 E24.97844
G1 X144.19 Y79.925 E25.00964
G1 X144.209 Y80.516 E25.03993
G1 X144.21 Y80.746 E25.05171
G1 X144.162 Y81.801 E25.10581
G1 X144.14 Y82.031 E25.11764
G1 X143.957 Y83.224 E25.17946
G1 X143.861 Y83.676 E25.20313
G1 X143.782 Y84.018 E25.22111
G1 X143.624 Y84.658 E25.25487
G1 X143.031 Y87.208 E25.38897
G1 X142.529 Y89.682 E25.51827
G1 X142.096 Y92.172 E25.64773
G1 X141.732 Y94.688 E25.77794
G1 X141.442 Y97.192 E25.90705
G1 X141.222 Y99.71 E26.03652
G1 X141.073 Y102.249 E26.16679
G1 X140.996 Y104.766 E26.29577
G1 X140.99 Y107.308 E26.42598
G1 X141.056 Y109.825 E26.55494
G1 X141.191 Y112.318 E26.68282
G1 X141.403 Y114.874 E26.81419
G1 X141.682 Y117.373 E26.94299
G1 X142.033 Y119.885 E27.0729
G1 X142.563 Y122.964 E27.23293
G1 X142.703 Y123.701 E27.27136
G1 X142.84 Y124.669 E27.32143
G1 X142.858 Y124.858 E27.33116
G1 X142.906 Y125.777 E27.37829
G1 X142.881 Y126.584 E27.41965
G1 X142.822 Y127.444 E27.4638
G1 X142.708 Y128.816 E27.53432
G1 X142.573 Y131.307 E27.6621
G1 X142.508 Y133.818 E27.79075
G1 X142.515 Y136.366 E27.92126
G1 X142.592 Y138.886 E28.0504
G1 X142.741 Y141.408 E28.1798
G1 X142.96 Y143.914 E28.30865
G1 X143.19 Y145.785 E28.40521
G1 X143.202 Y145.938 E28.41307
G1 X143.363 Y147.321 E28.48438
G1 X143.416 Y147.925 E28.51544
G1 X143.428 Y148.129 E28.52591
G1 X143.442 Y149.049 E28.57304
G1 X143.376 Y149.967 E28.62018
G1 X143.289 Y150.569 E28.65133
G1 X143.25 Y150.793 E28.66298
G1 X143.053 Y151.692 E28.71012
G1 X142.728 Y152.708 E28.76476
G1 X142.69 Y152.809 E28.77028
G1 X142.521 Y153.231 E28.79357
G1 X141.549 Y155.513 E28.92062
G1 X140.623 Y157.867 E29.05018
G1 X139.769 Y160.233 E29.17902
G1 X138.967 Y162.67 E29.31043
G1 X138.256 Y165.054 E29.43786
G1 X137.597 Y167.52 E29.5686
G1 X137.004 Y170.008 E29.69961
G1 X136.489 Y172.498 E29.82985
G1 X136.251 Y173.784 E29.89683
G1 X136.071 Y174.797 E29.94953
G1 X135.87 Y175.696 E29.99672
G1 X135.593 Y176.574 E30.04387
G1 X135.24 Y177.424 E30.09102
G1 X134.815 Y178.241 E30.13819
G1 X134.321 Y179.018 E30.18535
G1 X133.761 Y179.749 E30.23251
G1 X133.14 Y180.428 E30.27965
G1 X132.462 Y181.051 E30.32681
G1 X131.733 Y181.613 E30.37396
G1 X130.957 Y182.109 E30.42113
G1 X129.836 Y182.674 E30.48543
G1 X129.748 Y182.712 E30.49034
G1 X128.888 Y183.04 E30.53748
G1 X128.002 Y183.292 E30.58466
G1 X127.098 Y183.467 E30.63183
G1 X125.896 Y183.575 E30.69364
G1 X125.535 Y183.586 E30.71214
G1 X123.373 Y183.633 E30.82291
G1 X120.846 Y183.76 E30.9525
G1 X117.027 Y184.085 E31.14882
G1 X116.522 Y184.138 E31.17483
G1 X115.603 Y184.194 E31.22199
G1 X114.682 Y184.171 E31.26918
G1 X114.142 Y184.12 E31.29696
G1 X113.469 Y184.037 E31.33169
G1 X111.888 Y183.822 E31.41342
