;FLAVOR:Marlin
;TIME:4121
;Filament used: 1.80835m
;Layer height: 0.28
;MINX:75.39
;MINY:35.406
;MINZ:0.28
;MAXX:144.602
;MAXY:184.601
;MAXZ:2.24
;Generated with Cura_SteamEngine master
M140 S60
M105
M190 S60
M104 S205
M105
M109 S205
M82 ;absolute extrusion mode
; Ender 3 Custom Start G-code
G92 E0 ; Reset Extruder
G28 ; Home all axes
G1 Z2.0 F3000 ; Move Z Axis up little to prevent scratching of Heat Bed
G1 X0.1 Y20 Z0.3 F5000.0 ; Move to start position
G1 X0.1 Y200.0 Z0.3 F1500.0 E15 ; Draw the first line
G1 X0.4 Y200.0 Z0.3 F5000.0 ; Move to side a little
G1 X0.4 Y20 Z0.3 F1500.0 E30 ; Draw the second line
G92 E0 ; Reset Extruder
G1 Z2.0 F3000 ; Move Z Axis up little to prevent scratching of Heat Bed
G1 X5 Y20 Z0.3 F5000.0 ; Move over to prevent blob squish
G92 E0
G92 E0
G1 F3600 E-6
;LAYER_COUNT:8
;LAYER:0
M106 S255
G0 F6000 X84.375 Y42.454 Z0.28
;TYPE:SKIRT
G1 F3600 E0
G1 F3300 X84.804 Y41.62 E0.04367
G1 X85.302 Y40.825 E0.08735
G1 X85.865 Y40.076 E0.13098
G1 X86.491 Y39.377 E0.17468
G1 X87.174 Y38.734 E0.21836
G1 X87.909 Y38.152 E0.26201
G1 X88.691 Y37.634 E0.30569
G1 X89.514 Y37.185 E0.34934
G1 X90.047 Y36.941 E0.37664
G1 X90.136 Y36.903 E0.38114
G1 X91.013 Y36.571 E0.42481
G1 X91.916 Y36.316 E0.4685
G1 X92.836 Y36.139 E0.51213
G1 X94.09 Y36.025 E0.57076
G1 X94.457 Y36.014 E0.58786
G1 X96.633 Y35.967 E0.6892
G1 X99.128 Y35.841 E0.80553
G1 X102.952 Y35.516 E0.98423
G1 X103.437 Y35.465 E1.00694
G1 X104.373 Y35.406 E1.05061
G1 X105.31 Y35.428 E1.09425
G1 X105.906 Y35.483 E1.12212
G1 X106.584 Y35.566 E1.15393
G1 X108.168 Y35.781 E1.22836
G1 X110.664 Y36.049 E1.34526
G1 X113.174 Y36.247 E1.46249
G1 X115.693 Y36.374 E1.57994
G1 X118.182 Y36.428 E1.69586
G1 X120.71 Y36.412 E1.81358
G1 X123.891 Y36.291 E1.96181
G1 X124.541 Y36.255 E1.99212
G1 X125.861 Y36.261 E2.05359
G1 X126.079 Y36.275 E2.06376
G1 X127.011 Y36.375 E2.10741
G1 X127.932 Y36.554 E2.15109
G1 X128.834 Y36.81 E2.19475
G1 X129.711 Y37.143 E2.23844
G1 X130.556 Y37.549 E2.28209
G1 X131.395 Y38.046 E2.3275
G1 X132.669 Y38.88 E2.3984
G1 X134.887 Y40.28 E2.52053
G1 X137.009 Y41.538 E2.6354
G1 X137.478 Y41.807 E2.66058
G1 X137.766 Y41.979 E2.6762
G1 X137.971 Y42.105 E2.6874
G1 X138.748 Y42.629 E2.73104
G1 X139.478 Y43.218 E2.77472
G1 X140.155 Y43.867 E2.81839
G1 X140.774 Y44.572 E2.86207
G1 X141.331 Y45.326 E2.90572
G1 X141.822 Y46.126 E2.94943
G1 X142.243 Y46.964 E2.9931
G1 X142.591 Y47.835 E3.03677
G1 X142.863 Y48.732 E3.08042
G1 X143.006 Y49.361 E3.11045
G1 X143.054 Y49.606 E3.12208
G1 X143.195 Y50.533 E3.16574
G1 X143.256 Y51.469 E3.20942
G1 X143.254 Y52.042 E3.2361
G1 X143.181 Y54.552 E3.35302
G1 X143.177 Y57.084 E3.47093
G1 X143.245 Y59.609 E3.58854
G1 X143.383 Y62.106 E3.70499
G1 X143.592 Y64.611 E3.82204
G1 X143.877 Y67.158 E3.94138
G1 X144.081 Y68.663 E4.0121
G1 X144.227 Y69.684 E4.06012
G1 X144.32 Y70.617 E4.10378
G1 X144.334 Y71.555 E4.14747
G1 X144.275 Y72.42 E4.18784
G1 X144.219 Y72.922 E4.21136
G1 X143.949 Y75.05 E4.31124
G1 X143.706 Y77.519 E4.42676
G1 X143.531 Y80.049 E4.54485
G1 X143.426 Y82.582 E4.6629
G1 X143.393 Y85.072 E4.77886
G1 X143.432 Y87.595 E4.89635
G1 X143.541 Y90.114 E5.01376
G1 X143.722 Y92.629 E5.13117
G1 X143.978 Y95.169 E5.25004
G1 X144.04 Y95.679 E5.27396
G1 X144.126 Y96.466 E5.31083
G1 X144.188 Y97.402 E5.35451
G1 X144.17 Y98.34 E5.39819
G1 X144.024 Y99.571 E5.45591
G1 X143.874 Y100.416 E5.49588
G1 X143.654 Y101.57 E5.55058
G1 X143.251 Y104.052 E5.66766
G1 X142.917 Y106.561 E5.78552
G1 X142.657 Y109.05 E5.90205
G1 X142.469 Y111.529 E6.01782
G1 X142.348 Y114.083 E6.13688
G1 X142.299 Y116.578 E6.25308
G1 X142.323 Y119.139 E6.37233
G1 X142.415 Y121.614 E6.48766
G1 X142.58 Y124.113 E6.60428
G1 X142.818 Y126.649 E6.72288
G1 X143.124 Y129.133 E6.83942
G1 X143.502 Y131.627 E6.95688
G1 X143.959 Y134.157 E7.07659
G1 X144.165 Y135.167 E7.12459
G1 X144.363 Y136.172 E7.17229
G1 X144.528 Y137.333 E7.22689
G1 X144.559 Y137.685 E7.24334
G1 X144.601 Y138.616 E7.28674
G1 X144.602 Y138.937 E7.30169
G1 X144.58 Y139.665 E7.3356
G1 X144.554 Y140.076 E7.35478
G1 X144.462 Y140.959 E7.39612
G1 X144.361 Y141.654 E7.42882
G1 X144.012 Y144.329 E7.55443
G1 X143.758 Y146.818 E7.67093
G1 X143.576 Y149.301 E7.78686
G1 X143.463 Y151.821 E7.90432
G1 X143.418 Y154.846 E8.04519
G1 X143.418 Y155.103 E8.05716
G1 X143.378 Y156.04 E8.10083
G1 X143.258 Y156.97 E8.1445
G1 X143.06 Y157.887 E8.18818
G1 X142.89 Y158.469 E8.21641
G1 X142.782 Y158.805 E8.23285
G1 X142.684 Y159.096 E8.24714
G1 X141.891 Y161.347 E8.35827
G1 X141.491 Y162.467 E8.41365
G1 X141.149 Y163.406 E8.46019
G1 X141.022 Y163.744 E8.477
G1 X140.938 Y163.96 E8.48779
G1 X140.632 Y164.725 E8.52616
G1 X140.51 Y165.017 E8.54089
G1 X140.379 Y165.319 E8.55622
G1 X140.199 Y165.713 E8.57639
G1 X140.009 Y166.094 E8.59621
G1 X139.817 Y166.46 E8.61546
G1 X139.277 Y167.379 E8.66509
G1 X138.779 Y168.139 E8.7074
G1 X138.635 Y168.352 E8.71937
G1 X138.196 Y168.989 E8.7554
G1 X137.87 Y169.471 E8.78249
G1 X136.893 Y170.933 E8.86437
G1 X136.044 Y172.225 E8.93636
G1 X135.887 Y172.459 E8.94948
G1 X135.028 Y173.705 E9.01995
G1 X134.532 Y174.437 E9.06112
G1 X134.286 Y174.795 E9.08135
G1 X133.6 Y175.832 E9.13925
G1 X133.41 Y176.11 E9.15493
G1 X133.071 Y176.59 E9.18229
G1 X132.432 Y177.409 E9.23066
G1 X132.341 Y177.515 E9.23716
G1 X131.701 Y178.2 E9.28082
G1 X131.358 Y178.523 E9.30275
G1 X131.015 Y178.832 E9.32425
G1 X130.292 Y179.429 E9.36791
G1 X129.52 Y179.963 E9.41162
G1 X128.707 Y180.429 E9.45525
G1 X128.087 Y180.725 E9.48725
G1 X127.649 Y180.916 E9.5095
G1 X126.696 Y181.316 E9.55762
G1 X125.997 Y181.617 E9.59306
G1 X125.238 Y181.933 E9.63134
G1 X123.442 Y182.706 E9.72239
G1 X123.296 Y182.762 E9.72967
G1 X122.043 Y183.307 E9.7933
G1 X121.564 Y183.502 E9.81738
G1 X120.991 Y183.72 E9.84592
G1 X120.315 Y183.953 E9.87922
G1 X119.86 Y184.093 E9.90139
G1 X118.953 Y184.33 E9.94504
G1 X117.569 Y184.538 E10.01021
G1 X117.302 Y184.561 E10.02268
G1 X116.682 Y184.597 E10.0516
G1 X116.097 Y184.601 E10.07884
G1 X115.141 Y184.581 E10.12337
G1 X114.802 Y184.568 E10.13917
G1 X114.04 Y184.527 E10.1747
G1 X113.22 Y184.467 E10.21298
G1 X112.337 Y184.391 E10.25425
G1 X109.755 Y184.205 E10.37479
G1 X107.203 Y184.094 E10.49374
G1 X105.442 Y184.06 E10.57575
G1 X101.352 Y184.022 E10.76621
G1 X100.482 Y184 E10.80673
G1 X99.546 Y183.935 E10.85042
G1 X98.619 Y183.791 E10.8941
G1 X97.708 Y183.569 E10.93776
G1 X96.82 Y183.269 E10.98141
G1 X95.688 Y182.759 E11.03922
G1 X94.838 Y182.316 E11.08385
G1 X94.61 Y182.193 E11.09592
G1 X93.749 Y181.718 E11.14171
G1 X93.044 Y181.316 E11.1795
G1 X92.476 Y180.988 E11.21004
G1 X89.868 Y179.53 E11.34917
G1 X88.628 Y178.861 E11.41477
G1 X88.066 Y178.537 E11.44498
G1 X87.786 Y178.364 E11.4603
G1 X87.273 Y178.027 E11.48889
G1 X87.038 Y177.863 E11.50223
G1 X86.296 Y177.296 E11.54571
G1 X86.123 Y177.152 E11.55619
G1 X85.701 Y176.782 E11.58233
G1 X85.507 Y176.603 E11.59462
G1 X84.609 Y175.671 E11.65488
G1 X84.431 Y175.463 E11.66763
G1 X83.689 Y174.492 E11.72453
G1 X83.403 Y174.071 E11.74823
G1 X82.884 Y173.228 E11.79433
G1 X82.664 Y172.832 E11.81542
G1 X81.166 Y170.227 E11.95535
G1 X80.99 Y169.931 E11.97138
G1 X80.536 Y169.156 E12.01321
G1 X80.229 Y168.619 E12.04201
G1 X80 Y168.229 E12.06307
G1 X79.95 Y168.132 E12.06815
G1 X79.329 Y167.044 E12.12648
G1 X78.909 Y166.287 E12.1668
G1 X78.658 Y165.813 E12.19177
G1 X78.423 Y165.351 E12.21591
G1 X78.289 Y165.077 E12.23011
G1 X78.197 Y164.883 E12.24011
G1 X78.083 Y164.635 E12.25282
G1 X77.888 Y164.196 E12.27518
G1 X77.773 Y163.927 E12.28881
G1 X77.643 Y163.612 E12.30467
G1 X77.444 Y163.093 E12.33056
G1 X77.311 Y162.718 E12.34908
G1 X77.157 Y162.257 E12.37172
G1 X77.006 Y161.757 E12.39604
G1 X76.884 Y161.313 E12.41748
G1 X76.754 Y160.79 E12.44257
G1 X76.627 Y160.22 E12.46976
G1 X76.53 Y159.738 E12.49266
G1 X76.483 Y159.478 E12.50496
G1 X76.415 Y159.074 E12.52404
G1 X76.378 Y158.839 E12.53511
G1 X76.238 Y157.879 E12.58029
G1 X75.951 Y156.121 E12.66323
G1 X75.768 Y154.916 E12.71999
G1 X75.723 Y154.586 E12.73549
G1 X75.637 Y153.871 E12.76903
G1 X75.603 Y153.547 E12.7842
G1 X75.587 Y153.37 E12.79247
G1 X75.56 Y153.006 E12.80947
G1 X75.53 Y152.48 E12.834
G1 X75.517 Y152.175 E12.84822
G1 X75.509 Y151.901 E12.86098
G1 X75.504 Y151.558 E12.87695
G1 X75.505 Y151.067 E12.89982
G1 X75.51 Y150.752 E12.91449
G1 X75.563 Y149.058 E12.9934
G1 X75.611 Y146.493 E13.11286
G1 X75.587 Y144.012 E13.22839
G1 X75.449 Y140.723 E13.38168
G1 X75.411 Y140.099 E13.41079
G1 X75.391 Y139.485 E13.43939
G1 X75.39 Y139.25 E13.45034
G1 X75.442 Y138.133 E13.5024
G1 X75.464 Y137.908 E13.51293
G1 X75.651 Y136.695 E13.57008
G1 X75.749 Y136.233 E13.59207
G1 X75.833 Y135.869 E13.60947
G1 X76.007 Y135.167 E13.64314
G1 X76.575 Y132.72 E13.76012
G1 X77.079 Y130.242 E13.87786
G1 X77.51 Y127.761 E13.99512
G1 X77.873 Y125.246 E14.11344
G1 X78.161 Y122.763 E14.22984
G1 X78.379 Y120.265 E14.3466
G1 X78.526 Y117.752 E14.46381
G1 X78.604 Y115.221 E14.58172
G1 X78.61 Y112.702 E14.69902
G1 X78.544 Y110.205 E14.81533
G1 X78.407 Y107.667 E14.93368
G1 X78.199 Y105.167 E15.05049
G1 X77.924 Y102.693 E15.1664
G1 X77.571 Y100.174 E15.28484
G1 X77.046 Y97.123 E15.429
G1 X76.903 Y96.369 E15.46474
G1 X76.753 Y95.286 E15.51565
G1 X76.736 Y95.093 E15.52467
G1 X76.694 Y94.156 E15.56834
G1 X76.72 Y93.37 E15.60496
G1 X76.78 Y92.523 E15.6445
G1 X76.89 Y91.2 E15.70632
G1 X77.027 Y88.66 E15.82476
G1 X77.092 Y86.173 E15.94061
G1 X77.085 Y83.647 E16.05823
G1 X77.008 Y81.116 E16.17614
G1 X76.86 Y78.612 E16.29294
G1 X76.644 Y76.147 E16.40816
G1 X76.413 Y74.265 E16.49645
G1 X76.4 Y74.097 E16.5043
G1 X76.24 Y72.725 E16.56861
G1 X76.185 Y72.093 E16.59815
G1 X76.173 Y71.887 E16.60776
G1 X76.158 Y70.949 E16.65145
G1 X76.223 Y70.013 E16.69513
G1 X76.328 Y69.299 E16.72874
G1 X76.371 Y69.06 E16.74005
G1 X76.576 Y68.145 E16.78371
G1 X76.975 Y66.944 E16.84264
G1 X77.11 Y66.613 E16.85928
G1 X78.083 Y64.329 E16.97488
G1 X79.014 Y61.962 E17.09332
G1 X79.849 Y59.649 E17.20783
G1 X80.646 Y57.228 E17.32651
G1 X81.369 Y54.801 E17.44443
G1 X82.012 Y52.398 E17.56026
G1 X82.603 Y49.916 E17.67906
G1 X83.114 Y47.445 E17.79656
G1 X83.37 Y46.065 E17.86191
G1 X83.536 Y45.133 E17.90599
G1 X83.739 Y44.217 E17.94968
G1 X84.019 Y43.322 E17.99335
G1 X84.375 Y42.454 E18.03703
G0 F6000 X84.76 Y42.576
G1 F3300 X85.185 Y41.759 E18.07992
G1 X85.679 Y40.982 E18.12279
G1 X86.239 Y40.251 E18.16567
G1 X86.86 Y39.572 E18.20851
G1 X87.538 Y38.949 E18.25139
G1 X88.267 Y38.387 E18.29425
G1 X89.043 Y37.891 E18.33713
G1 X90.204 Y37.308 E18.39763
G1 X90.293 Y37.27 E18.40213
G1 X91.154 Y36.946 E18.44497
G1 X92.041 Y36.698 E18.48786
G1 X92.946 Y36.527 E18.53074
G1 X94.103 Y36.425 E18.58483
G1 X94.465 Y36.414 E18.60169
G1 X96.627 Y36.367 E18.70239
G1 X99.154 Y36.24 E18.8202
G1 X102.973 Y35.915 E18.99867
G1 X103.478 Y35.862 E19.02232
G1 X104.397 Y35.806 E19.06519
G1 X105.318 Y35.829 E19.10809
G1 X105.858 Y35.88 E19.13335
G1 X106.531 Y35.963 E19.16492
G1 X108.112 Y36.178 E19.23922
G1 X110.623 Y36.448 E19.35681
G1 X113.123 Y36.644 E19.47358
G1 X115.699 Y36.774 E19.59368
G1 X118.176 Y36.828 E19.70905
G1 X120.728 Y36.812 E19.82788
G1 X123.928 Y36.691 E19.977
G1 X124.563 Y36.655 E20.00661
G1 X125.835 Y36.66 E20.06584
G1 X126.053 Y36.674 E20.07601
G1 X126.969 Y36.773 E20.11892
G1 X127.872 Y36.951 E20.16177
G1 X128.756 Y37.206 E20.20461
G1 X129.615 Y37.538 E20.2475
G1 X130.442 Y37.942 E20.29035
G1 X131.176 Y38.381 E20.33018
G1 X132.524 Y39.262 E20.40516
G1 X134.649 Y40.604 E20.52219
G1 X136.812 Y41.886 E20.63927
G1 X137.279 Y42.154 E20.66434
G1 X137.557 Y42.319 E20.6794
G1 X137.762 Y42.445 E20.6906
G1 X138.524 Y42.961 E20.73345
G1 X139.239 Y43.541 E20.77632
G1 X139.901 Y44.181 E20.8192
G1 X140.505 Y44.876 E20.86207
G1 X141.047 Y45.62 E20.90494
G1 X141.522 Y46.409 E20.94782
G1 X141.926 Y47.236 E20.99068
G1 X142.257 Y48.095 E21.03354
G1 X142.513 Y48.979 E21.0764
G1 X142.613 Y49.438 E21.09827
G1 X142.661 Y49.683 E21.1099
G1 X142.799 Y50.593 E21.15275
G1 X142.857 Y51.512 E21.19563
G1 X142.854 Y52.03 E21.21975
G1 X142.781 Y54.54 E21.33668
G1 X142.777 Y57.096 E21.4557
G1 X142.845 Y59.606 E21.57262
G1 X142.986 Y62.16 E21.69172
G1 X143.194 Y64.656 E21.80835
G1 X143.48 Y67.207 E21.92788
G1 X143.673 Y68.636 E21.99502
G1 X143.831 Y69.74 E22.04695
G1 X143.922 Y70.656 E22.08982
G1 X143.933 Y71.577 E22.1327
G1 X143.877 Y72.378 E22.17009
G1 X143.822 Y72.871 E22.19319
G1 X143.553 Y74.99 E22.29265
G1 X143.308 Y77.486 E22.40944
G1 X143.13 Y80.043 E22.52879
G1 X143.026 Y82.56 E22.64609
G1 X142.993 Y85.073 E22.76312
G1 X143.032 Y87.618 E22.88164
G1 X143.141 Y90.127 E22.99858
G1 X143.323 Y92.662 E23.11692
G1 X143.58 Y95.214 E23.23635
G1 X143.642 Y95.723 E23.26023
G1 X143.728 Y96.51 E23.29709
G1 X143.788 Y97.428 E23.33993
G1 X143.769 Y98.349 E23.38283
G1 X143.63 Y99.501 E23.43686
G1 X143.481 Y100.341 E23.47658
G1 X143.259 Y101.502 E23.53162
G1 X142.854 Y104.002 E23.64955
G1 X142.526 Y106.468 E23.76539
G1 X142.259 Y109.015 E23.88464
G1 X142.067 Y111.551 E24.00306
G1 X141.948 Y114.056 E24.11984
G1 X141.899 Y116.574 E24.23711
G1 X141.923 Y119.122 E24.35576
G1 X142.017 Y121.657 E24.47388
G1 X142.183 Y124.177 E24.59148
G1 X142.417 Y126.665 E24.70784
G1 X142.729 Y129.206 E24.82705
G1 X143.106 Y131.687 E24.9439
G1 X143.563 Y134.221 E25.0638
G1 X143.772 Y135.244 E25.11241
G1 X143.97 Y136.249 E25.16011
G1 X144.129 Y137.368 E25.21274
G1 X144.16 Y137.72 E25.22919
G1 X144.201 Y138.617 E25.27101
G1 X144.202 Y138.938 E25.28595
G1 X144.181 Y139.64 E25.31866
G1 X144.155 Y140.051 E25.33783
G1 X144.066 Y140.902 E25.37767
G1 X143.959 Y141.643 E25.41254
G1 X143.615 Y144.273 E25.53604
G1 X143.363 Y146.749 E25.65193
G1 X143.174 Y149.323 E25.77211
G1 X143.063 Y151.797 E25.88743
G1 X143.018 Y154.84 E26.02914
G1 X143.018 Y155.103 E26.04138
G1 X142.978 Y156.023 E26.08426
G1 X142.858 Y156.936 E26.12714
G1 X142.66 Y157.835 E26.17001
G1 X142.51 Y158.347 E26.19485
G1 X142.402 Y158.683 E26.21128
G1 X142.307 Y158.963 E26.22505
G1 X141.514 Y161.213 E26.33614
G1 X141.115 Y162.331 E26.39141
G1 X140.775 Y163.265 E26.43769
G1 X140.648 Y163.603 E26.45451
G1 X140.567 Y163.812 E26.46494
G1 X140.261 Y164.577 E26.50331
G1 X140.144 Y164.858 E26.51748
G1 X140.013 Y165.16 E26.53281
G1 X139.838 Y165.541 E26.55233
G1 X139.655 Y165.908 E26.57143
G1 X139.463 Y166.274 E26.59068
G1 X138.942 Y167.16 E26.63854
G1 X138.444 Y167.92 E26.68085
G1 X138.306 Y168.125 E26.69235
G1 X137.867 Y168.762 E26.72838
G1 X137.538 Y169.249 E26.75574
G1 X136.522 Y170.769 E26.84087
G1 X135.709 Y172.006 E26.9098
G1 X135.558 Y172.231 E26.92242
G1 X134.699 Y173.477 E26.99289
G1 X134.202 Y174.21 E27.03413
G1 X133.955 Y174.569 E27.05442
G1 X133.266 Y175.611 E27.11259
G1 X133.083 Y175.879 E27.1277
G1 X132.744 Y176.359 E27.15506
G1 X132.129 Y177.149 E27.20168
G1 X132.038 Y177.255 E27.20818
G1 X131.09 Y178.225 E27.27134
G1 X130.747 Y178.534 E27.29284
G1 X130.037 Y179.12 E27.3357
G1 X129.278 Y179.643 E27.37862
G1 X128.478 Y180.097 E27.42145
G1 X127.926 Y180.359 E27.44991
G1 X127.495 Y180.547 E27.4718
G1 X126.541 Y180.948 E27.51999
G1 X125.843 Y181.248 E27.55537
G1 X125.103 Y181.556 E27.59269
G1 X123.284 Y182.339 E27.6849
G1 X123.126 Y182.399 E27.69277
G1 X121.883 Y182.94 E27.7559
G1 X121.422 Y183.128 E27.77908
G1 X120.849 Y183.346 E27.80763
G1 X120.197 Y183.57 E27.83973
G1 X119.742 Y183.71 E27.86189
G1 X118.851 Y183.943 E27.90478
G1 X117.535 Y184.14 E27.96674
G1 X117.268 Y184.163 E27.97922
G1 X116.669 Y184.197 E28.00715
G1 X116.105 Y184.201 E28.03342
G1 X115.149 Y184.181 E28.07794
G1 X114.823 Y184.169 E28.09313
G1 X114.282 Y184.141 E28.11836
G1 X114.069 Y184.128 E28.12829
G1 X113.254 Y184.068 E28.16635
G1 X112.397 Y183.994 E28.2064
G1 X109.767 Y183.805 E28.32918
G1 X107.228 Y183.695 E28.44752
G1 X105.454 Y183.66 E28.53014
G1 X101.356 Y183.622 E28.72097
G1 X100.492 Y183.6 E28.76121
G1 X99.574 Y183.536 E28.80406
G1 X98.665 Y183.392 E28.84692
G1 X97.771 Y183.17 E28.88981
G1 X96.9 Y182.872 E28.93267
G1 X95.873 Y182.404 E28.98523
G1 X95.023 Y181.961 E29.02986
G1 X94.803 Y181.843 E29.04148
G1 X93.947 Y181.37 E29.08702
G1 X93.244 Y180.97 E29.12469
G1 X92.665 Y180.636 E29.15581
G1 X90.048 Y179.172 E29.29544
G1 X88.818 Y178.509 E29.36051
G1 X88.276 Y178.197 E29.38963
G1 X87.996 Y178.024 E29.40495
