;FLAVOR:Marlin
;TIME:6253
;Filament used: 6.2048m
;Layer height: 0.2
;MINX:15.195
;MINY:2.245
;MINZ:0.2
;MAXX:204.821
;MAXY:217.744
;MAXZ:2
;Generated with Cura_SteamEngine master
M140 S60
M105
M190 S60
M104 S200
M105
M109 S200
M82 ;absolute extrusion mode
; Ender 3 Custom Start G-code
G92 E0 ; Reset Extruder
G28 ; Home all axes
G1 Z2.0 F3000 ; Move Z Axis up little to prevent scratching of Heat Bed
G1 X0.1 Y20 Z0.3 F5000.0 ; Move to start position
G1 X0.1 Y200.0 Z0.3 F1500.0 E15 ; Draw the first line
G1 X0.4 Y200.0 Z0.3 F5000.0 ; Move to side a little
G1 X0.4 Y20 Z0.3 F1500.0 E30 ; Draw the second line
G92 E0 ; Reset Extruder
G1 Z2.0 F3000 ; Move Z Axis up little to prevent scratching of Heat Bed
G1 X5 Y20 Z0.3 F5000.0 ; Move over to prevent blob squish
G92 E0
G92 E0
G1 F1500 E-6.5
;LAYER_COUNT:10
;LAYER:0
M107
G0 F6000 X52.807 Y37.438 Z0.2
;TYPE:SKIRT
G1 F1500 E0
G1 F1200 X53.185 Y36.914 E0.02149
G1 X53.89 Y35.958 E0.061
G1 X54.222 Y35.518 E0.07933
G1 X54.883 Y34.657 E0.11543
G1 X55.251 Y34.189 E0.13523
G1 X55.948 Y33.317 E0.17236
G1 X56.345 Y32.831 E0.19324
G1 X57.029 Y32.01 E0.22878
G1 X57.488 Y31.47 E0.25235
G1 X58.138 Y30.721 E0.28533
G1 X58.61 Y30.188 E0.30901
G1 X59.322 Y29.4 E0.34434
G1 X59.67 Y29.022 E0.36143
G1 X60.478 Y28.16 E0.40072
G1 X60.863 Y27.757 E0.41926
G1 X61.665 Y26.939 E0.45736
G1 X62.061 Y26.542 E0.47601
G1 X62.964 Y25.654 E0.51813
G1 X63.34 Y25.293 E0.53547
G1 X64.168 Y24.512 E0.57333
G1 X64.587 Y24.125 E0.5923
G1 X65.434 Y23.357 E0.63033
G1 X65.909 Y22.936 E0.65144
G1 X66.769 Y22.188 E0.68935
G1 X67.166 Y21.849 E0.70671
G1 X68.06 Y21.102 E0.74546
G1 X68.523 Y20.723 E0.76536
G1 X69.454 Y19.979 E0.805
G1 X69.881 Y19.645 E0.82303
G1 X70.778 Y18.956 E0.86065
G1 X71.311 Y18.555 E0.88283
G1 X72.188 Y17.911 E0.91902
G1 X72.701 Y17.543 E0.94002
G1 X73.632 Y16.889 E0.97786
G1 X74.153 Y16.531 E0.99889
G1 X75.027 Y15.943 E1.03392
G1 X75.643 Y15.537 E1.05846
G1 X76.497 Y14.988 E1.09223
G1 X77.079 Y14.623 E1.11508
G1 X78.084 Y14.007 E1.15428
G1 X78.534 Y13.739 E1.1717
G1 X79.61 Y13.11 E1.21316
G1 X80.043 Y12.864 E1.22972
G1 X81.23 Y12.204 E1.27489
G1 X81.629 Y11.988 E1.28998
G1 X82.693 Y11.425 E1.33002
G1 X83.205 Y11.163 E1.34915
G1 X84.296 Y10.616 E1.38974
G1 X84.774 Y10.384 E1.40742
G1 X85.956 Y9.823 E1.45093
G1 X86.371 Y9.633 E1.46611
G1 X87.569 Y9.097 E1.50976
G1 X88.061 Y8.884 E1.5276
G1 X89.209 Y8.4 E1.56903
G1 X89.727 Y8.189 E1.58764
G1 X90.813 Y7.759 E1.62649
G1 X91.385 Y7.54 E1.64686
G1 X92.606 Y7.089 E1.69015
G1 X93.064 Y6.925 E1.70633
G1 X94.267 Y6.509 E1.74867
G1 X94.842 Y6.319 E1.76881
G1 X95.993 Y5.951 E1.809
G1 X96.535 Y5.784 E1.82786
G1 X97.793 Y5.412 E1.8715
G1 X98.336 Y5.259 E1.89026
G1 X99.492 Y4.945 E1.9301
G1 X100.043 Y4.803 E1.94903
G1 X101.346 Y4.481 E1.99367
G1 X101.891 Y4.353 E2.01229
G1 X103.158 Y4.072 E2.05545
G1 X103.648 Y3.969 E2.07211
G1 X104.969 Y3.705 E2.11691
G1 X105.524 Y3.601 E2.13569
G1 X106.785 Y3.379 E2.17828
G1 X107.437 Y3.273 E2.20025
G1 X108.543 Y3.105 E2.23746
G1 X109.27 Y3.003 E2.26187
G1 X110.498 Y2.845 E2.30305
G1 X111.121 Y2.772 E2.32392
G1 X112.374 Y2.64 E2.36582
G1 X113.016 Y2.58 E2.38727
G1 X114.281 Y2.476 E2.42948
G1 X114.929 Y2.431 E2.45109
G1 X116.197 Y2.356 E2.49334
G1 X116.823 Y2.326 E2.51418
G1 X118.16 Y2.278 E2.55868
G1 X118.77 Y2.264 E2.57897
G1 X120.052 Y2.247 E2.62162
G1 X120.568 Y2.245 E2.63878
G1 X122.054 Y2.26 E2.6882
G1 X122.771 Y2.275 E2.71206
G1 X123.882 Y2.311 E2.74903
G1 X124.693 Y2.347 E2.77603
G1 X125.982 Y2.42 E2.81897
G1 X126.67 Y2.466 E2.8419
G1 X127.916 Y2.564 E2.88347
G1 X128.661 Y2.632 E2.90836
G1 X129.932 Y2.76 E2.95084
G1 X130.658 Y2.842 E2.97514
G1 X131.931 Y3 E3.01781
G1 X132.719 Y3.107 E3.04426
G1 X133.92 Y3.285 E3.08464
G1 X134.764 Y3.419 E3.11306
G1 X135.889 Y3.61 E3.15102
G1 X136.775 Y3.771 E3.18097
G1 X138.018 Y4.012 E3.22308
G1 X138.752 Y4.162 E3.248
G1 X140.032 Y4.439 E3.29156
G1 X140.86 Y4.626 E3.31979
G1 X142.092 Y4.922 E3.36193
G1 X142.902 Y5.126 E3.38971
G1 X144.15 Y5.453 E3.43262
G1 X144.95 Y5.673 E3.46022
G1 X146.226 Y6.04 E3.50438
G1 X146.707 Y6.185 E3.52109
G1 X148.029 Y6.601 E3.56718
G1 X148.521 Y6.764 E3.58442
G1 X149.946 Y7.256 E3.63456
G1 X150.367 Y7.408 E3.64945
G1 X151.673 Y7.898 E3.69585
G1 X152.117 Y8.072 E3.71171
G1 X153.422 Y8.599 E3.75852
G1 X153.905 Y8.801 E3.77593
G1 X155.029 Y9.288 E3.81667
G1 X155.647 Y9.564 E3.83918
G1 X156.677 Y10.038 E3.8769
G1 X157.22 Y10.296 E3.89689
G1 X158.318 Y10.833 E3.93754
G1 X158.888 Y11.119 E3.95875
G1 X160.006 Y11.698 E4.00063
G1 X160.466 Y11.943 E4.01796
G1 X161.561 Y12.539 E4.05943
G1 X162.08 Y12.829 E4.0792
G1 X163.079 Y13.401 E4.11749
G1 X163.619 Y13.718 E4.13832
G1 X164.568 Y14.285 E4.17509
G1 X165.146 Y14.641 E4.19766
G1 X166.065 Y15.217 E4.23374
G1 X166.536 Y15.518 E4.25233
G1 X167.528 Y16.166 E4.29174
G1 X167.996 Y16.478 E4.31045
G1 X168.957 Y17.132 E4.34911
G1 X169.471 Y17.489 E4.36992
G1 X170.189 Y17.996 E4.39916
G1 X170.749 Y18.4 E4.42213
G1 X171.768 Y19.15 E4.46421
G1 X172.593 Y19.773 E4.49859
G1 X173.864 Y20.758 E4.55207
G1 X174.068 Y20.921 E4.56076
G1 X175.48 Y22.083 E4.62158
G1 X175.809 Y22.363 E4.63595
G1 X177.001 Y23.404 E4.68859
G1 X177.368 Y23.736 E4.70505
G1 X178.464 Y24.747 E4.75464
G1 X178.871 Y25.136 E4.77337
G1 X179.914 Y26.155 E4.82186
G1 X180.278 Y26.521 E4.83903
G1 X181.383 Y27.661 E4.89184
G1 X181.735 Y28.033 E4.90887
G1 X182.724 Y29.109 E4.95748
G1 X183.168 Y29.605 E4.97962
G1 X184.039 Y30.604 E5.0237
G1 X184.47 Y31.111 E5.04584
G1 X185.365 Y32.19 E5.09246
G1 X185.763 Y32.683 E5.11354
G1 X186.615 Y33.762 E5.15926
G1 X187.03 Y34.301 E5.18189
G1 X187.805 Y35.331 E5.22476
G1 X188.263 Y35.957 E5.25056
G1 X188.985 Y36.965 E5.2918
G1 X189.423 Y37.592 E5.31724
G1 X190.129 Y38.625 E5.35885
G1 X190.588 Y39.314 E5.38639
G1 X191.212 Y40.273 E5.42444
G1 X191.679 Y41.007 E5.45338
G1 X192.298 Y42.003 E5.49238
G1 X192.723 Y42.704 E5.51965
G1 X193.332 Y43.729 E5.5593
G1 X193.804 Y44.544 E5.59063
G1 X194.3 Y45.418 E5.62405
G1 X194.739 Y46.213 E5.65426
G1 X195.279 Y47.211 E5.692
G1 X195.705 Y48.016 E5.72229
G1 X196.258 Y49.094 E5.76259
G1 X196.515 Y49.612 E5.78182
G1 X197.119 Y50.866 E5.82811
G1 X197.32 Y51.298 E5.84396
G1 X197.939 Y52.675 E5.89418
G1 X198.129 Y53.113 E5.91006
G1 X198.692 Y54.459 E5.95858
G1 X198.888 Y54.947 E5.97607
G1 X199.416 Y56.303 E6.02447
G1 X199.614 Y56.835 E6.04335
G1 X200.093 Y58.169 E6.0905
G1 X200.3 Y58.769 E6.11161
G1 X200.725 Y60.05 E6.1565
G1 X200.94 Y60.726 E6.18009
G1 X201.31 Y61.942 E6.22236
G1 X201.53 Y62.698 E6.24855
G1 X201.895 Y64.016 E6.29404
G1 X202.087 Y64.744 E6.31908
G1 X202.41 Y66.033 E6.36328
G1 X202.597 Y66.824 E6.39031
G1 X202.887 Y68.118 E6.43442
G1 X203.044 Y68.858 E6.45958
G1 X203.311 Y70.204 E6.50522
G1 X203.459 Y71.001 E6.53218
G1 X203.701 Y72.411 E6.57976
G1 X203.821 Y73.166 E6.60519
G1 X204.017 Y74.509 E6.65033
G1 X204.128 Y75.343 E6.67831
G1 X204.297 Y76.742 E6.72518
G1 X204.386 Y77.585 E6.75338
G1 X204.513 Y78.948 E6.79891
G1 X204.578 Y79.754 E6.8258
G1 X204.675 Y81.182 E6.87341
G1 X204.72 Y82.005 E6.90082
G1 X204.781 Y83.52 E6.95125
G1 X204.802 Y84.327 E6.9781
G1 X204.821 Y85.726 E7.02464
G1 X204.821 Y86.594 E7.05351
G1 X204.8 Y88.091 E7.1033
G1 X204.776 Y88.891 E7.12992
G1 X204.71 Y90.461 E7.18219
G1 X204.668 Y91.185 E7.20631
G1 X204.554 Y92.799 E7.26012
G1 X204.488 Y93.563 E7.28563
G1 X204.326 Y95.176 E7.33955
G1 X204.244 Y95.874 E7.36292
G1 X204.029 Y97.53 E7.41846
G1 X203.908 Y98.358 E7.44629
G1 X203.688 Y99.738 E7.49277
G1 X203.525 Y100.69 E7.5249
G1 X203.318 Y101.815 E7.56294
G1 X203.13 Y102.787 E7.59587
G1 X202.89 Y103.956 E7.63556
G1 X202.687 Y104.894 E7.66748
G1 X202.402 Y106.143 E7.71009
G1 X202.189 Y107.023 E7.74021
G1 X201.904 Y108.151 E7.7789
G1 X201.679 Y109 E7.80812
G1 X201.318 Y110.302 E7.85306
G1 X201.141 Y110.911 E7.87415
G1 X200.717 Y112.314 E7.9229
G1 X200.54 Y112.874 E7.94243
G1 X200.069 Y114.306 E7.99257
G1 X199.887 Y114.833 E8.01111
G1 X199.413 Y116.164 E8.05811
G1 X199.176 Y116.806 E8.08087
G1 X198.709 Y118.022 E8.12419
G1 X198.478 Y118.599 E8.14486
G1 X197.99 Y119.785 E8.18752
G1 X197.714 Y120.43 E8.21085
G1 X197.143 Y121.718 E8.25771
G1 X196.923 Y122.198 E8.27528
G1 X196.318 Y123.474 E8.32224
G1 X196.063 Y123.995 E8.34154
G1 X195.468 Y125.174 E8.38546
G1 X195.235 Y125.621 E8.40223
G1 X194.499 Y126.988 E8.45386
G1 X194.28 Y127.38 E8.4688
G1 X193.645 Y128.494 E8.51145
G1 X193.36 Y128.977 E8.5301
G1 X192.595 Y130.24 E8.57921
G1 X192.395 Y130.557 E8.59168
G1 X191.605 Y131.79 E8.64039
G1 X191.398 Y132.103 E8.65287
G1 X190.633 Y133.233 E8.69825
G1 X190.295 Y133.719 E8.71794
G1 X189.524 Y134.796 E8.762
G1 X189.21 Y135.221 E8.77957
G1 X188.429 Y136.257 E8.82272
G1 X188.136 Y136.635 E8.83863
G1 X187.271 Y137.723 E8.88486
G1 X186.992 Y138.065 E8.89954
G1 X186.122 Y139.107 E8.94469
G1 X185.787 Y139.499 E8.96184
G1 X184.957 Y140.445 E9.0037
G1 X184.587 Y140.856 E9.02209
G1 X183.747 Y141.768 E9.06333
G1 X183.408 Y142.128 E9.07978
G1 X182.479 Y143.093 E9.12433
G1 X182.13 Y143.447 E9.14086
G1 X181.316 Y144.254 E9.17899
G1 X180.824 Y144.731 E9.20178
G1 X180.004 Y145.509 E9.23937
G1 X179.546 Y145.933 E9.26013
G1 X178.666 Y146.732 E9.29967
G1 X178.166 Y147.175 E9.32188
G1 X177.37 Y147.866 E9.35694
G1 X176.902 Y148.264 E9.37738
G1 X175.981 Y149.034 E9.4173
G1 X175.484 Y149.439 E9.43863
G1 X174.67 Y150.092 E9.47334
G1 X174.069 Y150.563 E9.49873
G1 X173.286 Y151.165 E9.53158
G1 X172.693 Y151.613 E9.5563
G1 X171.843 Y152.241 E9.59145
G1 X171.33 Y152.613 E9.61253
G1 X170.39 Y153.283 E9.65092
G1 X169.93 Y153.604 E9.66958
G1 X168.828 Y154.355 E9.71393
G1 X167.201 Y155.432 E9.77883
G1 X165.859 Y156.291 E9.83183
G1 X164.343 Y157.23 E9.89114
G1 X162.785 Y158.165 E9.95157
G1 X161.113 Y159.133 E10.01583
G1 X159.829 Y159.855 E10.06482
G1 X157.969 Y160.87 E10.1353
G1 X156.836 Y161.471 E10.17796
G1 X154.808 Y162.517 E10.25385
G1 X153.742 Y163.053 E10.29354
G1 X151.678 Y164.064 E10.36998
G1 X150.537 Y164.607 E10.41201
G1 X146.842 Y166.317 E10.54743
G1 X145.756 Y166.804 E10.58701
G1 X141.901 Y168.487 E10.72692
G1 X140.842 Y168.934 E10.76515
G1 X135.103 Y171.298 E10.97159
G1 X131.838 Y172.713 E11.08994
G1 X50.392 Y209.861 E14.06731
G1 X48.054 Y210.967 E14.15334
G1 X45.747 Y212.14 E14.23942
G1 X44.487 Y212.816 E14.28698
G1 X43.598 Y213.302 E14.32067
G1 X42.656 Y213.806 E14.35621
G1 X42.451 Y213.913 E14.3639
G1 X41.367 Y214.464 E14.40434
G1 X41.105 Y214.593 E14.41406
G1 X40.173 Y215.036 E14.44838
G1 X39.946 Y215.141 E14.4567
G1 X39.611 Y215.291 E14.46891
G1 X39.376 Y215.393 E14.47743
G1 X38.688 Y215.682 E14.50225
G1 X38.422 Y215.789 E14.51178
G1 X37.978 Y215.962 E14.52763
G1 X37.689 Y216.07 E14.53789
G1 X37.074 Y216.29 E14.55962
G1 X36.755 Y216.399 E14.57083
G1 X36.18 Y216.585 E14.59093
G1 X35.787 Y216.704 E14.60459
G1 X35.214 Y216.866 E14.62439
G1 X34.812 Y216.972 E14.63822
G1 X33.995 Y217.17 E14.66618
G1 X33.688 Y217.239 E14.67665
G1 X33.41 Y217.298 E14.6861
G1 X32.898 Y217.394 E14.70342
G1 X32.31 Y217.49 E14.72324
G1 X31.834 Y217.557 E14.73923
G1 X31.286 Y217.622 E14.75758
G1 X30.728 Y217.674 E14.77622
G1 X30.148 Y217.713 E14.79556
G1 X29.62 Y217.736 E14.81313
G1 X29.201 Y217.744 E14.82707
G1 X28.263 Y217.722 E14.85828
G1 X27.331 Y217.62 E14.88946
G1 X26.411 Y217.439 E14.92065
G1 X25.509 Y217.18 E14.95186
G1 X24.573 Y216.82 E14.98522
G1 X24.028 Y216.581 E15.00501
G1 X23.427 Y216.295 E15.02715
G1 X22.84 Y215.994 E15.04909
G1 X22.271 Y215.681 E15.07069
G1 X22.076 Y215.566 E15.07822
G1 X21.629 Y215.288 E15.09572
G1 X21.373 Y215.12 E15.10591
G1 X20.663 Y214.613 E15.13493
G1 X20.453 Y214.45 E15.14377
G1 X19.689 Y213.799 E15.17715
G1 X19.416 Y213.544 E15.18958
G1 X18.816 Y212.938 E15.21794
G1 X18.761 Y212.878 E15.22065
G1 X18.373 Y212.43 E15.24036
G1 X18.239 Y212.267 E15.24738
G1 X17.627 Y211.449 E15.28136
G1 X17.474 Y211.223 E15.29043
G1 X17.066 Y210.572 E15.31599
G1 X17.015 Y210.484 E15.31937
G1 X16.712 Y209.925 E15.34052
G1 X16.608 Y209.719 E15.34819
G1 X16.28 Y209.007 E15.37427
G1 X16.239 Y208.909 E15.3778
G1 X16.09 Y208.532 E15.39128
G1 X16.016 Y208.335 E15.39828
G1 X15.647 Y207.157 E15.43934
G1 X15.589 Y206.927 E15.44723
G1 X15.355 Y205.714 E15.48832
G1 X15.318 Y205.441 E15.49748
G1 X15.267 Y205.008 E15.51198
G1 X15.225 Y204.478 E15.52966
G1 X15.212 Y204.244 E15.53746
G1 X15.195 Y203.62 E15.55822
G1 X15.196 Y202.851 E15.5838
G1 X15.202 Y202.494 E15.59567
G1 X15.217 Y202.049 E15.61048
G1 X15.246 Y201.488 E15.62917
G1 X15.263 Y201.235 E15.6376
G1 X15.319 Y200.545 E15.66063
G1 X15.419 Y199.552 E15.69382
G1 X15.566 Y198.331 E15.73472
G1 X15.593 Y198.12 E15.7418
G1 X15.799 Y196.672 E15.79045
G1 X15.956 Y195.645 E15.825
G1 X16.134 Y194.555 E15.86173
G1 X16.473 Y192.596 E15.92786
G1 X16.636 Y191.702 E15.95808
G1 X17.141 Y189.071 E16.04719
G1 X17.319 Y188.185 E16.07725
G1 X17.816 Y185.814 E16.15782
G1 X17.872 Y185.556 E16.1666
G1 X18.534 Y182.246 E16.27887
G1 X38.813 Y70.848 E20.04488
G1 X38.964 Y70.053 E20.07179
G1 X39.351 Y68.061 E20.13928
G1 X39.605 Y66.824 E20.18128
G1 X39.883 Y65.557 E20.22443
G1 X40.109 Y64.575 E20.25794
G1 X40.232 Y64.06 E20.27555
G1 X40.478 Y63.074 E20.30935
G1 X40.618 Y62.537 E20.32781
G1 X40.933 Y61.38 E20.36769
G1 X41.035 Y61.026 E20.37995
G1 X41.391 Y59.83 E20.42145
G1 X41.476 Y59.557 E20.43096
G1 X41.903 Y58.248 E20.47676
G1 X42.009 Y57.94 E20.48759
G1 X42.475 Y56.643 E20.53343
G1 X42.583 Y56.354 E20.54369
G1 X43.102 Y55.031 E20.59096
G1 X43.275 Y54.604 E20.60628
G1 X43.717 Y53.556 E20.64411
G1 X43.913 Y53.103 E20.66053
G1 X44.397 Y52.012 E20.70022
G1 X44.604 Y51.558 E20.71682
G1 X45.128 Y50.437 E20.75798
G1 X45.347 Y49.984 E20.77471
G1 X45.803 Y49.055 E20.80913
G1 X46.108 Y48.451 E20.83164
G1 X46.63 Y47.444 E20.86936
G1 X46.89 Y46.954 E20.88781
G1 X47.382 Y46.045 E20.92219
G1 X47.698 Y45.479 E20.94375
G1 X48.253 Y44.502 E20.98112
G1 X48.531 Y44.025 E20.99949
G1 X49.12 Y43.036 E21.03777
G1 X49.404 Y42.571 E21.05589
G1 X49.981 Y41.642 E21.09227
G1 X50.361 Y41.044 E21.11583
G1 X50.877 Y40.25 E21.14733
G1 X51.252 Y39.684 E21.16991
G1 X51.88 Y38.758 E21.20712
G1 X52.239 Y38.241 E21.22806
G1 X52.807 Y37.438 E21.26077
G0 F6000 X53.132 Y37.672
G1 F1200 X53.507 Y37.151 E21.28212
G1 X54.21 Y36.199 E21.32148
G1 X54.54 Y35.761 E21.33972
G1 X55.198 Y34.904 E21.37566
G1 X55.564 Y34.438 E21.39537
G1 X56.258 Y33.57 E21.43233
G1 X56.652 Y33.087 E21.45306
G1 X57.333 Y32.269 E21.48847
G1 X57.79 Y31.732 E21.51192
G1 X58.438 Y30.986 E21.54478
G1 X58.907 Y30.456 E21.56832
G1 X59.617 Y29.67 E21.60355
G1 X59.962 Y29.295 E21.6205
G1 X60.767 Y28.437 E21.65963
G1 X61.246 Y27.937 E21.68266
G1 X61.948 Y27.221 E21.71601
G1 X62.342 Y26.827 E21.73454
G1 X63.241 Y25.943 E21.77648
G1 X63.615 Y25.584 E21.79372
G1 X64.44 Y24.805 E21.83146
G1 X64.856 Y24.421 E21.85029
G1 X65.7 Y23.656 E21.88818
G1 X66.171 Y23.237 E21.90914
G1 X67.029 Y22.492 E21.94694
G1 X67.423 Y22.156 E21.96416
G1 X68.314 Y21.411 E22.00279
G1 X68.773 Y21.036 E22.0225
G1 X69.701 Y20.294 E22.06202
G1 X70.125 Y19.962 E22.07993
G1 X71.019 Y19.275 E22.11743
G1 X71.548 Y18.877 E22.13945
G1 X72.421 Y18.236 E22.17547
G1 X72.931 Y17.87 E22.19635
G1 X73.859 Y17.218 E22.23407
G1 X74.376 Y16.863 E22.25493
G1 X75.248 Y16.276 E22.2899
G1 X75.86 Y15.873 E22.31427
G1 X76.71 Y15.327 E22.34787
G1 X77.289 Y14.964 E22.3706
G1 X78.289 Y14.35 E22.40963
G1 X78.736 Y14.084 E22.42693
G1 X79.809 Y13.457 E22.46826
G1 X80.237 Y13.213 E22.48465
G1 X81.421 Y12.556 E22.52968
G1 X81.817 Y12.341 E22.54467
G1 X82.876 Y11.781 E22.58452
G1 X83.384 Y11.521 E22.6035
G1 X84.472 Y10.976 E22.64397
G1 X84.946 Y10.745 E22.66151
G1 X86.123 Y10.187 E22.70483
G1 X86.534 Y9.998 E22.71988
G1 X87.728 Y9.464 E22.76338
G1 X88.216 Y9.252 E22.78108
G1 X89.36 Y8.77 E22.82237
G1 X89.874 Y8.561 E22.84082
G1 X90.957 Y8.133 E22.87955
G1 X91.524 Y7.915 E22.89976
G1 X92.741 Y7.465 E22.94291
G1 X93.195 Y7.303 E22.95895
G1 X94.394 Y6.889 E23.00113
G1 X94.964 Y6.7 E23.02111
G1 X96.111 Y6.333 E23.06116
G1 X96.649 Y6.168 E23.07988
G1 X97.902 Y5.797 E23.12334
G1 X98.441 Y5.645 E23.14197
G1 X99.593 Y5.332 E23.18167
G1 X100.139 Y5.191 E23.20043
G1 X101.437 Y4.87 E23.2449
G1 X101.978 Y4.744 E23.26338
G1 X103.24 Y4.463 E23.30638
G1 X103.726 Y4.361 E23.3229
G1 X105.043 Y4.098 E23.36756
