;FLAVOR:Marlin
;TIME:27487
;Filament used: 20.6831m
;Layer height: 0.2
;MINX:71.235
;MINY:7.735
;MINZ:0.2
;MAXX:148.765
;MAXY:212.265
;MAXZ:19
;Generated with Cura_SteamEngine master
M140 S67
M105
M190 S67
M104 S205
M105
M109 S205
M82 ;absolute extrusion mode
; Ender 3 Custom Start G-code
G92 E0 ; Reset Extruder
G28 ; Home all axes
G1 Z2.0 F3000 ; Move Z Axis up little to prevent scratching of Heat Bed
G1 X0.1 Y20 Z0.3 F5000.0 ; Move to start position
G1 X0.1 Y200.0 Z0.3 F1500.0 E15 ; Draw the first line
G1 X0.4 Y200.0 Z0.3 F5000.0 ; Move to side a little
G1 X0.4 Y20 Z0.3 F1500.0 E30 ; Draw the second line
G92 E0 ; Reset Extruder
G1 Z2.0 F3000 ; Move Z Axis up little to prevent scratching of Heat Bed
G1 X5 Y20 Z0.3 F5000.0 ; Move over to prevent blob squish
G92 E0
G92 E0
G1 F1500 E-6.5
;LAYER_COUNT:95
;LAYER:0
M107
;MESH:component_bin.stl
G0 F6000 X110 Y45.454 Z0.2
;TYPE:WALL-INNER
G1 F1500 E0
G1 F1200 X110.55 Y45.382 E0.01845
G1 X111.064 Y45.17 E0.03694
G1 X111.506 Y44.831 E0.05547
G1 X111.845 Y44.389 E0.074
G1 X112.057 Y43.875 E0.09249
G1 X112.129 Y43.325 E0.11094
G1 X112.057 Y42.775 E0.12939
G1 X111.845 Y42.261 E0.14788
G1 X111.506 Y41.819 E0.16641
G1 X111.064 Y41.48 E0.18493
G1 X110.55 Y41.268 E0.20343
G1 X110 Y41.196 E0.22188
G1 X109.45 Y41.268 E0.24032
G1 X108.936 Y41.48 E0.25882
G1 X108.494 Y41.819 E0.27734
G1 X108.155 Y42.261 E0.29587
G1 X107.943 Y42.775 E0.31436
G1 X107.871 Y43.325 E0.33281
G1 X107.943 Y43.875 E0.35126
G1 X108.155 Y44.389 E0.36976
G1 X108.494 Y44.831 E0.38828
G1 X108.936 Y45.17 E0.40681
G1 X109.45 Y45.382 E0.4253
G1 X110 Y45.454 E0.44375
G0 F6000 X110 Y45.051
;TYPE:WALL-OUTER
G1 F1200 X110.446 Y44.992 E0.45871
G1 X110.863 Y44.82 E0.47372
G1 X111.221 Y44.546 E0.48871
G1 X111.495 Y44.188 E0.50371
G1 X111.667 Y43.771 E0.51871
G1 X111.726 Y43.325 E0.53367
G1 X111.667 Y42.879 E0.54864
G1 X111.495 Y42.462 E0.56364
G1 X111.221 Y42.104 E0.57863
G1 X110.863 Y41.83 E0.59363
G1 X110.446 Y41.658 E0.60863
G1 X110 Y41.599 E0.62359
G1 X109.554 Y41.658 E0.63856
G1 X109.137 Y41.83 E0.65356
G1 X108.779 Y42.104 E0.66855
G1 X108.505 Y42.462 E0.68355
G1 X108.333 Y42.879 E0.69855
G1 X108.274 Y43.325 E0.71351
G1 X108.333 Y43.771 E0.72848
G1 X108.505 Y44.188 E0.74348
G1 X108.779 Y44.546 E0.75848
G1 X109.137 Y44.82 E0.77347
G1 X109.554 Y44.992 E0.78847
G1 X110 Y45.051 E0.80344
G0 F6000 X110 Y45.491
G1 F1500 E-5.69656
G0 F6000 X110 Y44.178
G0 X110 Y109.147
G0 X110 Y107.679
G0 X111.392 Y108.608
G0 X111.704 Y109.017
G0 X111.9 Y109.492
G0 X111.968 Y110
G0 X111.9 Y110.508
G0 X111.704 Y110.983
G0 X111.392 Y111.392
G0 X111.061 Y111.644
G0 X110 Y112.129
;TYPE:WALL-INNER
G1 F1500 E0.80344
G1 F1200 X110.55 Y112.057 E0.82189
G1 X111.064 Y111.845 E0.84038
G1 X111.506 Y111.506 E0.8589
G1 X111.845 Y111.064 E0.87743
G1 X112.057 Y110.55 E0.89592
G1 X112.129 Y110 E0.91437
G1 X112.057 Y109.45 E0.93282
G1 X111.845 Y108.936 E0.95132
G1 X111.506 Y108.494 E0.96984
G1 X111.064 Y108.155 E0.98837
G1 X110.55 Y107.943 E1.00686
G1 X110 Y107.871 E1.02531
G1 X109.45 Y107.943 E1.04376
G1 X108.936 Y108.155 E1.06225
G1 X108.494 Y108.494 E1.08078
G1 X108.155 Y108.936 E1.09931
G1 X107.943 Y109.45 E1.1178
G1 X107.871 Y110 E1.13625
G1 X107.943 Y110.55 E1.1547
G1 X108.155 Y111.064 E1.17319
G1 X108.494 Y111.506 E1.19172
G1 X108.936 Y111.845 E1.21025
G1 X109.45 Y112.057 E1.22874
G1 X110 Y112.129 E1.24719
G0 F6000 X110 Y111.726
;TYPE:WALL-OUTER
G1 F1200 X110.446 Y111.667 E1.26215
G1 X110.863 Y111.495 E1.27715
G1 X111.221 Y111.221 E1.29215
G1 X111.495 Y110.863 E1.30714
G1 X111.667 Y110.446 E1.32214
G1 X111.726 Y110 E1.33711
G1 X111.667 Y109.554 E1.35207
G1 X111.495 Y109.137 E1.36707
G1 X111.221 Y108.779 E1.38207
G1 X110.863 Y108.505 E1.39706
G1 X110.446 Y108.333 E1.41207
G1 X110 Y108.274 E1.42703
G1 X109.554 Y108.333 E1.44199
G1 X109.137 Y108.505 E1.457
G1 X108.779 Y108.779 E1.47199
G1 X108.505 Y109.137 E1.48698
G1 X108.333 Y109.554 E1.50199
G1 X108.274 Y110 E1.51695
G1 X108.333 Y110.446 E1.53191
G1 X108.505 Y110.863 E1.54692
G1 X108.779 Y111.221 E1.56191
G1 X109.137 Y111.495 E1.57691
G1 X109.554 Y111.667 E1.59191
G1 X110 Y111.726 E1.60687
G0 F6000 X110 Y112.166
G1 F1500 E-4.89313
G0 F6000 X110 Y110.853
G0 X110 Y175.822
G0 X110 Y174.354
G0 X111.392 Y175.283
G0 X111.704 Y175.692
G0 X111.9 Y176.167
G0 X111.968 Y176.675
G0 X111.9 Y177.183
G0 X111.704 Y177.658
G0 X111.392 Y178.067
G0 X111.061 Y178.319
G0 X110 Y178.804
;TYPE:WALL-INNER
G1 F1500 E1.60687
G1 F1200 X110.55 Y178.732 E1.62532
G1 X111.064 Y178.52 E1.64381
G1 X111.506 Y178.181 E1.66234
G1 X111.845 Y177.739 E1.68087
G1 X112.057 Y177.225 E1.69936
G1 X112.129 Y176.675 E1.71781
G1 X112.057 Y176.125 E1.73626
G1 X111.845 Y175.611 E1.75475
G1 X111.506 Y175.169 E1.77328
G1 X111.064 Y174.83 E1.79181
G1 X110.55 Y174.618 E1.8103
G1 X110 Y174.546 E1.82875
G1 X109.45 Y174.618 E1.8472
G1 X108.936 Y174.83 E1.86569
G1 X108.494 Y175.169 E1.88422
G1 X108.155 Y175.611 E1.90274
G1 X107.943 Y176.125 E1.92124
G1 X107.871 Y176.675 E1.93969
G1 X107.943 Y177.225 E1.95813
G1 X108.155 Y177.739 E1.97663
G1 X108.494 Y178.181 E1.99515
G1 X108.936 Y178.52 E2.01368
G1 X109.45 Y178.732 E2.03217
G1 X110 Y178.804 E2.05062
G0 F6000 X110 Y178.401
;TYPE:WALL-OUTER
G1 F1200 X110.446 Y178.342 E2.06559
G1 X110.863 Y178.17 E2.08059
G1 X111.221 Y177.896 E2.09558
G1 X111.495 Y177.538 E2.11058
G1 X111.667 Y177.121 E2.12558
G1 X111.726 Y176.675 E2.14054
G1 X111.667 Y176.229 E2.15551
G1 X111.495 Y175.812 E2.17051
G1 X111.221 Y175.454 E2.1855
G1 X110.863 Y175.18 E2.2005
G1 X110.446 Y175.008 E2.2155
G1 X110 Y174.949 E2.23047
G1 X109.554 Y175.008 E2.24543
G1 X109.137 Y175.18 E2.26043
G1 X108.779 Y175.454 E2.27543
G1 X108.505 Y175.812 E2.29042
G1 X108.333 Y176.229 E2.30542
G1 X108.274 Y176.675 E2.32039
G1 X108.333 Y177.121 E2.33535
G1 X108.505 Y177.538 E2.35035
G1 X108.779 Y177.896 E2.36535
G1 X109.137 Y178.17 E2.38034
G1 X109.554 Y178.342 E2.39534
G1 X110 Y178.401 E2.41031
G0 F6000 X110 Y178.841
G1 F1500 E-4.08969
G0 F6000 X111.642 Y178.317
G0 X110.604 Y177.279
G0 X111.642 Y212.265
G0 X111.642 Y210.79
G0 X147.5 Y211
;TYPE:WALL-INNER
G1 F1500 E2.41031
G1 F1200 X72.5 Y211 E4.90482
G1 X72.5 Y9 E11.62337
G1 X147.5 Y9 E14.11788
G1 X147.5 Y211 E20.83642
G0 F6000 X147.9 Y211.4
;TYPE:WALL-OUTER
G1 F1200 X72.1 Y211.4 E23.35754
G1 X72.1 Y8.6 E30.1027
G1 X147.9 Y8.6 E32.62381
G1 X147.9 Y211.4 E39.36897
G0 F6000 X147.63 Y211.13
G0 X147.39 Y210.61
G0 X147.11 Y210.61
;TYPE:SKIN
G1 F1200 X72.89 Y210.61 E41.83754
G1 X72.89 Y9.39 E48.53014
G1 X147.11 Y9.39 E50.99871
G1 X147.11 Y210.61 E57.69131
G1 F1500 E51.19131
G0 F6000 X147.39 Y210.61
G0 X111.586 Y210.79
G0 X111.586 Y212.265
G0 X110.429 Y177.413
G0 X111.161 Y178.687
G0 X111.586 Y178.259
G0 X111.785 Y178.46
G1 F1500 E57.69131
G1 F1200 X112.186 Y177.936 E57.71326
G1 X112.437 Y177.326 E57.7352
G1 X112.523 Y176.675 E57.75704
G1 X112.437 Y176.024 E57.77888
G1 X112.186 Y175.414 E57.80082
G1 X111.785 Y174.89 E57.82276
G1 X111.261 Y174.489 E57.84471
G1 X110.651 Y174.238 E57.86665
G1 X110 Y174.152 E57.88849
G1 X109.349 Y174.238 E57.91033
G1 X108.739 Y174.489 E57.93227
G1 X108.215 Y174.89 E57.95422
G1 X107.814 Y175.414 E57.97616
G1 X107.563 Y176.024 E57.9981
G1 X107.477 Y176.675 E58.01994
G1 X107.563 Y177.326 E58.04178
G1 X107.814 Y177.936 E58.06372
G1 X108.215 Y178.46 E58.08567
G1 X108.739 Y178.861 E58.10761
G1 X109.349 Y179.112 E58.12955
G1 X110 Y179.198 E58.15139
G1 X110.651 Y179.112 E58.17323
G1 X111.261 Y178.861 E58.19517
G1 X111.785 Y178.46 E58.21712
G1 F1500 E51.71712
G0 F6000 X111.586 Y178.259
G0 X111.9 Y177.183
G0 X111.968 Y176.675
G0 X111.9 Y176.167
G0 X111.161 Y174.663
G0 X110.429 Y175.937
G0 X110 Y110.853
G0 X110 Y112.321
G0 X110.58 Y112.164
G0 X110.651 Y112.437
G1 F1500 E58.21712
G1 F1200 X111.261 Y112.186 E58.23906
G1 X111.785 Y111.785 E58.261
G1 X112.186 Y111.261 E58.28295
G1 X112.437 Y110.651 E58.30489
G1 X112.523 Y110 E58.32673
G1 X112.437 Y109.349 E58.34857
G1 X112.186 Y108.739 E58.37051
G1 X111.785 Y108.215 E58.39245
G1 X111.261 Y107.814 E58.4144
G1 X110.651 Y107.563 E58.43634
G1 X110 Y107.477 E58.45818
G1 X109.349 Y107.563 E58.48002
G1 X108.739 Y107.814 E58.50196
G1 X108.215 Y108.215 E58.52391
G1 X107.814 Y108.739 E58.54585
G1 X107.563 Y109.349 E58.56779
G1 X107.477 Y110 E58.58963
G1 X107.563 Y110.651 E58.61147
G1 X107.814 Y111.261 E58.63341
G1 X108.215 Y111.785 E58.65536
G1 X108.739 Y112.186 E58.6773
G1 X109.349 Y112.437 E58.69924
G1 X110 Y112.523 E58.72108
G1 X110.651 Y112.437 E58.74292
G1 F1500 E52.24292
G0 F6000 X110.58 Y112.164
G0 X111.392 Y111.392
G0 X111.704 Y110.983
G0 X111.9 Y110.508
G0 X111.968 Y110
G0 X111.9 Y109.492
G0 X111.704 Y109.017
G0 X111.392 Y108.608
G0 X110 Y107.679
G0 X110 Y109.147
G0 X110 Y44.178
G0 X110 Y45.646
G0 X110.58 Y45.489
G0 X110.651 Y45.762
G1 F1500 E58.74292
G1 F1200 X111.261 Y45.511 E58.76486
G1 X111.785 Y45.11 E58.78681
G1 X112.186 Y44.586 E58.80875
G1 X112.437 Y43.976 E58.83069
G1 X112.523 Y43.325 E58.85253
G1 X112.437 Y42.674 E58.87437
G1 X112.186 Y42.064 E58.89631
G1 X111.785 Y41.54 E58.91826
G1 X111.261 Y41.139 E58.94021
G1 X110.651 Y40.888 E58.96215
G1 X110 Y40.802 E58.98399
G1 X109.349 Y40.888 E59.00583
G1 X108.739 Y41.139 E59.02777
G1 X108.215 Y41.54 E59.04971
G1 X107.814 Y42.064 E59.07166
G1 X107.563 Y42.674 E59.0936
G1 X107.477 Y43.325 E59.11544
G1 X107.563 Y43.976 E59.13728
G1 X107.814 Y44.586 E59.15922
G1 X108.215 Y45.11 E59.18116
G1 X108.739 Y45.511 E59.20311
G1 X109.349 Y45.762 E59.22505
G1 X110 Y45.848 E59.24689
G1 X110.651 Y45.762 E59.26873
G1 F1500 E52.76873
G0 F6000 X110.58 Y45.489
G0 X111.392 Y44.717
G0 X111.704 Y44.308
G0 X112.243 Y42.725
G0 X110.825 Y43.104
G0 X148.765 Y42.725
G0 X147.29 Y42.725
G0 X147.39 Y10.053
G0 X146.949 Y10.053
G1 F1500 E59.26873
G1 F1200 X146.446 Y9.55 E59.29239
G0 F6000 X145.88 Y9.55
G1 F1200 X146.949 Y10.619 E59.34267
G0 F6000 X146.949 Y11.185
G1 F1200 X145.314 Y9.55 E59.41958
G0 F6000 X144.749 Y9.55
G1 F1200 X146.949 Y11.75 E59.52306
G0 F6000 X146.949 Y12.316
G1 F1200 X144.183 Y9.55 E59.65316
G0 F6000 X143.617 Y9.55
G1 F1200 X146.949 Y12.882 E59.80989
G0 F6000 X146.949 Y13.447
G1 F1200 X143.051 Y9.55 E59.99321
G0 F6000 X142.486 Y9.55
G1 F1200 X146.949 Y14.013 E60.20314
G0 F6000 X146.949 Y14.579
G1 F1200 X141.92 Y9.55 E60.43969
G0 F6000 X141.354 Y9.55
G1 F1200 X146.949 Y15.144 E60.70284
G0 F6000 X146.949 Y15.71
G1 F1200 X140.789 Y9.55 E60.99259
G0 F6000 X140.223 Y9.55
G1 F1200 X146.949 Y16.276 E61.30896
G0 F6000 X146.949 Y16.841
G1 F1200 X139.657 Y9.55 E61.65193
G0 F6000 X139.092 Y9.55
G1 F1200 X146.949 Y17.407 E62.02149
G0 F6000 X146.949 Y17.973
G1 F1200 X138.526 Y9.55 E62.41769
G0 F6000 X137.96 Y9.55
G1 F1200 X146.949 Y18.538 E62.84048
G0 F6000 X146.949 Y19.104
G1 F1200 X137.395 Y9.55 E63.28987
G0 F6000 X136.829 Y9.55
G1 F1200 X146.949 Y19.67 E63.76588
G0 F6000 X146.949 Y20.235
G1 F1200 X136.263 Y9.55 E64.2685
G0 F6000 X135.698 Y9.55
G1 F1200 X146.949 Y20.801 E64.79771
G0 F6000 X146.949 Y21.367
G1 F1200 X135.132 Y9.55 E65.35354
G0 F6000 X134.566 Y9.55
G1 F1200 X146.949 Y21.933 E65.936
G0 F6000 X146.949 Y22.498
G1 F1200 X134 Y9.55 E66.54506
G0 F6000 X133.435 Y9.55
G1 F1200 X146.949 Y23.064 E67.18072
G0 F6000 X146.949 Y23.63
G1 F1200 X132.869 Y9.55 E67.843
G0 F6000 X132.303 Y9.55
G1 F1200 X146.949 Y24.195 E68.53188
G0 F6000 X146.949 Y24.761
G1 F1200 X131.738 Y9.55 E69.24736
G0 F6000 X131.172 Y9.55
G1 F1200 X146.949 Y25.327 E69.98946
G0 F6000 X146.949 Y25.892
G1 F1200 X130.606 Y9.55 E70.75816
G0 F6000 X130.041 Y9.55
G1 F1200 X146.949 Y26.458 E71.55346
G0 F6000 X146.949 Y27.024
G1 F1200 X129.475 Y9.55 E72.37538
G0 F6000 X128.909 Y9.55
G1 F1200 X146.949 Y27.589 E73.2239
G0 F6000 X146.949 Y28.155
G1 F1200 X128.344 Y9.55 E74.09903
G0 F6000 X127.778 Y9.55
G1 F1200 X146.949 Y28.721 E75.00077
G0 F6000 X146.949 Y29.286
G1 F1200 X127.212 Y9.55 E75.92912
G0 F6000 X126.647 Y9.55
G1 F1200 X146.949 Y29.852 E76.88406
G0 F6000 X146.949 Y30.418
G1 F1200 X126.081 Y9.55 E77.86563
G0 F6000 X125.515 Y9.55
G1 F1200 X146.949 Y30.984 E78.87382
G0 F6000 X146.949 Y31.549
G1 F1200 X124.95 Y9.55 E79.90858
G0 F6000 X124.384 Y9.55
G1 F1200 X146.949 Y32.115 E80.96997
G0 F6000 X146.949 Y32.681
G1 F1200 X123.818 Y9.55 E82.05798
G0 F6000 X123.252 Y9.55
G1 F1200 X146.949 Y33.246 E83.17259
G0 F6000 X146.949 Y33.812
G1 F1200 X122.687 Y9.55 E84.3138
G0 F6000 X122.121 Y9.55
G1 F1200 X146.949 Y34.378 E85.48164
G0 F6000 X146.949 Y34.943
G1 F1200 X121.555 Y9.55 E86.67607
G0 F6000 X120.99 Y9.55
G1 F1200 X146.949 Y35.509 E87.8971
G0 F6000 X146.949 Y36.075
G1 F1200 X120.424 Y9.55 E89.14475
G0 F6000 X119.858 Y9.55
G1 F1200 X146.949 Y36.64 E90.41901
G0 F6000 X146.949 Y37.206
G1 F1200 X119.293 Y9.55 E91.71986
G0 F6000 X118.727 Y9.55
G1 F1200 X146.949 Y37.772 E93.04734
G0 F6000 X146.949 Y38.337
G1 F1200 X118.161 Y9.55 E94.40141
G0 F6000 X117.596 Y9.55
G1 F1200 X146.949 Y38.903 E95.78209
G0 F6000 X146.949 Y39.469
G1 F1200 X117.03 Y9.55 E97.18939
G0 F6000 X116.464 Y9.55
G1 F1200 X146.949 Y40.034 E98.62328
G0 F6000 X146.949 Y40.6
G1 F1200 X115.899 Y9.55 E100.08378
G0 F6000 X115.333 Y9.55
G1 F1200 X146.949 Y41.166 E101.5709
G0 F6000 X146.949 Y41.732
G1 F1200 X114.767 Y9.55 E103.08464
G0 F6000 X114.201 Y9.55
G1 F1200 X146.949 Y42.297 E104.62499
G0 F6000 X146.949 Y42.863
G1 F1200 X113.636 Y9.55 E106.19193
G0 F6000 X113.07 Y9.55
G1 F1200 X146.949 Y43.429 E107.78549
G0 F6000 X146.949 Y43.994
G1 F1200 X112.504 Y9.55 E109.40566
G0 F6000 X111.939 Y9.55
G1 F1200 X146.949 Y44.56 E111.05242
G0 F6000 X146.949 Y45.126
G1 F1200 X111.373 Y9.55 E112.7258
G0 F6000 X110.807 Y9.55
G1 F1200 X146.949 Y45.691 E114.42579
G0 F6000 X146.949 Y46.257
G1 F1200 X110.242 Y9.55 E116.15237
G0 F6000 X109.676 Y9.55
G1 F1200 X146.949 Y46.823 E117.90558
G0 F6000 X146.949 Y47.388
G1 F1200 X109.11 Y9.55 E119.68539
G0 F6000 X108.545 Y9.55
G1 F1200 X146.949 Y47.954 E121.4918
G0 F6000 X146.949 Y48.52
G1 F1200 X107.979 Y9.55 E123.32482
G0 F6000 X107.413 Y9.55
G1 F1200 X146.949 Y49.085 E125.18445
G0 F6000 X146.949 Y49.651
G1 F1200 X106.848 Y9.55 E127.07068
G0 F6000 X106.282 Y9.55
G1 F1200 X146.949 Y50.217 E128.98353
G0 F6000 X146.949 Y50.782
G1 F1200 X105.716 Y9.55 E130.92298
G0 F6000 X105.151 Y9.55
G1 F1200 X146.949 Y51.348 E132.88903
G0 F6000 X146.949 Y51.914
G1 F1200 X104.585 Y9.55 E134.88171
G0 F6000 X104.019 Y9.55
G1 F1200 X146.949 Y52.48 E136.901
G0 F6000 X146.949 Y53.045
G1 F1200 X103.453 Y9.55 E138.9469
G0 F6000 X102.888 Y9.55
G1 F1200 X146.949 Y53.611 E141.01939
G0 F6000 X146.949 Y54.177
G1 F1200 X102.322 Y9.55 E143.11851
G0 F6000 X101.756 Y9.55
G1 F1200 X146.949 Y54.742 E145.24422
G0 F6000 X146.949 Y55.308
G1 F1200 X101.191 Y9.55 E147.39654
G0 F6000 X100.625 Y9.55
G1 F1200 X146.949 Y55.874 E149.57548
G0 F6000 X146.949 Y56.439
G1 F1200 X100.059 Y9.55 E151.78102
G0 F6000 X99.494 Y9.55
G1 F1200 X146.949 Y57.005 E154.01316
G0 F6000 X146.949 Y57.571
G1 F1200 X98.928 Y9.55 E156.27192
G0 F6000 X98.362 Y9.55
G1 F1200 X146.949 Y58.136 E158.55728
G0 F6000 X146.949 Y58.702
G1 F1200 X97.797 Y9.55 E160.86924
G0 F6000 X97.231 Y9.55
G1 F1200 X146.949 Y59.268 E163.20782
G0 F6000 X146.949 Y59.833
G1 F1200 X96.665 Y9.55 E165.573
G0 F6000 X96.1 Y9.55
G1 F1200 X146.949 Y60.399 E167.96478
G0 F6000 X146.949 Y60.965
G1 F1200 X95.534 Y9.55 E170.38318
G0 F6000 X94.968 Y9.55
G1 F1200 X146.949 Y61.531 E172.82821
G0 F6000 X146.949 Y62.096
G1 F1200 X94.402 Y9.55 E175.29984
G0 F6000 X93.837 Y9.55
G1 F1200 X146.949 Y62.662 E177.79806
G0 F6000 X146.949 Y63.228
G1 F1200 X93.271 Y9.55 E180.32291
G0 F6000 X92.705 Y9.55
G1 F1200 X146.949 Y63.793 E182.87436
G0 F6000 X146.949 Y64.359
G1 F1200 X92.14 Y9.55 E185.45241
G0 F6000 X91.574 Y9.55
G1 F1200 X146.949 Y64.925 E188.05708
G0 F6000 X146.949 Y65.49
G1 F1200 X91.008 Y9.55 E190.68835
G0 F6000 X90.443 Y9.55
G1 F1200 X146.949 Y66.056 E193.34622
G0 F6000 X146.949 Y66.622
G1 F1200 X89.877 Y9.55 E196.03071
G0 F6000 X89.311 Y9.55
G1 F1200 X146.949 Y67.187 E198.7418
G0 F6000 X146.949 Y67.753
G1 F1200 X88.746 Y9.55 E201.47949
G0 F6000 X88.18 Y9.55
G1 F1200 X146.949 Y68.319 E204.2438
G0 F6000 X146.949 Y68.884
G1 F1200 X87.614 Y9.55 E207.03472
G0 F6000 X87.049 Y9.55
G1 F1200 X146.949 Y69.45 E209.85223
G0 F6000 X146.949 Y70.016
G1 F1200 X86.483 Y9.55 E212.69636
